hapiel/Chataigne-Fairino-control/ai_recordings/bird_robotic.csv
t,j1,j2,j3,j4,j5,j6,x,y,z,rx,ry,rz
0.007,-45.126,-102.920,-70.804,-6.026,57.225,-141.064,320.986,-675.508,683.060,89.730,-39.071,12.269
0.017,-45.126,-102.921,-70.804,-6.026,57.225,-141.064,320.987,-675.509,683.059,89.730,-39.071,12.269
0.027,-45.126,-102.921,-70.804,-6.026,57.225,-141.064,320.990,-675.510,683.055,89.730,-39.071,12.269
0.037,-45.125,-102.921,-70.804,-6.026,57.225,-141.064,320.994,-675.509,683.050,89.731,-39.071,12.269
0.047,-45.125,-102.921,-70.804,-6.026,57.225,-141.063,320.994,-675.509,683.052,89.730,-39.071,12.269
0.057,-45.125,-102.921,-70.804,-6.027,57.225,-141.064,321.000,-675.510,683.043,89.731,-39.070,12.269
0.068,-45.125,-102.921,-70.804,-6.027,57.225,-141.064,321.003,-675.507,683.045,89.731,-39.070,12.270
0.078,-45.125,-102.921,-70.804,-6.027,57.225,-141.064,321.008,-675.504,683.047,89.731,-39.071,12.270
0.088,-45.124,-102.921,-70.804,-6.027,57.225,-141.063,321.010,-675.504,683.045,89.731,-39.071,12.270
0.099,-45.124,-102.921,-70.804,-6.027,57.225,-141.063,321.014,-675.503,683.045,89.731,-39.071,12.270
0.108,-45.124,-102.921,-70.804,-6.027,57.225,-141.064,321.015,-675.501,683.045,89.731,-39.070,12.271
0.118,-45.124,-102.921,-70.805,-6.026,57.225,-141.064,321.016,-675.502,683.042,89.731,-39.070,12.270
0.128,-45.124,-102.921,-70.805,-6.027,57.225,-141.064,321.014,-675.504,683.041,89.732,-39.070,12.270
0.138,-45.124,-102.921,-70.805,-6.026,57.225,-141.064,321.015,-675.505,683.039,89.732,-39.070,12.270
0.148,-45.124,-102.921,-70.805,-6.026,57.225,-141.064,321.012,-675.505,683.040,89.732,-39.070,12.270
0.158,-45.125,-102.921,-70.804,-6.026,57.225,-141.064,321.003,-675.504,683.049,89.731,-39.071,12.270
0.168,-45.125,-102.920,-70.804,-6.026,57.225,-141.063,320.999,-675.504,683.052,89.730,-39.071,12.270
0.178,-45.126,-102.920,-70.804,-6.026,57.225,-141.064,320.984,-675.504,683.064,89.729,-39.071,12.269
0.188,-45.127,-102.920,-70.804,-6.026,57.225,-141.064,320.966,-675.509,683.067,89.729,-39.072,12.268
0.198,-45.127,-102.920,-70.804,-6.026,57.224,-141.064,320.960,-675.513,683.064,89.729,-39.071,12.267
0.208,-45.129,-102.920,-70.805,-6.026,57.225,-141.064,320.951,-675.522,683.054,89.730,-39.071,12.266
0.218,-45.129,-102.921,-70.805,-6.027,57.224,-141.064,320.945,-675.533,683.038,89.732,-39.070,12.264
0.228,-45.130,-102.921,-70.806,-6.027,57.225,-141.064,320.949,-675.539,683.022,89.734,-39.069,12.262
0.238,-45.130,-102.922,-70.807,-6.027,57.225,-141.064,320.958,-675.547,683.002,89.736,-39.068,12.261
0.248,-45.129,-102.923,-70.807,-6.027,57.225,-141.064,320.965,-675.549,682.996,89.736,-39.068,12.261
0.258,-45.129,-102.923,-70.806,-6.027,57.225,-141.064,320.970,-675.549,682.995,89.737,-39.067,12.262
0.268,-45.128,-102.923,-70.806,-6.027,57.225,-141.064,320.977,-675.543,683.005,89.736,-39.068,12.263
0.278,-45.127,-102.923,-70.806,-6.027,57.225,-141.064,320.990,-675.538,683.004,89.736,-39.068,12.264
0.288,-45.127,-102.923,-70.805,-6.027,57.225,-141.064,320.995,-675.534,683.008,89.735,-39.068,12.265
0.298,-45.125,-102.924,-70.806,-6.027,57.225,-141.064,321.023,-675.530,682.995,89.737,-39.068,12.266
0.308,-45.124,-102.924,-70.806,-6.027,57.225,-141.064,321.043,-675.525,682.986,89.737,-39.067,12.267
0.318,-45.123,-102.924,-70.806,-6.027,57.225,-141.064,321.051,-675.523,682.983,89.737,-39.067,12.268
0.329,-45.122,-102.924,-70.806,-6.027,57.226,-141.064,321.059,-675.517,682.987,89.737,-39.067,12.269
0.342,-45.122,-102.923,-70.806,-6.027,57.226,-141.064,321.058,-675.511,682.994,89.737,-39.068,12.270
0.352,-45.122,-102.922,-70.805,-6.027,57.226,-141.064,321.045,-675.500,683.025,89.734,-39.069,12.271
0.362,-45.123,-102.921,-70.805,-6.027,57.226,-141.064,321.033,-675.494,683.039,89.732,-39.070,12.272
0.371,-45.123,-102.919,-70.804,-6.027,57.225,-141.064,321.016,-675.482,683.072,89.729,-39.072,12.273
0.381,-45.124,-102.917,-70.804,-6.026,57.225,-141.064,320.992,-675.474,683.099,89.726,-39.073,12.274
0.392,-45.125,-102.916,-70.804,-6.026,57.225,-141.064,320.974,-675.475,683.110,89.725,-39.073,12.274
0.402,-45.126,-102.916,-70.804,-6.026,57.225,-141.064,320.953,-675.484,683.109,89.725,-39.073,12.271
0.412,-45.128,-102.917,-70.805,-6.026,57.225,-141.064,320.941,-675.496,683.094,89.727,-39.073,12.269
0.421,-45.128,-102.917,-70.805,-6.026,57.225,-141.064,320.936,-675.500,683.091,89.727,-39.072,12.268
0.432,-45.128,-102.917,-70.804,-6.026,57.225,-141.064,320.937,-675.499,683.094,89.727,-39.073,12.269
0.442,-45.128,-102.917,-70.804,-6.026,57.224,-141.064,320.940,-675.499,683.093,89.727,-39.073,12.268
0.450,-45.128,-102.917,-70.804,-6.026,57.224,-141.064,320.941,-675.497,683.098,89.726,-39.073,12.269
0.460,-45.127,-102.918,-70.804,-6.026,57.225,-141.064,320.953,-675.499,683.086,89.727,-39.072,12.269
0.470,-45.127,-102.919,-70.804,-6.027,57.224,-141.064,320.963,-675.504,683.074,89.729,-39.071,12.268
0.480,-45.126,-102.919,-70.805,-6.027,57.225,-141.064,320.975,-675.504,683.064,89.730,-39.071,12.269
0.490,-45.124,-102.920,-70.805,-6.027,57.225,-141.064,321.001,-675.498,683.053,89.731,-39.070,12.270
0.500,-45.123,-102.920,-70.805,-6.027,57.225,-141.064,321.019,-675.490,683.049,89.731,-39.070,12.271
0.510,-45.122,-102.920,-70.805,-6.027,57.225,-141.064,321.027,-675.488,683.050,89.731,-39.070,12.272
0.520,-45.122,-102.919,-70.805,-6.027,57.225,-141.064,321.027,-675.482,683.055,89.731,-39.070,12.273
0.530,-45.122,-102.919,-70.805,-6.027,57.225,-141.064,321.018,-675.479,683.068,89.729,-39.071,12.273
0.540,-45.123,-102.918,-70.804,-6.027,57.225,-141.064,321.008,-675.475,683.081,89.728,-39.072,12.273
0.550,-45.123,-102.916,-70.804,-6.026,57.225,-141.064,320.988,-675.468,683.108,89.725,-39.073,12.274
0.560,-45.123,-102.915,-70.803,-6.026,57.225,-141.064,320.978,-675.459,683.128,89.724,-39.074,12.275
0.569,-45.124,-102.915,-70.803,-6.026,57.225,-141.064,320.968,-675.459,683.137,89.722,-39.074,12.275
0.579,-45.125,-102.915,-70.803,-6.026,57.225,-141.064,320.961,-675.461,683.135,89.723,-39.074,12.275
0.589,-45.126,-102.915,-70.803,-6.026,57.225,-141.064,320.951,-675.471,683.129,89.723,-39.074,12.273
0.599,-45.126,-102.916,-70.804,-6.026,57.224,-141.064,320.946,-675.478,683.120,89.724,-39.074,12.272
0.609,-45.127,-102.917,-70.804,-6.026,57.224,-141.064,320.944,-675.492,683.101,89.726,-39.073,12.270
0.619,-45.127,-102.918,-70.804,-6.026,57.224,-141.064,320.953,-675.501,683.084,89.727,-39.072,12.269
0.629,-45.127,-102.919,-70.804,-6.026,57.224,-141.064,320.960,-675.507,683.069,89.729,-39.071,12.268
0.639,-45.127,-102.921,-70.804,-6.026,57.224,-141.064,320.980,-675.518,683.044,89.731,-39.070,12.267
0.649,-45.126,-102.923,-70.805,-6.027,57.225,-141.064,321.003,-675.527,683.017,89.734,-39.069,12.266
0.659,-45.125,-102.924,-70.805,-6.027,57.225,-141.064,321.018,-675.532,683.001,89.735,-39.068,12.266
0.669,-45.125,-102.926,-70.805,-6.027,57.225,-141.064,321.036,-675.541,682.975,89.738,-39.067,12.265
0.679,-45.124,-102.927,-70.806,-6.027,57.225,-141.064,321.056,-675.547,682.954,89.740,-39.066,12.265
0.689,-45.123,-102.928,-70.806,-6.027,57.225,-141.064,321.066,-675.548,682.947,89.740,-39.066,12.265
0.699,-45.123,-102.929,-70.806,-6.027,57.225,-141.064,321.085,-675.551,682.932,89.742,-39.065,12.265
0.709,-45.122,-102.929,-70.806,-6.027,57.225,-141.064,321.088,-675.548,682.934,89.742,-39.065,12.265
0.719,-45.122,-102.928,-70.805,-6.027,57.225,-141.064,321.086,-675.543,682.944,89.741,-39.065,12.266
0.729,-45.122,-102.927,-70.805,-6.027,57.225,-141.064,321.071,-675.532,682.971,89.738,-39.066,12.268
0.739,-45.123,-102.925,-70.804,-6.027,57.225,-141.064,321.049,-675.521,683.004,89.735,-39.068,12.269
0.749,-45.123,-102.923,-70.804,-6.026,57.225,-141.064,321.033,-675.515,683.023,89.733,-39.069,12.269
0.759,-45.124,-102.921,-70.803,-6.026,57.225,-141.064,321.007,-675.501,683.063,89.729,-39.071,12.271
0.769,-45.125,-102.919,-70.802,-6.026,57.225,-141.064,320.983,-675.491,683.092,89.726,-39.072,12.272
0.779,-45.125,-102.918,-70.802,-6.026,57.225,-141.064,320.971,-675.486,683.108,89.725,-39.073,12.273
0.789,-45.126,-102.916,-70.802,-6.026,57.225,-141.064,320.948,-675.478,683.134,89.722,-39.074,12.273
0.799,-45.126,-102.916,-70.802,-6.026,57.224,-141.064,320.939,-675.475,683.145,89.721,-39.075,12.273
0.809,-45.127,-102.916,-70.802,-6.026,57.224,-141.064,320.936,-675.477,683.143,89.721,-39.075,12.273
0.819,-45.127,-102.917,-70.802,-6.026,57.224,-141.064,320.946,-675.485,683.127,89.723,-39.074,12.272
0.829,-45.127,-102.918,-70.803,-6.026,57.224,-141.064,320.959,-675.496,683.099,89.726,-39.072,12.270
0.838,-45.126,-102.919,-70.803,-6.026,57.224,-141.064,320.971,-675.503,683.078,89.728,-39.071,12.269
0.849,-45.126,-102.921,-70.803,-6.027,57.224,-141.064,320.988,-675.513,683.055,89.730,-39.070,12.268
0.859,-45.125,-102.923,-70.804,-6.027,57.225,-141.064,321.015,-675.520,683.027,89.733,-39.069,12.268
0.868,-45.124,-102.924,-70.804,-6.027,57.226,-141.064,321.038,-675.523,683.010,89.735,-39.069,12.269
0.879,-45.122,-102.926,-70.805,-6.028,57.227,-141.064,321.077,-675.528,682.973,89.739,-39.067,12.269
0.889,-45.121,-102.928,-70.805,-6.029,57.228,-141.064,321.112,-675.534,682.945,89.742,-39.065,12.270
0.899,-45.120,-102.929,-70.805,-6.029,57.229,-141.064,321.127,-675.534,682.933,89.743,-39.065,12.270
0.908,-45.119,-102.930,-70.805,-6.029,57.230,-141.064,321.161,-675.531,682.919,89.744,-39.064,12.272
0.919,-45.117,-102.930,-70.805,-6.029,57.231,-141.063,321.183,-675.527,682.910,89.745,-39.064,12.273
0.929,-45.117,-102.930,-70.805,-6.029,57.230,-141.063,321.186,-675.528,682.907,89.746,-39.064,12.273
0.938,-45.117,-102.931,-70.806,-6.031,57.230,-141.063,321.192,-675.535,682.888,89.748,-39.062,12.271
0.949,-45.118,-102.932,-70.807,-6.033,57.229,-141.063,321.186,-675.548,682.859,89.753,-39.060,12.266
0.959,-45.119,-102.932,-70.808,-6.035,57.228,-141.063,321.170,-675.557,682.847,89.755,-39.059,12.263
0.969,-45.121,-102.932,-70.810,-6.039,57.227,-141.063,321.145,-675.583,682.804,89.763,-39.055,12.254
0.978,-45.125,-102.932,-70.814,-6.048,57.226,-141.063,321.120,-675.622,682.722,89.777,-39.048,12.241
0.989,-45.127,-102.933,-70.816,-6.055,57.226,-141.063,321.110,-675.644,682.671,89.787,-39.043,12.233
1.000,-45.131,-102.934,-70.821,-6.072,57.226,-141.064,321.097,-675.703,682.537,89.812,-39.030,12.213
1.009,-45.133,-102.936,-70.824,-6.088,57.226,-141.064,321.102,-675.748,682.420,89.835,-39.019,12.197
1.019,-45.134,-102.936,-70.826,-6.092,57.226,-141.064,321.101,-675.761,682.386,89.842,-39.016,12.192
1.029,-45.136,-102.936,-70.825,-6.093,57.226,-141.064,321.077,-675.777,682.380,89.843,-39.015,12.189
1.039,-45.139,-102.936,-70.824,-6.093,57.226,-141.064,321.049,-675.788,682.391,89.842,-39.015,12.187
1.049,-45.140,-102.936,-70.825,-6.093,57.226,-141.064,321.038,-675.795,682.387,89.842,-39.015,12.186
1.058,-45.140,-102.938,-70.825,-6.093,57.226,-141.064,321.043,-675.804,682.372,89.843,-39.015,12.185
1.069,-45.138,-102.940,-70.826,-6.093,57.226,-141.064,321.087,-675.812,682.322,89.848,-39.012,12.184
1.079,-45.136,-102.943,-70.827,-6.093,57.226,-141.064,321.121,-675.823,682.284,89.852,-39.010,12.183
1.088,-45.133,-102.952,-70.829,-6.093,57.227,-141.064,321.231,-675.865,682.152,89.864,-39.004,12.180
1.099,-45.129,-102.966,-70.830,-6.093,57.228,-141.064,321.382,-675.944,681.954,89.881,-38.995,12.174
1.108,-45.127,-102.972,-70.831,-6.093,57.228,-141.064,321.445,-675.973,681.877,89.888,-38.992,12.172
1.119,-45.122,-102.983,-70.832,-6.093,57.229,-141.064,321.582,-676.024,681.722,89.902,-38.985,12.169
1.128,-45.118,-102.993,-70.833,-6.093,57.229,-141.064,321.695,-676.061,681.607,89.912,-38.980,12.167
1.138,-45.116,-102.997,-70.833,-6.093,57.230,-141.064,321.748,-676.077,681.558,89.916,-38.977,12.166
1.148,-45.113,-103.002,-70.833,-6.093,57.230,-141.064,321.825,-676.092,681.490,89.922,-38.975,12.167
1.159,-45.109,-103.004,-70.833,-6.092,57.231,-141.065,321.879,-676.085,681.470,89.923,-38.974,12.170
1.168,-45.108,-103.005,-70.833,-6.092,57.231,-141.065,321.911,-676.084,681.452,89.925,-38.973,12.171
1.178,-45.104,-103.010,-70.834,-6.092,57.231,-141.065,321.981,-676.096,681.391,89.930,-38.970,12.171
1.189,-45.103,-103.020,-70.834,-6.092,57.232,-141.065,322.068,-676.155,681.261,89.941,-38.964,12.166
1.198,-45.103,-103.027,-70.834,-6.092,57.232,-141.065,322.111,-676.205,681.175,89.949,-38.960,12.161
1.208,-45.104,-103.045,-70.834,-6.091,57.232,-141.065,322.225,-676.332,680.948,89.968,-38.951,12.148
1.219,-45.106,-103.065,-70.835,-6.091,57.232,-141.065,322.336,-676.476,680.698,89.991,-38.940,12.132
1.229,-45.107,-103.078,-70.835,-6.091,57.232,-141.065,322.414,-676.567,680.533,90.005,-38.932,12.122
1.238,-45.107,-103.109,-70.836,-6.091,57.234,-141.065,322.625,-676.777,680.144,90.039,-38.915,12.102
1.249,-45.105,-103.136,-70.838,-6.092,57.236,-141.065,322.840,-676.945,679.789,90.071,-38.899,12.087
1.259,-45.103,-103.145,-70.841,-6.093,57.239,-141.065,322.943,-676.997,679.645,90.085,-38.892,12.082
1.269,-45.100,-103.160,-70.843,-6.093,57.246,-141.065,323.108,-677.078,679.438,90.103,-38.883,12.081
1.279,-45.097,-103.164,-70.847,-6.093,57.252,-141.065,323.208,-677.092,679.339,90.112,-38.879,12.084
1.290,-45.096,-103.164,-70.849,-6.093,57.253,-141.065,323.231,-677.082,679.327,90.114,-38.878,12.086
1.299,-45.092,-103.162,-70.850,-6.092,57.256,-141.065,323.278,-677.044,679.341,90.112,-38.879,12.094
1.309,-45.089,-103.160,-70.851,-6.090,57.258,-141.065,323.306,-677.020,679.358,90.109,-38.880,12.100
1.318,-45.088,-103.159,-70.851,-6.090,57.260,-141.065,323.321,-677.006,679.370,90.108,-38.881,12.104
1.328,-45.086,-103.158,-70.852,-6.089,57.265,-141.064,323.366,-676.978,679.378,90.107,-38.882,12.112
1.338,-45.082,-103.157,-70.853,-6.089,57.272,-141.064,323.439,-676.948,679.374,90.107,-38.882,12.123
1.349,-45.081,-103.158,-70.855,-6.088,57.277,-141.064,323.483,-676.943,679.348,90.109,-38.881,12.128
1.358,-45.083,-103.158,-70.859,-6.088,57.290,-141.064,323.520,-676.951,679.310,90.113,-38.879,12.136
1.369,-45.084,-103.157,-70.865,-6.088,57.307,-141.064,323.588,-676.940,679.259,90.118,-38.876,12.149
1.378,-45.084,-103.156,-70.871,-6.088,57.319,-141.064,323.644,-676.934,679.208,90.124,-38.874,12.157
1.389,-45.084,-103.154,-70.886,-6.088,57.348,-141.064,323.776,-676.924,679.071,90.138,-38.867,12.176
1.399,-45.085,-103.154,-70.897,-6.088,57.388,-141.064,323.969,-676.907,678.951,90.150,-38.862,12.208
1.408,-45.085,-103.154,-70.903,-6.088,57.420,-141.063,324.118,-676.889,678.888,90.156,-38.859,12.236
1.419,-45.088,-103.156,-70.909,-6.088,57.490,-141.063,324.418,-676.867,678.798,90.165,-38.855,12.297
1.429,-45.092,-103.158,-70.919,-6.088,57.621,-141.063,325.005,-676.800,678.660,90.179,-38.848,12.417
1.439,-45.092,-103.159,-70.925,-6.088,57.684,-141.063,325.291,-676.758,678.595,90.186,-38.846,12.476
1.449,-45.093,-103.157,-70.951,-6.088,57.857,-141.062,326.098,-676.634,678.331,90.213,-38.833,12.631
1.460,-45.092,-103.156,-70.994,-6.087,58.055,-141.062,327.046,-676.507,677.885,90.258,-38.812,12.800
1.469,-45.092,-103.156,-71.017,-6.087,58.168,-141.062,327.594,-676.435,677.635,90.284,-38.800,12.898
1.480,-45.093,-103.155,-71.068,-6.087,58.410,-141.062,328.742,-676.281,677.102,90.339,-38.775,13.105
1.489,-45.096,-103.155,-71.125,-6.086,58.691,-141.062,330.046,-676.107,676.492,90.401,-38.748,13.344
1.499,-45.098,-103.155,-71.157,-6.086,58.845,-141.062,330.762,-676.013,676.153,90.436,-38.731,13.474
1.509,-45.104,-103.155,-71.224,-6.086,59.188,-141.062,332.327,-675.806,675.418,90.512,-38.699,13.763
1.519,-45.111,-103.155,-71.299,-6.086,59.604,-141.062,334.223,-675.523,674.609,90.596,-38.664,14.120
1.529,-45.113,-103.154,-71.335,-6.086,59.809,-141.062,335.162,-675.369,674.218,90.636,-38.648,14.298
1.539,-45.118,-103.152,-71.406,-6.085,60.206,-141.061,336.962,-675.061,673.468,90.715,-38.617,14.641
1.549,-45.130,-103.149,-71.487,-6.084,60.684,-141.061,339.047,-674.691,672.623,90.803,-38.584,15.051
1.559,-45.137,-103.146,-71.527,-6.083,60.939,-141.061,340.136,-674.481,672.226,90.845,-38.569,15.273
1.569,-45.154,-103.139,-71.609,-6.080,61.479,-141.061,342.402,-674.015,671.425,90.929,-38.541,15.744
1.579,-45.173,-103.133,-71.687,-6.074,62.047,-141.061,344.763,-673.505,670.652,91.009,-38.516,16.243
1.589,-45.182,-103.131,-71.727,-6.072,62.344,-141.061,346.002,-673.235,670.240,91.052,-38.503,16.503
1.599,-45.200,-103.129,-71.812,-6.065,62.962,-141.061,348.627,-672.646,669.344,91.144,-38.477,17.047
1.609,-45.225,-103.125,-71.907,-6.055,63.617,-141.061,351.306,-672.026,668.369,91.243,-38.450,17.616
1.618,-45.244,-103.121,-71.963,-6.050,64.013,-141.061,352.875,-671.652,667.798,91.302,-38.435,17.956
1.629,-45.282,-103.117,-72.047,-6.041,64.663,-141.061,355.347,-671.059,666.936,91.390,-38.415,18.512
1.639,-45.342,-103.115,-72.138,-6.021,65.403,-141.061,357.951,-670.446,666.016,91.478,-38.400,19.137
1.649,-45.377,-103.115,-72.182,-6.006,65.774,-141.061,359.202,-670.152,665.584,91.516,-38.395,19.450
1.659,-45.456,-103.116,-72.270,-5.970,66.560,-141.061,361.769,-669.541,664.708,91.587,-38.389,20.113
1.670,-45.543,-103.115,-72.361,-5.922,67.374,-141.061,364.331,-668.870,663.873,91.646,-38.390,20.803
1.679,-45.587,-103.115,-72.405,-5.891,67.790,-141.061,365.633,-668.503,663.500,91.667,-38.394,21.162
1.689,-45.671,-103.116,-72.490,-5.813,68.648,-141.061,368.371,-667.646,662.837,91.686,-38.410,21.924
1.699,-45.778,-103.116,-72.584,-5.684,69.591,-141.062,371.128,-666.709,662.297,91.657,-38.444,22.777
1.711,-45.822,-103.116,-72.619,-5.621,69.954,-141.062,372.150,-666.334,662.161,91.627,-38.462,23.116
1.721,-45.931,-103.118,-72.708,-5.434,70.854,-141.062,374.617,-665.365,661.917,91.521,-38.515,23.971
1.731,-46.059,-103.120,-72.800,-5.186,71.839,-141.062,377.162,-664.244,661.904,91.344,-38.585,24.939
1.740,-46.125,-103.121,-72.845,-5.044,72.301,-141.062,378.253,-663.716,661.987,91.233,-38.624,25.404
1.751,-46.259,-103.124,-72.935,-4.768,73.141,-141.063,380.052,-662.818,662.134,91.013,-38.693,26.247
1.759,-46.405,-103.127,-73.044,-4.423,74.063,-141.063,381.984,-661.748,662.370,90.732,-38.771,27.198
1.771,-46.491,-103.129,-73.111,-4.206,74.600,-141.064,383.092,-661.096,662.529,90.552,-38.817,27.762
1.781,-46.626,-103.132,-73.224,-3.825,75.446,-141.064,384.772,-659.992,662.906,90.224,-38.891,28.680
1.791,-46.776,-103.131,-73.363,-3.368,76.363,-141.065,386.481,-658.732,663.357,89.828,-38.967,29.696
1.801,-46.850,-103.131,-73.443,-3.113,76.816,-141.066,387.301,-658.071,663.586,89.608,-39.005,30.213
1.811,-47.002,-103.133,-73.606,-2.594,77.722,-141.066,388.873,-656.748,664.034,89.160,-39.073,31.248
1.821,-47.156,-103.133,-73.779,-2.028,78.601,-141.066,390.248,-655.385,664.615,88.659,-39.136,32.290
1.831,-47.234,-103.133,-73.867,-1.738,79.040,-141.066,390.906,-654.695,664.904,88.402,-39.163,32.813
1.841,-47.398,-103.132,-74.052,-1.129,79.901,-141.067,392.010,-653.328,665.555,87.856,-39.209,33.854
1.849,-47.571,-103.130,-74.243,-0.503,80.732,-141.068,392.838,-652.028,666.236,87.293,-39.243,34.868
1.858,-47.660,-103.129,-74.340,-0.176,81.143,-141.068,393.191,-651.369,666.620,86.994,-39.256,35.380
1.869,-47.839,-103.128,-74.532,0.481,81.935,-141.070,393.727,-650.101,667.409,86.391,-39.270,36.373
1.879,-48.009,-103.126,-74.721,1.160,82.699,-141.074,394.199,-648.758,668.331,85.755,-39.270,37.368
1.889,-48.093,-103.126,-74.819,1.515,83.073,-141.077,394.383,-648.073,668.829,85.420,-39.264,37.868
1.899,-48.263,-103.123,-75.021,2.233,83.788,-141.086,394.590,-646.736,669.794,84.749,-39.239,38.837
1.909,-48.444,-103.121,-75.232,3.017,84.532,-141.090,394.693,-645.285,670.942,84.004,-39.201,39.869
1.919,-48.514,-103.120,-75.311,3.326,84.807,-141.091,394.653,-644.734,671.440,83.705,-39.183,40.261
1.929,-48.703,-103.117,-75.510,4.124,85.485,-141.092,394.329,-643.399,672.781,82.929,-39.128,41.237
1.939,-48.880,-103.114,-75.672,4.802,86.030,-141.094,393.714,-642.405,674.001,82.260,-39.068,42.024
1.952,-48.985,-103.110,-75.758,5.184,86.315,-141.095,393.208,-641.907,674.765,81.876,-39.029,42.444
1.961,-49.211,-103.104,-75.920,5.948,86.856,-141.100,391.869,-641.045,676.399,81.096,-38.942,43.246
1.972,-49.434,-103.093,-76.074,6.727,87.355,-141.106,390.327,-640.185,678.208,80.287,-38.840,44.024
1.982,-49.543,-103.090,-76.145,7.133,87.595,-141.109,389.523,-639.719,679.232,79.856,-38.783,44.423
1.991,-49.758,-103.082,-76.285,7.943,88.041,-141.111,387.802,-638.817,681.291,78.996,-38.664,45.188
2.002,-49.964,-103.068,-76.423,8.788,88.461,-141.111,385.981,-637.782,683.573,78.086,-38.531,45.964
2.011,-50.062,-103.061,-76.487,9.222,88.659,-141.111,385.044,-637.215,684.814,77.611,-38.458,46.356
2.022,-50.229,-103.046,-76.591,10.048,88.995,-141.112,383.285,-636.042,687.384,76.686,-38.311,47.095
2.031,-50.414,-103.030,-76.700,11.062,89.363,-141.113,381.145,-634.521,690.666,75.539,-38.116,47.981
2.041,-50.510,-103.026,-76.750,11.619,89.543,-141.113,379.952,-633.701,692.507,74.904,-38.002,48.453
2.049,-50.663,-103.021,-76.818,12.522,89.808,-141.113,377.909,-632.378,695.589,73.866,-37.809,49.196
2.059,-50.824,-103.015,-76.867,13.540,90.072,-141.114,375.539,-630.780,699.350,72.667,-37.574,50.026
2.069,-50.897,-103.012,-76.880,14.060,90.193,-141.114,374.342,-629.898,701.379,72.043,-37.447,50.450
2.079,-51.031,-103.005,-76.902,15.129,90.410,-141.113,371.910,-627.999,705.572,70.761,-37.178,51.303
2.089,-51.146,-102.998,-76.905,16.216,90.585,-141.113,369.425,-625.940,710.013,69.439,-36.889,52.153
2.099,-51.196,-102.993,-76.904,16.770,90.660,-141.113,368.167,-624.845,712.283,68.766,-36.738,52.577
2.109,-51.277,-102.982,-76.898,17.885,90.779,-141.113,365.706,-622.507,716.872,67.412,-36.425,53.418
2.119,-51.339,-102.966,-76.896,19.033,90.858,-141.112,363.156,-619.992,721.548,66.024,-36.097,54.251
2.129,-51.363,-102.959,-76.895,19.614,90.886,-141.112,361.899,-618.678,723.879,65.327,-35.928,54.664
2.139,-51.399,-102.947,-76.891,20.898,90.925,-141.112,359.171,-615.693,728.954,63.793,-35.545,55.560
2.148,-51.412,-102.931,-76.891,22.007,90.942,-141.112,356.873,-612.948,733.279,62.480,-35.204,56.323
2.158,-51.411,-102.920,-76.891,22.605,90.946,-141.112,355.669,-611.392,735.601,61.773,-35.016,56.735
2.168,-51.408,-102.898,-76.893,23.832,90.950,-141.111,353.148,-608.140,740.308,60.333,-34.618,57.564
2.178,-51.404,-102.881,-76.891,25.059,90.949,-141.111,350.576,-604.850,744.909,58.907,-34.204,58.373
2.188,-51.403,-102.871,-76.890,25.677,90.950,-141.111,349.258,-603.162,747.192,58.195,-33.990,58.774
2.198,-51.401,-102.844,-76.890,26.910,90.950,-141.111,346.508,-599.678,751.770,56.776,-33.547,59.565
2.208,-51.400,-102.812,-76.889,28.155,90.949,-141.112,343.620,-596.053,756.371,55.351,-33.081,60.347
2.218,-51.399,-102.794,-76.887,28.771,90.949,-141.112,342.159,-594.214,758.637,54.649,-32.843,60.730
2.228,-51.398,-102.754,-76.890,30.024,90.949,-141.113,339.126,-590.388,763.175,53.233,-32.348,61.494
2.238,-51.394,-102.708,-76.889,31.380,90.949,-141.113,335.776,-586.129,768.023,51.713,-31.793,62.304
2.249,-51.393,-102.692,-76.889,31.898,90.949,-141.114,334.491,-584.490,769.821,51.139,-31.577,62.606
2.258,-51.391,-102.658,-76.889,33.142,90.948,-141.115,331.376,-580.558,774.015,49.776,-31.049,63.315
2.268,-51.391,-102.630,-76.889,34.362,90.948,-141.116,328.297,-576.701,777.950,48.461,-30.521,63.988
2.278,-51.392,-102.620,-76.888,34.969,90.946,-141.116,326.745,-574.793,779.844,47.814,-30.255,64.313
2.289,-51.395,-102.600,-76.887,36.170,90.945,-141.117,323.662,-570.986,783.492,46.547,-29.719,64.942
2.298,-51.399,-102.582,-76.888,37.332,90.945,-141.119,320.624,-567.267,786.896,45.337,-29.189,65.531
2.308,-51.400,-102.577,-76.888,37.908,90.944,-141.120,319.143,-565.429,788.516,44.745,-28.924,65.817
2.319,-51.402,-102.570,-76.889,39.025,90.944,-141.123,316.257,-561.864,791.540,43.610,-28.403,66.356
2.328,-51.404,-102.560,-76.891,40.099,90.942,-141.130,313.438,-558.376,794.375,42.530,-27.892,66.859
2.338,-51.406,-102.554,-76.891,40.622,90.941,-141.134,312.031,-556.655,795.749,42.006,-27.639,67.098
2.349,-51.410,-102.541,-76.890,41.634,90.940,-141.139,309.264,-553.269,798.390,40.993,-27.142,67.555
2.358,-51.415,-102.523,-76.892,42.581,90.939,-141.141,306.612,-550.043,800.819,40.050,-26.672,67.975
2.368,-51.417,-102.514,-76.891,43.037,90.938,-141.141,305.319,-548.460,801.992,39.596,-26.443,68.175
2.378,-51.419,-102.497,-76.890,43.884,90.936,-141.142,302.925,-545.513,804.105,38.759,-26.015,68.541
2.388,-51.419,-102.475,-76.890,44.638,90.934,-141.142,300.744,-542.789,806.016,38.013,-25.626,68.865
2.398,-51.419,-102.457,-76.892,45.052,90.934,-141.142,299.503,-541.249,807.085,37.602,-25.409,69.041
2.409,-51.420,-102.430,-76.892,45.632,90.933,-141.142,297.728,-539.043,808.611,37.023,-25.100,69.287
2.419,-51.422,-102.399,-76.892,46.173,90.931,-141.142,296.019,-536.946,810.055,36.482,-24.809,69.512
2.429,-51.423,-102.382,-76.893,46.416,90.931,-141.142,295.215,-535.963,810.739,36.236,-24.675,69.613
2.439,-51.427,-102.349,-76.893,46.840,90.929,-141.142,293.785,-534.236,811.938,35.806,-24.441,69.788
2.449,-51.427,-102.307,-76.895,47.171,90.929,-141.142,292.568,-532.725,813.026,35.457,-24.248,69.931
2.459,-51.427,-102.284,-76.896,47.306,90.929,-141.141,292.037,-532.055,813.520,35.311,-24.167,69.991
2.469,-51.426,-102.232,-76.897,47.511,90.929,-141.141,291.109,-530.867,814.454,35.071,-24.033,70.091
2.479,-51.425,-102.174,-76.897,47.637,90.929,-141.140,290.347,-529.890,815.305,34.899,-23.937,70.163
2.489,-51.424,-102.143,-76.896,47.677,90.929,-141.140,290.013,-529.458,815.711,34.832,-23.899,70.190
2.499,-51.422,-102.063,-76.897,47.722,90.930,-141.140,289.326,-528.558,816.618,34.716,-23.834,70.240
2.509,-51.418,-101.990,-76.897,47.726,90.930,-141.140,288.804,-527.845,817.390,34.644,-23.793,70.273
2.519,-51.416,-101.947,-76.897,47.723,90.930,-141.140,288.517,-527.450,817.826,34.608,-23.772,70.290
2.529,-51.412,-101.859,-76.897,47.721,90.930,-141.139,287.913,-526.623,818.727,34.528,-23.727,70.327
2.539,-51.408,-101.778,-76.895,47.721,90.930,-141.139,287.343,-525.843,819.583,34.450,-23.684,70.362
2.548,-51.407,-101.734,-76.894,47.723,90.931,-141.139,287.030,-525.426,820.038,34.408,-23.659,70.381
2.559,-51.406,-101.668,-76.894,47.725,90.932,-141.138,286.542,-524.795,820.724,34.345,-23.623,70.408
2.569,-51.405,-101.596,-76.895,47.725,90.933,-141.138,286.020,-524.119,821.459,34.278,-23.585,70.436
2.579,-51.405,-101.563,-76.896,47.726,90.933,-141.138,285.780,-523.812,821.792,34.248,-23.567,70.449
2.589,-51.405,-101.506,-76.896,47.726,90.933,-141.137,285.354,-523.287,822.372,34.196,-23.538,70.470
2.599,-51.407,-101.458,-76.896,47.727,90.934,-141.136,284.977,-522.839,822.871,34.150,-23.512,70.487
2.609,-51.408,-101.437,-76.895,47.728,90.934,-141.136,284.814,-522.649,823.084,34.130,-23.500,70.494
2.619,-51.409,-101.393,-76.894,47.729,90.934,-141.136,284.469,-522.234,823.548,34.086,-23.476,70.511
2.629,-51.411,-101.350,-76.895,47.729,90.934,-141.135,284.136,-521.838,823.986,34.047,-23.453,70.526
2.639,-51.411,-101.327,-76.895,47.730,90.934,-141.135,283.962,-521.625,824.220,34.025,-23.440,70.534
2.649,-51.412,-101.280,-76.896,47.730,90.935,-141.135,283.609,-521.189,824.688,33.983,-23.415,70.551
2.659,-51.412,-101.231,-76.896,47.730,90.935,-141.134,283.241,-520.729,825.192,33.937,-23.390,70.570
2.671,-51.412,-101.205,-76.896,47.730,90.935,-141.133,283.054,-520.491,825.451,33.913,-23.377,70.580
2.681,-51.411,-101.159,-76.897,47.732,90.937,-141.133,282.724,-520.039,825.921,33.870,-23.351,70.600
2.691,-51.410,-101.125,-76.896,47.734,90.938,-141.131,282.474,-519.705,826.277,33.836,-23.331,70.616
2.701,-51.409,-101.112,-76.895,47.735,90.939,-141.131,282.380,-519.569,826.423,33.822,-23.323,70.623
2.711,-51.408,-101.087,-76.896,47.733,90.939,-141.130,282.211,-519.340,826.665,33.801,-23.312,70.633
2.721,-51.409,-101.075,-76.894,47.734,90.938,-141.129,282.103,-519.225,826.804,33.787,-23.305,70.638
2.731,-51.409,-101.070,-76.895,47.733,90.937,-141.129,282.069,-519.185,826.846,33.784,-23.304,70.639
2.739,-51.410,-101.062,-76.897,47.733,90.937,-141.128,282.005,-519.122,826.907,33.778,-23.302,70.641
2.751,-51.410,-101.058,-76.897,47.734,90.938,-141.127,281.972,-519.079,826.952,33.773,-23.299,70.644
2.761,-51.409,-101.056,-76.897,47.734,90.938,-141.128,281.966,-519.066,826.962,33.772,-23.298,70.644
2.769,-51.410,-101.053,-76.898,47.735,90.939,-141.127,281.934,-519.033,826.995,33.769,-23.296,70.646
2.781,-51.411,-101.045,-76.898,47.737,90.941,-141.128,281.864,-518.947,827.085,33.760,-23.288,70.649
2.789,-51.411,-101.038,-76.898,47.739,90.942,-141.128,281.813,-518.873,827.158,33.753,-23.283,70.652
2.801,-51.411,-101.018,-76.898,47.739,90.944,-141.128,281.670,-518.685,827.355,33.735,-23.271,70.660
2.809,-51.411,-101.000,-76.898,47.738,90.943,-141.128,281.536,-518.515,827.542,33.719,-23.262,70.667
2.821,-51.411,-100.988,-76.898,47.737,90.943,-141.128,281.453,-518.412,827.653,33.710,-23.257,70.671
2.829,-51.411,-100.968,-76.899,47.737,90.942,-141.127,281.307,-518.225,827.850,33.692,-23.248,70.678
2.841,-51.410,-100.952,-76.898,47.734,90.942,-141.127,281.194,-518.085,828.013,33.679,-23.241,70.683
2.849,-51.410,-100.947,-76.897,47.733,90.942,-141.128,281.163,-518.037,828.066,33.674,-23.238,70.685
2.859,-51.409,-100.938,-76.898,47.733,90.942,-141.128,281.103,-517.946,828.156,33.666,-23.233,70.689
2.869,-51.409,-100.927,-76.897,47.734,90.942,-141.128,281.018,-517.837,828.275,33.655,-23.227,70.694
2.881,-51.408,-100.921,-76.898,47.734,90.942,-141.128,280.985,-517.777,828.332,33.650,-23.224,70.697
2.889,-51.407,-100.909,-76.900,47.734,90.942,-141.128,280.906,-517.669,828.432,33.641,-23.218,70.701
2.898,-51.407,-100.902,-76.901,47.735,90.942,-141.128,280.848,-517.600,828.503,33.633,-23.214,70.704
2.912,-51.407,-100.900,-76.900,47.735,90.942,-141.128,280.838,-517.585,828.522,33.632,-23.213,70.705
2.922,-51.406,-100.897,-76.900,47.735,90.942,-141.128,280.822,-517.550,828.553,33.629,-23.211,70.707
2.931,-51.407,-100.891,-76.900,47.734,90.942,-141.128,280.779,-517.500,828.611,33.624,-23.209,70.708
2.942,-51.406,-100.888,-76.900,47.734,90.942,-141.128,280.755,-517.467,828.647,33.622,-23.207,70.710
2.952,-51.406,-100.878,-76.900,47.732,90.942,-141.128,280.688,-517.383,828.739,33.614,-23.203,70.713
2.962,-51.406,-100.865,-76.901,47.731,90.941,-141.127,280.589,-517.270,828.863,33.603,-23.198,70.716
2.972,-51.406,-100.859,-76.901,47.731,90.941,-141.128,280.550,-517.222,828.916,33.599,-23.196,70.717
2.982,-51.405,-100.844,-76.902,47.730,90.941,-141.128,280.452,-517.078,829.060,33.586,-23.188,70.724
2.992,-51.405,-100.832,-76.903,47.730,90.941,-141.128,280.368,-516.964,829.176,33.576,-23.182,70.729
3.002,-51.404,-100.827,-76.903,47.728,90.941,-141.128,280.345,-516.926,829.218,33.574,-23.181,70.730
3.009,-51.404,-100.821,-76.904,47.728,90.941,-141.127,280.301,-516.872,829.272,33.569,-23.178,70.732
3.019,-51.405,-100.814,-76.904,47.723,90.941,-141.127,280.252,-516.820,829.342,33.566,-23.177,70.733
3.029,-51.405,-100.811,-76.904,47.720,90.940,-141.127,280.231,-516.807,829.367,33.566,-23.178,70.732
3.039,-51.406,-100.805,-76.905,47.713,90.938,-141.127,280.197,-516.794,829.399,33.567,-23.180,70.729
3.049,-51.406,-100.801,-76.906,47.705,90.936,-141.126,280.180,-516.791,829.418,33.570,-23.185,70.727
3.059,-51.407,-100.797,-76.907,47.699,90.935,-141.126,280.167,-516.786,829.437,33.573,-23.186,70.725
3.069,-51.407,-100.790,-76.907,47.688,90.935,-141.125,280.136,-516.755,829.492,33.575,-23.189,70.724
3.079,-51.409,-100.773,-76.907,47.667,90.934,-141.126,280.048,-516.687,829.621,33.579,-23.192,70.720
3.089,-51.410,-100.763,-76.907,47.652,90.934,-141.126,280.000,-516.645,829.701,33.583,-23.194,70.717
3.099,-51.413,-100.736,-76.906,47.606,90.933,-141.126,279.903,-516.571,829.889,33.601,-23.205,70.707
3.109,-51.415,-100.696,-76.907,47.536,90.931,-141.125,279.766,-516.450,830.165,33.627,-23.222,70.693
3.118,-51.416,-100.675,-76.906,47.484,90.930,-141.125,279.743,-516.439,830.285,33.655,-23.239,70.681
3.128,-51.415,-100.625,-76.907,47.343,90.929,-141.125,279.762,-516.463,830.525,33.739,-23.289,70.648
3.138,-51.416,-100.564,-76.908,47.143,90.929,-141.125,279.852,-516.591,830.767,33.868,-23.363,70.596
3.148,-51.417,-100.527,-76.907,47.022,90.929,-141.124,279.908,-516.671,830.911,33.946,-23.408,70.565
3.159,-51.419,-100.442,-76.909,46.738,90.929,-141.124,280.044,-516.868,831.229,34.131,-23.514,70.490
3.168,-51.421,-100.342,-76.911,46.390,90.929,-141.123,280.235,-517.149,831.572,34.362,-23.646,70.395
3.178,-51.423,-100.280,-76.911,46.153,90.929,-141.123,280.405,-517.393,831.748,34.524,-23.739,70.328
3.188,-51.423,-100.171,-76.912,45.750,90.929,-141.123,280.699,-517.770,832.065,34.799,-23.894,70.216
3.198,-51.424,-100.035,-76.914,45.247,90.929,-141.124,281.057,-518.225,832.453,35.143,-24.086,70.076
3.209,-51.424,-99.958,-76.915,44.970,90.929,-141.123,281.240,-518.457,832.679,35.331,-24.192,70.000
3.218,-51.424,-99.791,-76.920,44.357,90.929,-141.123,281.678,-519.001,833.104,35.754,-24.426,69.826
3.229,-51.424,-99.609,-76.928,43.681,90.929,-141.124,282.169,-519.624,833.512,36.226,-24.686,69.628
3.238,-51.425,-99.515,-76.934,43.312,90.929,-141.124,282.477,-520.016,833.655,36.492,-24.830,69.517
3.249,-51.426,-99.296,-76.955,42.441,90.930,-141.124,283.231,-520.984,833.878,37.129,-25.174,69.246
3.258,-51.426,-99.098,-76.974,41.658,90.931,-141.125,283.905,-521.823,834.050,37.705,-25.480,69.000
3.268,-51.427,-98.982,-76.988,41.204,90.932,-141.125,284.278,-522.304,834.123,38.042,-25.658,68.854
3.278,-51.428,-98.733,-77.029,40.241,90.931,-141.125,285.082,-523.324,834.164,38.768,-26.036,68.536
3.289,-51.428,-98.475,-77.083,39.220,90.931,-141.125,286.006,-524.485,833.982,39.560,-26.443,68.186
3.299,-51.428,-98.343,-77.113,38.679,90.931,-141.126,286.522,-525.132,833.810,39.987,-26.659,67.995
3.308,-51.429,-98.063,-77.182,37.572,90.931,-141.126,287.495,-526.372,833.433,40.862,-27.096,67.598
3.318,-51.427,-97.779,-77.248,36.416,90.932,-141.126,288.568,-527.674,832.936,41.788,-27.547,67.175
3.328,-51.427,-97.636,-77.283,35.806,90.930,-141.127,289.160,-528.435,832.559,42.287,-27.788,66.942
3.338,-51.429,-97.341,-77.359,34.568,90.931,-141.127,290.315,-529.897,831.752,43.306,-28.268,66.462
3.348,-51.430,-97.037,-77.445,33.277,90.929,-141.128,291.513,-531.439,830.725,44.386,-28.766,65.943
3.359,-51.429,-96.882,-77.493,32.625,90.929,-141.128,292.125,-532.199,830.140,44.940,-29.015,65.676
3.369,-51.432,-96.531,-77.599,31.182,90.929,-141.128,293.342,-533.764,828.852,46.165,-29.555,65.074
3.379,-51.435,-96.229,-77.690,29.951,90.927,-141.129,294.313,-535.055,827.668,47.219,-30.007,64.545
3.389,-51.437,-96.036,-77.751,29.174,90.926,-141.129,294.901,-535.829,826.880,47.890,-30.288,64.205
3.399,-51.445,-95.720,-77.860,27.947,90.925,-141.129,295.712,-536.979,825.548,48.960,-30.725,63.654
3.408,-51.458,-95.366,-77.981,26.608,90.924,-141.130,296.434,-538.127,824.086,50.130,-31.189,63.037
3.419,-51.466,-95.189,-78.040,25.935,90.922,-141.130,296.775,-538.694,823.321,50.722,-31.419,62.721
3.429,-51.481,-94.827,-78.163,24.610,90.918,-141.130,297.318,-539.669,821.825,51.887,-31.860,62.091
3.439,-51.502,-94.478,-78.276,23.271,90.911,-141.130,297.862,-540.755,820.139,53.082,-32.299,61.429
3.449,-51.514,-94.302,-78.335,22.599,90.906,-141.130,298.090,-541.282,819.256,53.687,-32.516,61.089
3.459,-51.536,-93.951,-78.440,21.259,90.893,-141.130,298.486,-542.262,817.530,54.888,-32.937,60.405
3.469,-51.571,-93.563,-78.556,19.813,90.879,-141.131,298.687,-543.224,815.649,56.189,-33.374,59.646
3.479,-51.589,-93.410,-78.601,19.259,90.873,-141.130,298.684,-543.563,814.935,56.687,-33.538,59.349
3.489,-51.648,-93.056,-78.700,17.941,90.853,-141.131,298.491,-544.481,813.175,57.879,-33.919,58.610
3.499,-51.726,-92.688,-78.787,16.604,90.825,-141.131,297.951,-545.357,811.521,59.074,-34.290,57.836
3.509,-51.773,-92.504,-78.829,15.933,90.806,-141.131,297.569,-545.815,810.682,59.675,-34.473,57.433
3.519,-51.879,-92.126,-78.907,14.595,90.756,-141.131,296.512,-546.676,809.104,60.861,-34.828,56.607
3.529,-51.996,-91.749,-78.993,13.253,90.677,-141.131,295.229,-547.659,807.340,62.069,-35.184,55.724
3.539,-52.056,-91.566,-79.030,12.589,90.621,-141.131,294.495,-548.194,806.455,62.667,-35.360,55.266
3.549,-52.189,-91.197,-79.102,11.272,90.484,-141.132,292.739,-549.283,804.731,63.847,-35.704,54.319
3.559,-52.316,-90.826,-79.167,9.943,90.321,-141.133,290.884,-550.321,802.980,65.041,-36.041,53.340
3.569,-52.388,-90.604,-79.209,9.176,90.214,-141.133,289.710,-550.870,801.970,65.731,-36.232,52.760
3.578,-52.508,-90.257,-79.276,7.959,90.014,-141.134,287.682,-551.834,800.263,66.835,-36.532,51.797
3.589,-52.647,-89.885,-79.359,6.649,89.762,-141.135,285.247,-553.006,798.220,68.049,-36.850,50.692
3.599,-52.718,-89.695,-79.401,5.995,89.620,-141.136,283.907,-553.578,797.203,68.655,-37.005,50.121
3.608,-52.875,-89.314,-79.487,4.706,89.313,-141.138,280.929,-554.755,795.192,69.851,-37.300,48.947
3.619,-53.043,-88.929,-79.575,3.413,88.963,-141.141,277.600,-555.989,793.123,71.059,-37.583,47.706
3.631,-53.132,-88.743,-79.620,2.767,88.774,-141.143,275.856,-556.694,791.986,71.675,-37.720,47.057
3.639,-53.319,-88.378,-79.707,1.478,88.357,-141.146,272.124,-558.221,789.637,72.916,-37.984,45.704
3.649,-53.524,-88.012,-79.796,0.196,87.893,-141.152,267.967,-559.852,787.226,74.162,-38.228,44.276
3.659,-53.650,-87.798,-79.841,-0.554,87.608,-141.156,265.748,-560.663,786.054,74.785,-38.341,43.543
3.669,-53.849,-87.462,-79.909,-1.710,87.135,-141.162,261.106,-562.226,783.796,76.003,-38.546,42.063
3.679,-54.052,-87.114,-79.982,-2.970,86.594,-141.168,256.553,-563.831,781.320,77.247,-38.728,40.550
3.689,-54.166,-86.916,-80.026,-3.692,86.256,-141.171,253.836,-564.783,779.838,77.969,-38.823,39.650
3.699,-54.339,-86.605,-80.095,-4.812,85.694,-141.177,249.440,-566.222,777.519,79.091,-38.953,38.216
3.709,-54.517,-86.270,-80.166,-6.016,85.050,-141.181,244.572,-567.681,775.049,80.295,-39.069,36.643
3.721,-54.610,-86.077,-80.206,-6.710,84.660,-141.183,241.744,-568.485,773.593,80.993,-39.124,35.721
3.731,-54.748,-85.781,-80.269,-7.776,84.028,-141.186,237.284,-569.685,771.335,82.067,-39.188,34.278
3.741,-54.889,-85.467,-80.339,-8.918,83.333,-141.191,232.477,-570.919,768.809,83.228,-39.227,32.711
3.751,-54.959,-85.309,-80.377,-9.467,82.978,-141.192,229.995,-571.469,767.616,83.783,-39.237,31.936
3.761,-55.101,-84.992,-80.455,-10.524,82.253,-141.194,224.870,-572.484,765.343,84.845,-39.236,30.399
3.771,-55.243,-84.681,-80.541,-11.529,81.525,-141.193,219.671,-573.380,763.158,85.851,-39.212,28.894
3.781,-55.318,-84.506,-80.591,-12.063,81.100,-141.193,216.686,-573.815,762.035,86.379,-39.190,28.061
3.789,-55.433,-84.247,-80.677,-12.882,80.430,-141.193,212.073,-574.559,760.102,87.210,-39.138,26.752
3.799,-55.552,-83.978,-80.789,-13.704,79.698,-141.192,207.121,-575.342,757.952,88.063,-39.065,25.363
3.811,-55.612,-83.845,-80.855,-14.085,79.332,-141.192,204.629,-575.701,756.887,88.463,-39.023,24.686
3.819,-55.720,-83.587,-80.992,-14.776,78.601,-141.192,199.723,-576.315,754.932,89.187,-38.933,23.391
3.831,-55.820,-83.348,-81.129,-15.387,77.888,-141.191,194.998,-576.866,753.128,89.829,-38.837,22.175
3.839,-55.867,-83.236,-81.202,-15.653,77.538,-141.191,192.705,-577.126,752.273,90.114,-38.789,21.600
3.851,-55.953,-83.021,-81.349,-16.133,76.858,-141.190,188.285,-577.554,750.702,90.627,-38.694,20.513
3.859,-56.025,-82.821,-81.501,-16.515,76.202,-141.189,184.100,-577.885,749.356,91.040,-38.606,19.526
3.872,-56.059,-82.725,-81.578,-16.677,75.885,-141.189,182.085,-578.013,748.755,91.216,-38.566,19.066
3.881,-56.122,-82.539,-81.731,-16.933,75.268,-141.188,178.131,-578.161,747.827,91.486,-38.497,18.218
3.892,-56.174,-82.363,-81.883,-17.100,74.689,-141.188,174.434,-578.177,747.193,91.658,-38.445,17.480
3.901,-56.195,-82.280,-81.960,-17.156,74.417,-141.187,172.718,-578.143,746.942,91.716,-38.425,17.151
3.912,-56.223,-82.130,-82.107,-17.218,73.907,-141.186,169.620,-578.048,746.563,91.784,-38.397,16.571
3.922,-56.236,-81.995,-82.251,-17.214,73.429,-141.186,166.838,-577.891,746.361,91.785,-38.384,16.079
3.932,-56.238,-81.928,-82.326,-17.201,73.210,-141.185,165.585,-577.771,746.270,91.777,-38.381,15.863
3.941,-56.232,-81.804,-82.466,-17.172,72.804,-141.184,163.351,-577.501,746.107,91.756,-38.377,15.476
3.951,-56.225,-81.692,-82.590,-17.149,72.455,-141.184,161.422,-577.222,745.968,91.740,-38.372,15.144
3.962,-56.223,-81.632,-82.658,-17.143,72.279,-141.184,160.421,-577.075,745.845,91.741,-38.367,14.970
3.969,-56.221,-81.551,-82.755,-17.139,72.036,-141.183,159.060,-576.892,745.616,91.752,-38.358,14.722
3.979,-56.218,-81.476,-82.841,-17.139,71.816,-141.183,157.833,-576.714,745.409,91.765,-38.349,14.498
3.989,-56.216,-81.435,-82.883,-17.140,71.711,-141.183,157.209,-576.579,745.358,91.765,-38.346,14.393
3.999,-56.214,-81.375,-82.940,-17.140,71.580,-141.183,156.405,-576.344,745.327,91.760,-38.345,14.269
4.009,-56.206,-81.316,-82.996,-17.139,71.478,-141.182,155.780,-576.076,745.300,91.755,-38.343,14.177
4.019,-56.201,-81.289,-83.021,-17.138,71.437,-141.182,155.536,-575.934,745.297,91.751,-38.343,14.144
4.029,-56.192,-81.239,-83.062,-17.136,71.382,-141.181,155.157,-575.635,745.354,91.737,-38.347,14.107
4.039,-56.187,-81.194,-83.092,-17.134,71.365,-141.180,154.930,-575.327,745.470,91.717,-38.353,14.108
4.049,-56.187,-81.177,-83.101,-17.134,71.370,-141.179,154.862,-575.193,745.549,91.706,-38.357,14.119
4.059,-56.188,-81.150,-83.107,-17.133,71.377,-141.179,154.732,-574.963,745.754,91.679,-38.366,14.142
4.069,-56.190,-81.136,-83.109,-17.131,71.379,-141.178,154.650,-574.852,745.873,91.663,-38.371,14.152
4.078,-56.189,-81.133,-83.107,-17.130,71.379,-141.177,154.626,-574.814,745.928,91.656,-38.373,14.156
4.088,-56.191,-81.128,-83.107,-17.130,71.380,-141.177,154.580,-574.772,745.982,91.649,-38.376,14.159
4.098,-56.193,-81.122,-83.106,-17.129,71.379,-141.176,154.520,-574.722,746.056,91.640,-38.379,14.163
4.108,-56.194,-81.118,-83.106,-17.129,71.380,-141.176,154.501,-574.691,746.091,91.636,-38.380,14.166
4.118,-56.196,-81.109,-83.107,-17.130,71.406,-141.175,154.542,-574.589,746.166,91.627,-38.384,14.195
4.128,-56.198,-81.104,-83.108,-17.131,71.470,-141.175,154.778,-574.482,746.201,91.624,-38.388,14.259
4.138,-56.198,-81.103,-83.109,-17.131,71.507,-141.174,154.936,-574.439,746.197,91.624,-38.389,14.295
4.148,-56.196,-81.104,-83.109,-17.131,71.556,-141.172,155.182,-574.388,746.180,91.626,-38.391,14.345
4.158,-56.194,-81.105,-83.108,-17.130,71.547,-141.150,155.167,-574.394,746.182,91.626,-38.413,14.337
4.168,-56.195,-81.105,-83.108,-17.130,71.532,-141.126,155.105,-574.407,746.189,91.626,-38.437,14.322
4.178,-56.194,-81.104,-83.107,-17.129,71.505,-141.055,155.003,-574.424,746.198,91.625,-38.508,14.294
4.188,-56.197,-81.102,-83.106,-17.127,71.498,-140.995,154.954,-574.409,746.230,91.620,-38.570,14.287
4.198,-56.197,-81.101,-83.106,-17.128,71.500,-140.985,154.956,-574.395,746.241,91.619,-38.581,14.289
4.208,-56.197,-81.100,-83.107,-17.126,71.500,-141.001,154.953,-574.396,746.239,91.618,-38.565,14.290
4.218,-56.195,-81.103,-83.109,-17.128,71.502,-141.029,154.991,-574.422,746.189,91.625,-38.535,14.290
4.228,-56.194,-81.105,-83.110,-17.128,71.503,-141.037,155.016,-574.433,746.165,91.628,-38.525,14.291
4.238,-56.193,-81.106,-83.110,-17.128,71.506,-141.035,155.043,-574.438,746.154,91.629,-38.527,14.293
4.248,-56.194,-81.104,-83.109,-17.127,71.507,-141.034,155.024,-574.425,746.182,91.625,-38.530,14.295
4.258,-56.195,-81.103,-83.108,-17.126,71.506,-141.034,155.002,-574.419,746.200,91.623,-38.531,14.295
4.268,-56.197,-81.102,-83.108,-17.125,71.505,-141.034,154.970,-574.411,746.224,91.618,-38.532,14.295
4.278,-56.197,-81.103,-83.108,-17.122,71.506,-141.034,154.976,-574.414,746.226,91.616,-38.532,14.297
4.288,-56.197,-81.104,-83.109,-17.121,71.507,-141.035,154.988,-574.418,746.219,91.617,-38.531,14.298
4.298,-56.196,-81.106,-83.110,-17.119,71.509,-141.036,155.022,-574.434,746.192,91.618,-38.530,14.301
4.308,-56.195,-81.107,-83.112,-17.116,71.513,-141.036,155.056,-574.441,746.171,91.619,-38.529,14.305
4.318,-56.195,-81.107,-83.112,-17.116,71.514,-141.036,155.063,-574.440,746.166,91.619,-38.529,14.306
4.329,-56.195,-81.107,-83.113,-17.113,71.515,-141.036,155.064,-574.441,746.164,91.617,-38.530,14.308
4.338,-56.195,-81.107,-83.115,-17.109,71.517,-141.036,155.072,-574.436,746.172,91.613,-38.531,14.312
4.348,-56.195,-81.107,-83.115,-17.105,71.518,-141.037,155.074,-574.433,746.184,91.609,-38.532,14.315
4.359,-56.194,-81.108,-83.115,-17.097,71.519,-141.037,155.089,-574.422,746.216,91.600,-38.534,14.324
4.369,-56.192,-81.109,-83.115,-17.090,71.521,-141.038,155.116,-574.417,746.235,91.592,-38.535,14.332
4.378,-56.191,-81.109,-83.115,-17.088,71.522,-141.037,155.130,-574.413,746.239,91.591,-38.536,14.335
4.388,-56.191,-81.109,-83.116,-17.088,71.525,-141.038,155.151,-574.413,746.226,91.592,-38.535,14.338
4.398,-56.191,-81.111,-83.118,-17.088,71.526,-141.039,155.162,-574.432,746.189,91.597,-38.533,14.335
4.408,-56.192,-81.112,-83.120,-17.088,71.526,-141.039,155.168,-574.448,746.154,91.600,-38.532,14.333
4.418,-56.192,-81.114,-83.129,-17.086,71.528,-141.040,155.204,-574.489,746.045,91.612,-38.528,14.327
4.428,-56.191,-81.118,-83.142,-17.083,71.532,-141.040,155.271,-574.551,745.869,91.629,-38.523,14.321
4.438,-56.191,-81.121,-83.148,-17.081,71.535,-141.039,155.310,-574.582,745.788,91.637,-38.521,14.319
4.448,-56.191,-81.127,-83.159,-17.079,71.539,-141.039,155.390,-574.661,745.611,91.656,-38.516,14.312
4.458,-56.191,-81.134,-83.170,-17.078,71.542,-141.040,155.456,-574.743,745.440,91.675,-38.511,14.303
4.468,-56.192,-81.139,-83.175,-17.078,71.542,-141.039,155.485,-574.806,745.328,91.687,-38.508,14.294
4.478,-56.193,-81.153,-83.193,-17.076,71.543,-141.039,155.595,-574.978,744.995,91.725,-38.497,14.271
4.488,-56.193,-81.171,-83.232,-17.073,71.544,-141.039,155.770,-575.235,744.407,91.789,-38.480,14.232
4.498,-56.192,-81.182,-83.253,-17.073,71.544,-141.039,155.882,-575.384,744.073,91.827,-38.470,14.209
4.508,-56.191,-81.203,-83.304,-17.069,71.546,-141.038,156.115,-575.699,743.309,91.910,-38.447,14.160
4.518,-56.192,-81.232,-83.373,-17.049,71.547,-141.037,156.387,-576.108,742.361,92.003,-38.422,14.104
4.528,-56.192,-81.251,-83.417,-17.027,71.548,-141.037,156.556,-576.365,741.790,92.051,-38.409,14.073
4.538,-56.193,-81.293,-83.522,-16.960,71.547,-141.036,156.933,-576.938,740.499,92.149,-38.382,14.012
4.548,-56.192,-81.349,-83.636,-16.862,71.547,-141.036,157.381,-577.605,739.128,92.234,-38.358,13.959
4.558,-56.192,-81.381,-83.703,-16.798,71.548,-141.036,157.646,-577.993,738.339,92.278,-38.346,13.932
4.569,-56.191,-81.452,-83.864,-16.636,71.549,-141.035,158.228,-578.830,736.573,92.361,-38.323,13.883
4.578,-56.190,-81.528,-84.045,-16.451,71.553,-141.034,158.871,-579.738,734.629,92.447,-38.300,13.835
4.589,-56.191,-81.575,-84.154,-16.329,71.556,-141.034,159.245,-580.282,733.490,92.487,-38.288,13.813
4.598,-56.191,-81.652,-84.336,-16.106,71.560,-141.033,159.841,-581.145,731.690,92.530,-38.277,13.790
4.608,-56.191,-81.748,-84.546,-15.824,71.568,-141.033,160.569,-582.176,729.632,92.560,-38.269,13.779
4.619,-56.192,-81.801,-84.659,-15.664,71.576,-141.032,160.971,-582.721,728.551,92.567,-38.269,13.782
4.628,-56.194,-81.913,-84.899,-15.325,71.603,-141.031,161.851,-583.859,726.251,92.583,-38.266,13.797
4.639,-56.191,-82.026,-85.165,-14.956,71.642,-141.030,162.842,-584.997,723.779,92.596,-38.265,13.830
4.648,-56.191,-82.085,-85.305,-14.753,71.667,-141.032,163.361,-585.573,722.521,92.591,-38.265,13.858
4.658,-56.191,-82.209,-85.602,-14.325,71.739,-141.036,164.535,-586.761,719.838,92.584,-38.266,13.936
4.668,-56.191,-82.345,-85.898,-13.855,71.853,-141.042,165.907,-587.933,717.226,92.539,-38.277,14.077
4.678,-56.191,-82.429,-86.071,-13.564,71.941,-141.046,166.814,-588.602,715.729,92.499,-38.288,14.190
4.688,-56.192,-82.584,-86.376,-13.039,72.113,-141.052,168.498,-589.800,713.041,92.424,-38.309,14.408
4.699,-56.191,-82.738,-86.664,-12.529,72.287,-141.053,170.181,-590.939,710.481,92.345,-38.336,14.631
4.708,-56.191,-82.839,-86.855,-12.189,72.408,-141.052,171.299,-591.665,708.804,92.289,-38.356,14.787
4.718,-56.192,-83.007,-87.159,-11.629,72.610,-141.052,173.123,-592.829,706.136,92.185,-38.391,15.052
4.729,-56.192,-83.204,-87.471,-10.981,72.845,-141.052,175.197,-594.079,703.454,92.020,-38.443,15.390
4.739,-56.194,-83.320,-87.643,-10.594,72.989,-141.051,176.387,-594.775,702.022,91.902,-38.478,15.605
4.749,-56.195,-83.501,-87.912,-9.960,73.220,-141.051,178.264,-595.790,699.913,91.681,-38.540,15.972
4.759,-56.196,-83.705,-88.203,-9.261,73.477,-141.050,180.355,-596.900,697.593,91.435,-38.608,16.382
4.769,-56.198,-83.827,-88.379,-8.847,73.624,-141.051,181.548,-597.566,696.174,91.293,-38.646,16.616
4.779,-56.202,-84.024,-88.654,-8.174,73.860,-141.050,183.438,-598.601,693.990,91.048,-38.709,17.001
4.788,-56.204,-84.243,-88.943,-7.418,74.112,-141.050,185.471,-599.695,691.761,90.745,-38.783,17.440
4.798,-56.204,-84.356,-89.086,-7.034,74.238,-141.050,186.498,-600.240,690.654,90.589,-38.819,17.664
4.809,-56.205,-84.604,-89.368,-6.233,74.485,-141.049,188.602,-601.440,688.395,90.254,-38.895,18.121
4.818,-56.206,-84.869,-89.643,-5.414,74.733,-141.049,190.751,-602.707,686.103,89.908,-38.970,18.585
4.829,-56.208,-85.000,-89.782,-4.998,74.857,-141.049,191.786,-603.311,684.984,89.726,-39.008,18.822
4.839,-56.213,-85.265,-90.062,-4.146,75.102,-141.049,193.817,-604.508,682.757,89.344,-39.085,19.302
4.848,-56.217,-85.542,-90.334,-3.286,75.339,-141.049,195.842,-605.742,680.526,88.954,-39.158,19.780
4.859,-56.219,-85.683,-90.469,-2.847,75.456,-141.049,196.857,-606.351,679.424,88.750,-39.196,20.025
4.869,-56.218,-85.970,-90.744,-1.962,75.692,-141.049,198.934,-607.562,677.138,88.343,-39.266,20.519
4.878,-56.213,-86.275,-91.009,-1.054,75.929,-141.049,201.093,-608.799,674.867,87.915,-39.337,21.033
4.889,-56.212,-86.447,-91.164,-0.511,76.070,-141.049,202.280,-609.449,673.644,87.641,-39.380,21.347
4.899,-56.212,-86.712,-91.409,0.365,76.286,-141.049,204.062,-610.380,671.854,87.177,-39.449,21.858
4.908,-56.210,-87.005,-91.680,1.332,76.516,-141.049,205.975,-611.364,669.871,86.662,-39.521,22.418
4.918,-56.209,-87.154,-91.811,1.820,76.626,-141.048,206.901,-611.856,668.919,86.396,-39.557,22.698
4.928,-56.210,-87.458,-92.069,2.794,76.845,-141.050,208.731,-612.863,666.955,85.869,-39.621,23.251
4.939,-56.206,-87.783,-92.310,3.773,77.058,-141.049,210.644,-613.938,664.977,85.337,-39.683,23.807
4.948,-56.202,-87.972,-92.447,4.366,77.186,-141.050,211.759,-614.490,663.950,84.993,-39.720,24.159
4.958,-56.198,-88.268,-92.654,5.307,77.394,-141.049,213.468,-615.287,662.477,84.428,-39.776,24.733
4.968,-56.197,-88.600,-92.877,6.362,77.628,-141.049,215.303,-616.136,660.909,83.780,-39.833,25.381
4.979,-56.197,-88.768,-92.989,6.898,77.750,-141.049,216.229,-616.544,660.112,83.450,-39.859,25.714
4.989,-56.198,-89.121,-93.191,7.990,77.997,-141.050,218.095,-617.371,658.691,82.751,-39.908,26.407
4.999,-56.200,-89.510,-93.388,9.218,78.266,-141.050,220.042,-618.167,657.469,81.917,-39.958,27.207
5.009,-56.199,-89.690,-93.472,9.803,78.390,-141.049,220.926,-618.463,657.048,81.499,-39.981,27.600
5.019,-56.198,-90.024,-93.618,10.884,78.618,-141.050,222.507,-618.977,656.359,80.713,-40.014,28.332
5.029,-56.199,-90.396,-93.763,12.085,78.862,-141.050,224.171,-619.506,655.718,79.822,-40.042,29.147
5.040,-56.198,-90.593,-93.831,12.702,78.985,-141.050,225.037,-619.782,655.395,79.361,-40.052,29.567
5.049,-56.199,-90.986,-93.954,13.949,79.238,-141.051,226.693,-620.245,654.944,78.403,-40.062,30.431
5.059,-56.197,-91.368,-94.052,15.250,79.486,-141.051,228.190,-620.431,655.061,77.331,-40.063,31.369
5.070,-56.197,-91.594,-94.102,16.018,79.632,-141.051,229.025,-620.503,655.207,76.687,-40.055,31.927
5.079,-56.193,-91.953,-94.177,17.253,79.856,-141.051,230.310,-620.534,655.510,75.640,-40.034,32.824
5.089,-56.189,-92.359,-94.245,18.603,80.093,-141.052,231.688,-620.589,655.806,74.495,-39.993,33.797
5.099,-56.185,-92.590,-94.274,19.382,80.231,-141.052,232.461,-620.547,656.091,73.819,-39.961,34.370
5.109,-56.178,-92.950,-94.307,20.605,80.446,-141.053,233.614,-620.388,656.696,72.738,-39.898,35.280
5.118,-56.164,-93.348,-94.320,21.946,80.670,-141.053,234.856,-620.128,657.523,71.528,-39.813,36.287
5.129,-56.154,-93.557,-94.323,22.614,80.779,-141.053,235.526,-620.048,657.820,70.938,-39.764,36.780
5.139,-56.127,-93.980,-94.312,23.964,80.998,-141.053,236.892,-619.769,658.587,69.725,-39.650,37.793
5.148,-56.104,-94.387,-94.300,25.307,81.207,-141.054,238.068,-619.352,659.445,68.505,-39.519,38.795
5.159,-56.094,-94.587,-94.294,25.981,81.311,-141.054,238.586,-619.089,659.916,67.888,-39.445,39.296
5.169,-56.068,-94.983,-94.283,27.315,81.519,-141.056,239.670,-618.490,660.767,66.676,-39.285,40.288
5.179,-56.042,-95.383,-94.274,28.649,81.717,-141.057,240.700,-617.875,661.490,65.479,-39.109,41.259
5.188,-56.030,-95.606,-94.269,29.434,81.830,-141.058,241.160,-617.402,662.034,64.761,-38.996,41.829
5.199,-56.021,-95.940,-94.262,30.665,82.001,-141.058,241.644,-616.553,663.003,63.623,-38.808,42.714
5.209,-56.020,-96.298,-94.251,32.010,82.183,-141.059,241.970,-615.551,664.110,62.375,-38.583,43.664
5.218,-56.021,-96.477,-94.248,32.686,82.271,-141.060,242.089,-615.030,664.630,61.753,-38.464,44.132
5.229,-56.023,-96.844,-94.232,34.011,82.433,-141.060,242.308,-614.080,665.527,60.546,-38.223,45.028
5.241,-56.024,-97.184,-94.215,35.354,82.587,-141.060,242.288,-612.827,666.727,59.292,-37.960,45.942
5.251,-56.026,-97.345,-94.204,36.022,82.664,-141.060,242.213,-612.122,667.407,58.660,-37.820,46.399
5.261,-56.026,-97.661,-94.192,37.346,82.804,-141.061,241.995,-610.658,668.669,57.419,-37.535,47.285
5.271,-56.026,-97.956,-94.193,38.653,82.921,-141.061,241.577,-609.100,669.873,56.200,-37.245,48.128
5.279,-56.029,-98.102,-94.194,39.289,82.976,-141.062,241.342,-608.347,670.413,55.613,-37.098,48.530
5.291,-56.037,-98.402,-94.195,40.633,83.084,-141.063,240.692,-606.668,671.605,54.368,-36.779,49.365
5.301,-56.046,-98.625,-94.204,41.734,83.154,-141.064,239.924,-605.137,672.680,53.338,-36.511,50.032
5.309,-56.054,-98.737,-94.211,42.310,83.178,-141.065,239.401,-604.322,673.256,52.797,-36.371,50.366
5.321,-56.071,-98.949,-94.223,43.415,83.191,-141.068,238.201,-602.784,674.349,51.754,-36.109,50.975
5.331,-56.092,-99.132,-94.231,44.423,83.180,-141.071,236.885,-601.330,675.426,50.790,-35.869,51.510
5.341,-56.102,-99.211,-94.235,44.898,83.176,-141.071,236.225,-600.575,675.998,50.330,-35.751,51.766
5.351,-56.118,-99.348,-94.243,45.782,83.169,-141.073,234.961,-599.060,677.141,49.464,-35.523,52.247
5.359,-56.142,-99.470,-94.252,46.567,83.164,-141.076,233.724,-597.729,678.107,48.703,-35.315,52.659
5.371,-56.158,-99.524,-94.256,46.927,83.161,-141.078,233.089,-597.120,678.565,48.354,-35.217,52.841
5.381,-56.183,-99.619,-94.253,47.568,83.161,-141.081,231.983,-595.979,679.461,47.722,-35.035,53.177
5.391,-56.200,-99.696,-94.249,48.103,83.161,-141.081,231.088,-594.966,680.254,47.189,-34.880,53.466
5.399,-56.205,-99.722,-94.250,48.343,83.159,-141.081,230.670,-594.445,680.659,46.945,-34.809,53.599
5.411,-56.207,-99.758,-94.255,48.775,83.154,-141.081,229.907,-593.392,681.476,46.497,-34.679,53.848
5.419,-56.204,-99.767,-94.258,49.049,83.148,-141.081,229.389,-592.600,682.143,46.196,-34.592,54.018
5.431,-56.201,-99.766,-94.259,49.176,83.145,-141.081,229.126,-592.189,682.508,46.050,-34.549,54.100
5.441,-56.199,-99.760,-94.256,49.312,83.142,-141.082,228.819,-591.702,682.987,45.885,-34.500,54.194
5.451,-56.202,-99.753,-94.252,49.375,83.142,-141.082,228.610,-591.450,683.283,45.801,-34.475,54.238
5.461,-56.202,-99.747,-94.250,49.379,83.141,-141.082,228.558,-591.394,683.372,45.788,-34.471,54.244
5.471,-56.204,-99.735,-94.247,49.367,83.139,-141.081,228.485,-591.342,683.500,45.783,-34.471,54.244
5.479,-56.206,-99.720,-94.245,49.357,83.135,-141.081,228.401,-591.268,683.644,45.775,-34.471,54.244
5.492,-56.206,-99.711,-94.245,49.354,83.133,-141.081,228.351,-591.210,683.734,45.767,-34.470,54.247
5.501,-56.205,-99.689,-94.246,49.352,83.130,-141.081,228.233,-591.047,683.954,45.745,-34.466,54.257
5.514,-56.205,-99.664,-94.249,49.354,83.126,-141.081,228.081,-590.855,684.208,45.715,-34.459,54.271
5.520,-56.206,-99.655,-94.249,49.355,83.125,-141.081,228.013,-590.788,684.304,45.704,-34.456,54.275
5.535,-56.208,-99.646,-94.248,49.357,83.124,-141.081,227.937,-590.722,684.411,45.691,-34.453,54.280
5.542,-56.208,-99.637,-94.247,49.357,83.124,-141.080,227.887,-590.653,684.516,45.679,-34.450,54.286
5.552,-56.208,-99.632,-94.246,49.358,83.123,-141.080,227.860,-590.607,684.581,45.672,-34.448,54.290
5.562,-56.207,-99.625,-94.246,49.358,83.124,-141.080,227.830,-590.543,684.667,45.663,-34.445,54.297
5.572,-56.207,-99.621,-94.248,49.358,83.123,-141.081,227.814,-590.516,684.684,45.661,-34.444,54.297
5.582,-56.207,-99.622,-94.249,49.359,83.124,-141.081,227.821,-590.527,684.666,45.662,-34.444,54.297
5.591,-56.209,-99.628,-94.251,49.361,83.124,-141.081,227.832,-590.579,684.587,45.669,-34.446,54.291
5.599,-56.208,-99.637,-94.255,49.361,83.124,-141.081,227.887,-590.650,684.457,45.684,-34.450,54.283
5.609,-56.207,-99.642,-94.256,49.361,83.124,-141.081,227.926,-590.689,684.389,45.691,-34.452,54.280
5.619,-56.205,-99.649,-94.257,49.361,83.124,-141.081,227.992,-590.732,684.311,45.700,-34.455,54.278
5.629,-56.204,-99.650,-94.255,49.361,83.124,-141.081,228.003,-590.739,684.309,45.700,-34.455,54.278
5.639,-56.203,-99.649,-94.255,49.360,83.124,-141.081,228.013,-590.730,684.319,45.699,-34.455,54.280
5.649,-56.203,-99.650,-94.256,49.361,83.124,-141.081,228.016,-590.737,684.304,45.700,-34.455,54.279
5.659,-56.203,-99.653,-94.256,49.361,83.124,-141.081,228.030,-590.756,684.273,45.704,-34.456,54.278
5.669,-56.203,-99.655,-94.257,49.360,83.124,-141.081,228.038,-590.774,684.247,45.707,-34.457,54.275
5.679,-56.202,-99.660,-94.257,49.360,83.124,-141.081,228.085,-590.814,684.187,45.713,-34.459,54.273
5.689,-56.202,-99.665,-94.256,49.359,83.123,-141.081,228.096,-590.855,684.143,45.718,-34.462,54.269
5.699,-56.203,-99.665,-94.256,49.359,83.123,-141.080,228.098,-590.862,684.135,45.719,-34.462,54.269
5.709,-56.203,-99.665,-94.256,49.360,83.124,-141.081,228.094,-590.858,684.141,45.718,-34.461,54.269
5.719,-56.203,-99.665,-94.255,49.359,83.123,-141.080,228.089,-590.857,684.149,45.717,-34.462,54.269
5.729,-56.203,-99.664,-94.255,49.360,83.123,-141.080,228.088,-590.851,684.155,45.716,-34.461,54.270
5.739,-56.202,-99.664,-94.254,49.361,83.125,-141.080,228.105,-590.835,684.169,45.713,-34.460,54.275
5.749,-56.201,-99.663,-94.254,49.360,83.123,-141.079,228.100,-590.831,684.182,45.712,-34.461,54.275
5.759,-56.201,-99.663,-94.254,49.360,83.124,-141.079,228.106,-590.831,684.178,45.713,-34.461,54.275
5.769,-56.201,-99.664,-94.255,49.360,83.124,-141.079,228.114,-590.837,684.160,45.715,-34.461,54.274
5.779,-56.199,-99.665,-94.256,49.360,83.125,-141.079,228.144,-590.837,684.138,45.718,-34.462,54.276
5.789,-56.196,-99.665,-94.257,49.360,83.125,-141.079,228.174,-590.828,684.133,45.718,-34.462,54.278
5.799,-56.193,-99.666,-94.257,49.361,83.126,-141.079,228.215,-590.813,684.127,45.719,-34.461,54.282
5.809,-56.190,-99.665,-94.257,49.362,83.127,-141.079,228.237,-590.791,684.141,45.717,-34.460,54.286
5.819,-56.190,-99.663,-94.257,49.362,83.128,-141.079,228.235,-590.780,684.155,45.715,-34.459,54.288
5.828,-56.190,-99.661,-94.256,49.364,83.129,-141.080,228.214,-590.749,684.200,45.709,-34.456,54.292
5.838,-56.190,-99.657,-94.255,49.368,83.130,-141.079,228.189,-590.706,684.258,45.700,-34.453,54.298
5.848,-56.190,-99.654,-94.254,49.369,83.130,-141.079,228.174,-590.674,684.302,45.694,-34.451,54.302
5.858,-56.190,-99.646,-94.253,49.371,83.131,-141.079,228.128,-590.596,684.415,45.680,-34.447,54.310
5.868,-56.191,-99.631,-94.251,49.371,83.130,-141.078,228.038,-590.488,684.584,45.662,-34.442,54.319
5.878,-56.192,-99.621,-94.251,49.370,83.129,-141.078,227.969,-590.418,684.692,45.651,-34.440,54.323
5.888,-56.196,-99.597,-94.250,49.367,83.128,-141.078,227.804,-590.252,684.949,45.626,-34.432,54.333
5.898,-56.200,-99.573,-94.246,49.364,83.128,-141.078,227.630,-590.077,685.240,45.597,-34.424,54.345
5.908,-56.203,-99.557,-94.244,49.362,83.128,-141.078,227.525,-589.964,685.426,45.579,-34.418,54.353
5.918,-56.206,-99.514,-94.241,49.357,83.128,-141.078,227.274,-589.646,685.905,45.533,-34.403,54.376
5.928,-56.209,-99.459,-94.237,49.351,83.127,-141.077,226.951,-589.237,686.519,45.471,-34.386,54.407
5.938,-56.211,-99.428,-94.235,49.347,83.127,-141.077,226.771,-589.003,686.866,45.438,-34.375,54.424
5.948,-56.218,-99.353,-94.229,49.338,83.126,-141.077,226.315,-588.460,687.688,45.357,-34.351,54.463
5.959,-56.230,-99.265,-94.217,49.318,83.125,-141.076,225.740,-587.853,688.696,45.265,-34.324,54.501
5.968,-56.241,-99.210,-94.204,49.296,83.125,-141.076,225.361,-587.502,689.349,45.213,-34.308,54.520
5.978,-56.267,-99.116,-94.180,49.238,83.125,-141.074,224.697,-586.992,690.420,45.144,-34.287,54.534
5.988,-56.295,-98.998,-94.144,49.133,83.125,-141.074,223.953,-586.430,691.728,45.089,-34.271,54.537
5.998,-56.313,-98.922,-94.114,49.054,83.125,-141.073,223.503,-586.085,692.604,45.058,-34.261,54.537
6.008,-56.342,-98.788,-94.064,48.900,83.125,-141.073,222.751,-585.518,694.074,45.024,-34.251,54.528
6.018,-56.371,-98.636,-93.989,48.690,83.125,-141.072,221.983,-584.938,695.819,45.004,-34.245,54.509
6.028,-56.387,-98.551,-93.945,48.565,83.125,-141.072,221.583,-584.629,696.785,45.000,-34.245,54.496
6.038,-56.428,-98.365,-93.842,48.282,83.123,-141.071,220.623,-583.990,698.953,44.993,-34.244,54.458
6.048,-56.487,-98.153,-93.714,47.935,83.123,-141.071,219.450,-583.348,701.445,45.001,-34.246,54.395
6.058,-56.524,-98.035,-93.649,47.747,83.123,-141.071,218.738,-582.995,702.796,45.005,-34.248,54.355
6.068,-56.614,-97.784,-93.501,47.318,83.123,-141.071,217.178,-582.352,705.657,45.040,-34.259,54.246
6.078,-56.716,-97.507,-93.332,46.825,83.123,-141.071,215.445,-581.680,708.813,45.094,-34.276,54.113
6.088,-56.768,-97.356,-93.242,46.558,83.122,-141.071,214.520,-581.286,710.523,45.122,-34.285,54.044
6.098,-56.879,-97.043,-93.055,45.978,83.121,-141.072,212.641,-580.551,713.965,45.213,-34.314,53.881
6.108,-56.996,-96.720,-92.847,45.342,83.120,-141.072,210.712,-579.850,717.565,45.332,-34.352,53.696
6.118,-57.064,-96.526,-92.722,44.939,83.118,-141.071,209.610,-579.478,719.663,45.426,-34.382,53.574
6.128,-57.172,-96.228,-92.515,44.262,83.115,-141.072,207.965,-579.035,722.863,45.620,-34.444,53.354
6.138,-57.294,-95.900,-92.282,43.477,83.108,-141.072,206.161,-578.656,726.295,45.873,-34.526,53.082
6.148,-57.361,-95.731,-92.165,43.061,83.104,-141.072,205.215,-578.505,727.998,46.021,-34.573,52.929
6.158,-57.502,-95.391,-91.925,42.187,83.099,-141.072,203.306,-578.290,731.355,46.355,-34.678,52.593
6.168,-57.659,-95.041,-91.687,41.258,83.095,-141.072,201.280,-578.174,734.622,46.744,-34.797,52.212
6.178,-57.741,-94.863,-91.570,40.768,83.094,-141.072,200.259,-578.174,736.186,46.967,-34.863,52.001
6.188,-57.922,-94.512,-91.333,39.771,83.093,-141.073,198.099,-578.280,739.224,47.438,-35.000,51.550
6.198,-58.119,-94.151,-91.102,38.725,83.095,-141.073,195.816,-578.456,742.142,47.961,-35.149,51.054
6.208,-58.238,-93.936,-90.973,38.116,83.095,-141.073,194.400,-578.536,743.812,48.269,-35.236,50.756
6.218,-58.440,-93.562,-90.768,37.008,83.095,-141.074,192.108,-578.792,746.383,48.882,-35.406,50.201
6.228,-58.616,-93.213,-90.586,35.973,83.093,-141.074,190.074,-578.974,748.653,49.468,-35.566,49.683
6.238,-58.724,-92.990,-90.473,35.295,83.094,-141.074,188.849,-579.116,749.994,49.869,-35.673,49.341
6.249,-58.891,-92.629,-90.302,34.215,83.094,-141.074,186.906,-579.252,752.088,50.511,-35.841,48.799
6.258,-59.065,-92.226,-90.125,33.009,83.093,-141.074,184.858,-579.339,754.246,51.248,-36.029,48.192
6.269,-59.152,-92.021,-90.039,32.405,83.093,-141.075,183.817,-579.344,755.308,51.619,-36.121,47.886
6.279,-59.323,-91.624,-89.875,31.152,83.094,-141.075,181.900,-579.570,757.045,52.441,-36.320,47.230
6.288,-59.500,-91.221,-89.719,29.870,83.093,-141.075,179.908,-579.808,758.626,53.302,-36.524,46.540
6.298,-59.608,-90.980,-89.631,29.116,83.093,-141.075,178.675,-579.894,759.541,53.810,-36.640,46.130
6.309,-59.786,-90.587,-89.500,27.902,83.092,-141.075,176.609,-580.000,760.898,54.641,-36.825,45.454
6.318,-59.970,-90.156,-89.364,26.563,83.091,-141.075,174.444,-580.062,762.230,55.574,-37.024,44.708
6.328,-60.076,-89.907,-89.281,25.791,83.091,-141.075,173.177,-580.040,763.025,56.108,-37.135,44.281
6.338,-60.233,-89.511,-89.158,24.575,83.085,-141.075,171.219,-579.927,764.194,56.957,-37.307,43.605
6.349,-60.399,-89.064,-89.019,23.247,83.076,-141.076,169.008,-579.574,765.606,57.864,-37.485,42.879
6.358,-60.487,-88.802,-88.937,22.468,83.072,-141.076,167.791,-579.300,766.420,58.397,-37.585,42.463
6.369,-60.619,-88.399,-88.803,21.250,83.058,-141.076,165.924,-578.856,767.648,59.233,-37.739,41.808
6.378,-60.749,-87.954,-88.652,19.928,83.045,-141.076,163.959,-578.199,769.034,60.132,-37.898,41.114
6.388,-60.811,-87.729,-88.567,19.257,83.036,-141.076,162.969,-577.807,769.796,60.580,-37.974,40.768
6.398,-60.923,-87.285,-88.392,17.925,83.015,-141.077,161.086,-576.946,771.324,61.464,-38.121,40.093
6.408,-61.028,-86.858,-88.198,16.596,82.997,-141.077,159.293,-576.095,772.823,62.348,-38.260,39.424
6.418,-61.082,-86.612,-88.079,15.822,82.987,-141.077,158.311,-575.554,773.705,62.860,-38.336,39.042
6.428,-61.162,-86.223,-87.890,14.624,82.979,-141.077,156.790,-574.536,775.184,63.638,-38.445,38.473
6.438,-61.224,-85.804,-87.667,13.330,82.977,-141.077,155.366,-573.255,776.913,64.460,-38.552,37.898
6.448,-61.251,-85.602,-87.553,12.693,82.976,-141.077,154.704,-572.625,777.735,64.867,-38.603,37.616
6.458,-61.292,-85.208,-87.308,11.426,82.975,-141.077,153.486,-571.283,779.483,65.662,-38.697,37.077
6.468,-61.330,-84.817,-87.058,10.190,82.977,-141.078,152.256,-569.805,781.321,66.417,-38.780,36.568
6.478,-61.345,-84.593,-86.904,9.482,82.976,-141.078,151.576,-568.873,782.471,66.837,-38.825,36.289
6.488,-61.365,-84.228,-86.641,8.278,82.977,-141.078,150.531,-567.387,784.248,67.570,-38.899,35.809
6.499,-61.376,-83.912,-86.400,7.213,82.973,-141.079,149.662,-566.048,785.797,68.219,-38.961,35.387
6.508,-61.379,-83.742,-86.270,6.639,82.972,-141.079,149.211,-565.298,786.623,68.570,-38.993,35.163
6.519,-61.382,-83.384,-85.987,5.416,82.970,-141.079,148.282,-563.670,788.377,69.314,-39.057,34.689
6.528,-61.379,-83.088,-85.751,4.413,82.968,-141.079,147.515,-562.230,789.857,69.916,-39.105,34.310
6.538,-61.377,-82.934,-85.625,3.889,82.969,-141.079,147.125,-561.464,790.626,70.230,-39.129,34.115
6.548,-61.377,-82.646,-85.376,2.853,82.970,-141.080,146.379,-560.075,791.982,70.871,-39.174,33.711
6.559,-61.377,-82.369,-85.137,1.881,82.970,-141.081,145.601,-558.658,793.350,71.458,-39.212,33.340
6.568,-61.377,-82.233,-85.025,1.416,82.970,-141.081,145.205,-557.932,794.010,71.736,-39.230,33.164
6.579,-61.377,-81.974,-84.821,0.526,82.969,-141.081,144.466,-556.582,795.119,72.287,-39.262,32.815
6.588,-61.376,-81.724,-84.635,-0.308,82.970,-141.081,143.736,-555.223,796.155,72.800,-39.290,32.492
6.598,-61.376,-81.601,-84.550,-0.706,82.969,-141.081,143.361,-554.539,796.645,73.043,-39.303,32.337
6.608,-61.375,-81.363,-84.388,-1.446,82.969,-141.081,142.605,-553.145,797.671,73.481,-39.324,32.060
6.618,-61.375,-81.135,-84.245,-2.114,82.971,-141.081,141.859,-551.750,798.660,73.865,-39.341,31.819
6.628,-61.377,-81.007,-84.168,-2.482,82.970,-141.081,141.408,-550.963,799.207,74.076,-39.350,31.683
6.638,-61.377,-80.807,-84.062,-2.999,82.969,-141.082,140.680,-549.645,800.135,74.349,-39.360,31.509
6.648,-61.377,-80.606,-83.975,-3.500,82.971,-141.081,139.972,-548.343,800.916,74.626,-39.371,31.334
6.658,-61.377,-80.497,-83.934,-3.755,82.972,-141.081,139.582,-547.614,801.347,74.761,-39.376,31.250
6.668,-61.379,-80.330,-83.883,-4.108,82.972,-141.081,138.941,-546.471,802.025,74.935,-39.382,31.138
6.678,-61.379,-80.158,-83.841,-4.429,82.972,-141.081,138.255,-545.225,802.795,75.072,-39.386,31.051
6.688,-61.380,-80.078,-83.827,-4.563,82.972,-141.081,137.937,-544.643,803.144,75.124,-39.388,31.017
6.698,-61.381,-79.927,-83.814,-4.777,82.972,-141.081,137.302,-543.504,803.822,75.189,-39.390,30.975
6.709,-61.382,-79.790,-83.822,-4.928,82.972,-141.080,136.712,-542.448,804.414,75.216,-39.392,30.956
6.719,-61.381,-79.728,-83.826,-4.974,82.972,-141.080,136.432,-541.924,804.761,75.201,-39.391,30.967
6.729,-61.381,-79.605,-83.835,-5.015,82.972,-141.081,135.861,-540.879,805.578,75.116,-39.388,31.020
6.739,-61.382,-79.513,-83.838,-5.011,82.973,-141.081,135.302,-539.856,806.504,74.987,-39.384,31.102
6.749,-61.381,-79.462,-83.837,-5.011,82.973,-141.080,135.024,-539.334,806.987,74.920,-39.382,31.146
6.760,-61.381,-79.395,-83.837,-5.009,82.974,-141.080,134.658,-538.643,807.626,74.831,-39.379,31.204
6.769,-61.380,-79.332,-83.835,-5.006,82.975,-141.080,134.306,-537.978,808.249,74.744,-39.376,31.261
6.779,-61.379,-79.301,-83.836,-5.005,82.975,-141.080,134.146,-537.659,808.538,74.702,-39.374,31.288
6.788,-61.377,-79.244,-83.837,-5.003,82.977,-141.080,133.858,-537.068,809.065,74.628,-39.371,31.339
6.799,-61.376,-79.212,-83.837,-5.003,82.978,-141.079,133.689,-536.733,809.367,74.586,-39.370,31.368
6.809,-61.376,-79.201,-83.837,-5.002,82.978,-141.080,133.627,-536.612,809.484,74.570,-39.369,31.379
6.819,-61.375,-79.183,-83.836,-5.002,82.979,-141.079,133.528,-536.424,809.657,74.546,-39.368,31.395
6.829,-61.375,-79.171,-83.836,-5.002,82.979,-141.079,133.473,-536.305,809.766,74.531,-39.367,31.405
6.839,-61.374,-79.169,-83.835,-5.002,82.979,-141.080,133.465,-536.281,809.789,74.528,-39.367,31.408
6.849,-61.375,-79.169,-83.837,-5.002,82.980,-141.079,133.467,-536.282,809.773,74.530,-39.367,31.407
6.859,-61.375,-79.169,-83.838,-5.003,82.980,-141.079,133.470,-536.288,809.765,74.531,-39.368,31.406
6.869,-61.374,-79.169,-83.837,-5.003,82.980,-141.079,133.473,-536.289,809.767,74.531,-39.367,31.407
6.879,-61.375,-79.170,-83.837,-5.003,82.980,-141.079,133.474,-536.295,809.763,74.532,-39.367,31.406
6.889,-61.374,-79.171,-83.836,-5.003,82.979,-141.079,133.481,-536.309,809.756,74.533,-39.367,31.405
6.899,-61.375,-79.172,-83.835,-5.003,82.979,-141.080,133.479,-536.316,809.755,74.533,-39.367,31.404
6.909,-61.374,-79.176,-83.836,-5.003,82.979,-141.079,133.507,-536.355,809.716,74.539,-39.368,31.401
6.919,-61.373,-79.183,-83.836,-5.004,82.979,-141.079,133.555,-536.427,809.642,74.549,-39.368,31.395
6.929,-61.373,-79.186,-83.837,-5.005,82.979,-141.079,133.581,-536.461,809.605,74.555,-39.369,31.392
6.939,-61.372,-79.194,-83.838,-5.005,82.979,-141.079,133.641,-536.549,809.514,74.567,-39.369,31.386
6.949,-61.371,-79.203,-83.839,-5.006,82.979,-141.079,133.695,-536.637,809.424,74.580,-39.369,31.378
6.961,-61.371,-79.207,-83.839,-5.006,82.979,-141.079,133.722,-536.680,809.380,74.586,-39.370,31.374
6.970,-61.370,-79.214,-83.840,-5.007,82.980,-141.079,133.774,-536.757,809.302,74.598,-39.370,31.369
6.979,-61.369,-79.222,-83.839,-5.007,82.980,-141.079,133.834,-536.837,809.229,74.608,-39.371,31.364
6.991,-61.368,-79.226,-83.839,-5.007,82.980,-141.079,133.855,-536.866,809.209,74.611,-39.371,31.362
7.001,-61.368,-79.226,-83.837,-5.006,82.980,-141.079,133.856,-536.867,809.217,74.609,-39.371,31.363
7.009,-61.369,-79.223,-83.837,-5.007,82.980,-141.079,133.834,-536.833,809.249,74.605,-39.370,31.366
7.021,-61.369,-79.221,-83.837,-5.006,82.980,-141.079,133.821,-536.813,809.270,74.602,-39.370,31.368
7.029,-61.370,-79.218,-83.838,-5.006,82.981,-141.079,133.799,-536.788,809.289,74.599,-39.370,31.369
7.039,-61.370,-79.216,-83.837,-5.005,82.981,-141.079,133.784,-536.762,809.318,74.595,-39.370,31.372
7.049,-61.370,-79.216,-83.837,-5.006,82.981,-141.079,133.780,-536.760,809.320,74.595,-39.370,31.371
7.061,-61.371,-79.214,-83.838,-5.005,82.981,-141.079,133.761,-536.751,809.329,74.593,-39.370,31.371
7.069,-61.373,-79.212,-83.837,-5.005,82.980,-141.079,133.724,-536.728,809.363,74.589,-39.370,31.371
7.081,-61.374,-79.209,-83.836,-5.005,82.979,-141.079,133.699,-536.704,809.389,74.585,-39.370,31.372
7.089,-61.375,-79.205,-83.836,-5.006,82.979,-141.079,133.671,-536.662,809.432,74.579,-39.370,31.375
7.101,-61.375,-79.205,-83.836,-5.006,82.979,-141.079,133.668,-536.655,809.435,74.579,-39.370,31.375
7.111,-61.375,-79.206,-83.837,-5.006,82.979,-141.079,133.677,-536.673,809.416,74.582,-39.370,31.374
7.119,-61.374,-79.209,-83.838,-5.006,82.979,-141.079,133.702,-536.707,809.374,74.587,-39.370,31.371
7.131,-61.374,-79.213,-83.839,-5.007,82.979,-141.079,133.730,-536.758,809.316,74.596,-39.371,31.365
7.141,-61.374,-79.216,-83.839,-5.008,82.979,-141.078,133.745,-536.791,809.281,74.601,-39.371,31.361
7.151,-61.374,-79.220,-83.840,-5.009,82.978,-141.079,133.770,-536.839,809.231,74.609,-39.371,31.356
7.161,-61.373,-79.225,-83.841,-5.010,82.978,-141.078,133.805,-536.889,809.176,74.617,-39.372,31.352
7.170,-61.373,-79.228,-83.842,-5.011,82.978,-141.078,133.830,-536.923,809.137,74.623,-39.372,31.349
7.181,-61.372,-79.235,-83.844,-5.012,82.978,-141.078,133.885,-537.008,809.038,74.637,-39.373,31.341
7.189,-61.371,-79.243,-83.847,-5.013,82.979,-141.078,133.941,-537.099,808.933,74.651,-39.373,31.332
7.199,-61.371,-79.249,-83.848,-5.013,82.979,-141.078,133.975,-537.161,808.868,74.660,-39.374,31.327
7.211,-61.371,-79.262,-83.850,-5.013,82.979,-141.078,134.053,-537.302,808.722,74.680,-39.374,31.314
7.221,-61.372,-79.273,-83.853,-5.014,82.979,-141.078,134.120,-537.430,808.582,74.699,-39.375,31.302
7.232,-61.372,-79.278,-83.855,-5.014,82.979,-141.078,134.151,-537.492,808.516,74.708,-39.376,31.296
7.241,-61.372,-79.288,-83.857,-5.013,82.979,-141.078,134.208,-537.597,808.400,74.723,-39.376,31.286
7.252,-61.372,-79.297,-83.859,-5.013,82.979,-141.078,134.262,-537.698,808.296,74.737,-39.376,31.278
7.262,-61.372,-79.300,-83.859,-5.013,82.980,-141.078,134.282,-537.730,808.269,74.741,-39.377,31.276
7.271,-61.373,-79.303,-83.859,-5.012,82.980,-141.078,134.294,-537.756,808.247,74.743,-39.377,31.274
7.281,-61.372,-79.302,-83.858,-5.012,82.980,-141.078,134.291,-537.746,808.258,74.742,-39.376,31.275
7.292,-61.372,-79.301,-83.858,-5.012,82.980,-141.078,134.289,-537.736,808.270,74.740,-39.376,31.277
7.301,-61.372,-79.298,-83.857,-5.011,82.980,-141.078,134.271,-537.702,808.308,74.735,-39.376,31.280
7.312,-61.371,-79.296,-83.856,-5.010,82.981,-141.078,134.261,-537.663,808.350,74.728,-39.376,31.286
7.322,-61.371,-79.294,-83.857,-5.011,82.982,-141.078,134.260,-537.652,808.352,74.728,-39.375,31.287
7.332,-61.371,-79.290,-83.863,-5.010,82.984,-141.078,134.259,-537.627,808.334,74.730,-39.375,31.288
7.341,-61.371,-79.286,-83.867,-5.010,82.987,-141.078,134.258,-537.603,808.318,74.731,-39.374,31.290
7.352,-61.371,-79.284,-83.867,-5.010,82.987,-141.078,134.245,-537.574,808.347,74.727,-39.374,31.293
7.359,-61.372,-79.276,-83.864,-5.009,82.987,-141.078,134.187,-537.480,808.455,74.712,-39.374,31.302
7.369,-61.372,-79.260,-83.864,-5.009,82.987,-141.078,134.094,-537.323,808.603,74.691,-39.373,31.314
7.379,-61.373,-79.249,-83.863,-5.009,82.986,-141.078,134.023,-537.206,808.719,74.675,-39.373,31.323
7.389,-61.373,-79.218,-83.859,-5.008,82.985,-141.078,133.832,-536.873,809.054,74.629,-39.371,31.351
7.399,-61.373,-79.187,-83.857,-5.007,82.985,-141.078,133.660,-536.550,809.363,74.586,-39.369,31.379
7.409,-61.373,-79.167,-83.859,-5.007,82.986,-141.078,133.554,-536.347,809.538,74.562,-39.369,31.395
7.419,-61.373,-79.131,-83.861,-5.007,82.985,-141.078,133.354,-535.983,809.853,74.517,-39.367,31.422
7.429,-61.372,-79.103,-83.861,-5.007,82.986,-141.078,133.208,-535.697,810.108,74.482,-39.365,31.446
7.439,-61.372,-79.095,-83.862,-5.007,82.986,-141.078,133.160,-535.613,810.178,74.472,-39.365,31.452
7.449,-61.372,-79.089,-83.861,-5.007,82.986,-141.078,133.128,-535.556,810.237,74.464,-39.365,31.457
7.459,-61.373,-79.089,-83.861,-5.007,82.986,-141.078,133.118,-535.549,810.245,74.463,-39.365,31.458
7.468,-61.373,-79.089,-83.861,-5.007,82.986,-141.078,133.122,-535.549,810.246,74.463,-39.365,31.458
7.478,-61.373,-79.089,-83.862,-5.006,82.987,-141.078,133.127,-535.555,810.230,74.464,-39.365,31.458
7.488,-61.373,-79.089,-83.864,-5.006,82.987,-141.078,133.129,-535.565,810.209,74.467,-39.365,31.456
7.498,-61.373,-79.089,-83.865,-5.006,82.987,-141.078,133.130,-535.570,810.195,74.469,-39.365,31.454
7.508,-61.373,-79.090,-83.868,-5.007,82.987,-141.078,133.138,-535.589,810.159,74.473,-39.365,31.451
7.518,-61.374,-79.093,-83.871,-5.007,82.986,-141.078,133.151,-535.632,810.099,74.481,-39.366,31.445
7.528,-61.374,-79.094,-83.873,-5.007,82.986,-141.078,133.162,-535.659,810.061,74.486,-39.366,31.441
7.538,-61.375,-79.098,-83.877,-5.007,82.986,-141.078,133.182,-535.709,809.986,74.496,-39.366,31.435
7.548,-61.374,-79.101,-83.885,-5.007,82.985,-141.078,133.219,-535.771,809.873,74.510,-39.367,31.425
7.558,-61.375,-79.102,-83.895,-5.007,82.985,-141.078,133.244,-535.827,809.756,74.524,-39.367,31.416
7.568,-61.375,-79.107,-83.917,-5.007,82.985,-141.078,133.319,-535.966,809.464,74.560,-39.369,31.393
7.578,-61.375,-79.116,-83.960,-5.007,82.985,-141.078,133.457,-536.218,808.928,74.626,-39.371,31.351
7.588,-61.375,-79.121,-84.001,-5.006,82.985,-141.078,133.564,-536.426,808.442,74.685,-39.373,31.313
7.598,-61.376,-79.131,-84.083,-5.006,82.985,-141.078,133.786,-536.847,807.471,74.803,-39.378,31.237
7.608,-61.378,-79.145,-84.203,-5.004,82.985,-141.078,134.086,-537.444,806.063,74.973,-39.384,31.127
7.619,-61.380,-79.155,-84.283,-5.002,82.985,-141.077,134.293,-537.855,805.105,75.089,-39.388,31.052
7.628,-61.381,-79.177,-84.422,-5.001,82.984,-141.077,134.689,-538.601,803.413,75.294,-39.395,30.920
7.638,-61.383,-79.212,-84.608,-4.996,82.984,-141.077,135.238,-539.651,801.099,75.574,-39.403,30.740
7.648,-61.384,-79.238,-84.731,-4.993,82.984,-141.077,135.613,-540.358,799.549,75.761,-39.408,30.621
7.658,-61.385,-79.287,-84.949,-4.984,82.984,-141.077,136.307,-541.647,796.756,76.097,-39.417,30.407
7.668,-61.386,-79.346,-85.239,-4.970,82.984,-141.077,137.177,-543.262,793.124,76.529,-39.426,30.131
7.678,-61.385,-79.383,-85.432,-4.959,82.984,-141.077,137.752,-544.299,790.722,76.813,-39.432,29.952
7.688,-61.385,-79.445,-85.763,-4.937,82.984,-141.077,138.696,-546.036,786.635,77.293,-39.439,29.647
7.698,-61.385,-79.525,-86.148,-4.907,82.984,-141.077,139.830,-548.105,781.790,77.857,-39.446,29.289
7.708,-61.385,-79.568,-86.358,-4.888,82.984,-141.077,140.431,-549.206,779.162,78.161,-39.449,29.096
7.718,-61.383,-79.663,-86.812,-4.836,82.984,-141.077,141.720,-551.540,773.505,78.803,-39.451,28.689
7.728,-61.383,-79.763,-87.319,-4.766,82.986,-141.077,143.085,-554.017,767.268,79.499,-39.450,28.249
7.738,-61.381,-79.831,-87.620,-4.723,82.986,-141.077,143.932,-555.536,763.486,79.920,-39.447,27.983
7.749,-61.379,-79.958,-88.160,-4.647,82.987,-141.077,145.460,-558.265,756.608,80.685,-39.437,27.501
7.758,-61.378,-80.086,-88.689,-4.586,82.990,-141.077,146.929,-560.925,749.759,81.456,-39.423,27.014
7.769,-61.377,-80.174,-89.024,-4.551,82.992,-141.077,147.886,-562.644,745.325,81.958,-39.411,26.698
7.778,-61.376,-80.313,-89.555,-4.494,82.993,-141.077,149.367,-565.313,738.272,82.753,-39.387,26.197
7.788,-61.374,-80.465,-90.167,-4.417,82.996,-141.077,150.969,-568.195,730.265,83.639,-39.355,25.638
7.798,-61.372,-80.543,-90.465,-4.371,82.997,-141.077,151.768,-569.591,726.338,84.067,-39.336,25.371
7.808,-61.369,-80.698,-91.081,-4.263,83.000,-141.077,153.307,-572.319,718.356,84.921,-39.295,24.836
7.818,-61.369,-80.847,-91.723,-4.138,83.002,-141.077,154.753,-574.953,710.176,85.779,-39.248,24.295
7.828,-61.367,-80.928,-92.033,-4.078,83.004,-141.077,155.499,-576.261,706.121,86.205,-39.223,24.029
7.838,-61.367,-81.081,-92.651,-3.957,83.005,-141.077,156.858,-578.746,698.116,87.041,-39.167,23.502
7.848,-61.370,-81.245,-93.327,-3.814,83.004,-141.076,158.225,-581.319,689.416,87.936,-39.102,22.933
7.858,-61.366,-81.331,-93.627,-3.750,83.004,-141.076,158.934,-582.529,685.404,88.349,-39.069,22.677
7.868,-61.367,-81.495,-94.181,-3.642,83.003,-141.076,160.146,-584.772,677.903,89.130,-39.004,22.184
7.878,-61.371,-81.693,-94.789,-3.527,83.002,-141.076,161.467,-587.301,669.455,90.011,-38.923,21.623
7.888,-61.369,-81.805,-95.074,-3.470,83.002,-141.076,162.205,-588.591,665.288,90.446,-38.880,21.354
7.898,-61.372,-82.021,-95.649,-3.347,83.001,-141.075,163.506,-591.051,657.027,91.295,-38.794,20.817
7.908,-61.378,-82.238,-96.228,-3.241,82.999,-141.075,164.731,-593.465,648.610,92.171,-38.696,20.260
7.918,-61.377,-82.354,-96.499,-3.204,83.000,-141.075,165.411,-594.669,644.449,92.615,-38.645,19.985
7.929,-61.378,-82.565,-97.045,-3.155,83.001,-141.075,166.610,-596.892,636.186,93.510,-38.535,19.426
7.939,-61.382,-82.753,-97.601,-3.126,82.999,-141.075,167.646,-598.882,627.945,94.409,-38.418,18.861
7.948,-61.379,-82.846,-97.867,-3.115,83.002,-141.075,168.202,-599.813,623.942,94.848,-38.358,18.594
7.958,-61.378,-83.022,-98.379,-3.103,83.002,-141.075,169.163,-601.545,616.226,95.695,-38.237,18.070
7.968,-61.383,-83.182,-98.887,-3.093,82.999,-141.074,169.939,-603.102,608.704,96.518,-38.114,17.554
7.979,-61.381,-83.263,-99.138,-3.089,83.000,-141.074,170.370,-603.837,604.978,96.925,-38.051,17.306
7.989,-61.380,-83.409,-99.598,-3.085,83.000,-141.074,171.090,-605.146,598.111,97.675,-37.931,16.845
7.999,-61.386,-83.537,-100.037,-3.080,82.996,-141.074,171.610,-606.268,591.690,98.371,-37.813,16.408
8.009,-61.383,-83.614,-100.294,-3.079,82.998,-141.074,171.996,-606.896,587.901,98.782,-37.742,16.161
8.018,-61.378,-83.738,-100.690,-3.081,83.001,-141.073,172.604,-607.855,581.979,99.426,-37.629,15.776
8.028,-61.381,-83.875,-101.079,-3.079,82.997,-141.073,173.106,-608.886,576.011,100.070,-37.511,15.376
8.038,-61.381,-83.947,-101.267,-3.076,82.997,-141.073,173.387,-609.394,573.073,100.386,-37.451,15.184
8.048,-61.377,-84.094,-101.636,-3.077,83.001,-141.073,173.993,-610.386,567.208,101.019,-37.330,14.807
8.058,-61.379,-84.240,-101.996,-3.073,83.002,-141.073,174.495,-611.347,561.481,101.631,-37.208,14.435
8.068,-61.381,-84.314,-102.168,-3.067,83.004,-141.074,174.738,-611.813,558.718,101.923,-37.149,14.259
8.078,-61.375,-84.480,-102.472,-3.038,83.011,-141.073,175.375,-612.788,553.541,102.458,-37.040,13.949
8.088,-61.371,-84.654,-102.750,-2.962,83.028,-141.074,176.040,-613.747,548.801,102.913,-36.947,13.696
8.098,-61.370,-84.757,-102.894,-2.887,83.044,-141.074,176.439,-614.287,546.361,103.123,-36.905,13.588
8.108,-61.366,-84.909,-103.104,-2.720,83.080,-141.074,177.060,-615.005,543.067,103.360,-36.861,13.484
8.118,-61.362,-85.051,-103.305,-2.462,83.123,-141.074,177.652,-615.596,540.410,103.465,-36.846,13.467
8.128,-61.362,-85.116,-103.394,-2.295,83.145,-141.074,177.903,-615.840,539.467,103.450,-36.854,13.498
8.138,-61.361,-85.241,-103.541,-1.899,83.189,-141.074,178.374,-616.267,538.265,103.304,-36.893,13.629
8.148,-61.358,-85.374,-103.658,-1.375,83.239,-141.074,178.886,-616.655,537.951,102.974,-36.973,13.880
8.158,-61.355,-85.440,-103.694,-1.104,83.265,-141.075,179.162,-616.842,538.085,102.772,-37.020,14.031
8.168,-61.346,-85.570,-103.739,-0.561,83.322,-141.075,179.757,-617.181,538.708,102.328,-37.121,14.364
8.178,-61.332,-85.723,-103.766,0.108,83.407,-141.075,180.555,-617.523,539.877,101.737,-37.253,14.818
8.189,-61.325,-85.806,-103.766,0.477,83.458,-141.075,180.996,-617.693,540.704,101.390,-37.329,15.085
8.198,-61.316,-85.994,-103.752,1.257,83.565,-141.076,181.905,-618.127,542.478,100.652,-37.484,15.649
8.208,-61.314,-86.198,-103.735,2.118,83.666,-141.076,182.718,-618.610,544.474,99.828,-37.646,16.254
8.218,-61.314,-86.302,-103.728,2.581,83.716,-141.076,183.090,-618.832,545.580,99.378,-37.731,16.577
8.228,-61.317,-86.500,-103.730,3.566,83.815,-141.076,183.740,-619.125,548.005,98.407,-37.903,17.269
8.238,-61.321,-86.698,-103.743,4.610,83.923,-141.075,184.350,-619.314,550.552,97.374,-38.074,18.008
8.248,-61.322,-86.803,-103.749,5.156,83.977,-141.075,184.662,-619.401,551.878,96.831,-38.159,18.396
8.258,-61.325,-87.029,-103.758,6.292,84.077,-141.076,185.260,-619.599,554.578,95.702,-38.321,19.192
8.268,-61.326,-87.266,-103.758,7.474,84.159,-141.076,185.772,-619.783,557.444,94.514,-38.476,20.011
8.278,-61.324,-87.388,-103.759,8.092,84.196,-141.076,186.012,-619.847,558.950,93.888,-38.550,20.438
8.288,-61.325,-87.649,-103.757,9.344,84.270,-141.076,186.483,-620.013,561.869,92.629,-38.688,21.297
8.298,-61.327,-87.917,-103.756,10.662,84.357,-141.076,186.933,-620.050,564.965,91.292,-38.817,22.219
8.308,-61.327,-88.050,-103.759,11.339,84.403,-141.076,187.132,-620.001,566.564,90.602,-38.877,22.697
8.319,-61.330,-88.314,-103.761,12.656,84.491,-141.076,187.496,-619.884,569.628,89.256,-38.977,23.629
8.329,-61.330,-88.585,-103.765,13.997,84.567,-141.077,187.800,-619.708,572.655,87.889,-39.060,24.566
8.338,-61.329,-88.722,-103.770,14.667,84.599,-141.077,187.922,-619.608,574.111,87.210,-39.095,25.027
8.348,-61.327,-89.008,-103.778,16.006,84.657,-141.078,188.147,-619.433,576.861,85.865,-39.149,25.935
8.358,-61.327,-89.339,-103.784,17.452,84.728,-141.078,188.439,-619.290,579.580,84.435,-39.188,26.909
8.369,-61.328,-89.466,-103.787,18.008,84.759,-141.078,188.540,-619.207,580.609,83.885,-39.197,27.286
8.378,-61.333,-89.769,-103.799,19.346,84.833,-141.077,188.721,-618.936,583.017,82.567,-39.207,28.189
8.388,-61.335,-90.074,-103.816,20.693,84.888,-141.077,188.795,-618.607,585.361,81.242,-39.202,29.078
8.398,-61.337,-90.252,-103.827,21.474,84.908,-141.077,188.771,-618.409,586.674,80.478,-39.193,29.580
8.408,-61.339,-90.538,-103.838,22.695,84.919,-141.077,188.656,-618.133,588.659,79.287,-39.170,30.341
8.418,-61.340,-90.865,-103.842,24.042,84.914,-141.078,188.461,-617.856,590.780,77.977,-39.134,31.162
8.428,-61.341,-91.028,-103.844,24.707,84.914,-141.077,188.357,-617.693,591.796,77.332,-39.110,31.567
8.438,-61.345,-91.352,-103.844,26.044,84.911,-141.077,188.076,-617.305,593.862,76.031,-39.052,32.381
8.448,-61.352,-91.680,-103.838,27.369,84.909,-141.078,187.750,-616.890,595.864,74.742,-38.980,33.183
8.458,-61.356,-91.839,-103.836,28.026,84.908,-141.078,187.558,-616.635,596.854,74.103,-38.939,33.580
8.469,-61.361,-92.162,-103.833,29.336,84.907,-141.078,187.197,-616.104,598.728,72.836,-38.847,34.369
8.478,-61.361,-92.470,-103.829,30.662,84.908,-141.077,186.790,-615.339,600.785,71.533,-38.738,35.187
8.489,-61.360,-92.618,-103.833,31.336,84.908,-141.078,186.541,-614.857,601.856,70.867,-38.676,35.604
8.498,-61.359,-92.910,-103.834,32.681,84.908,-141.078,185.986,-613.819,604.036,69.533,-38.541,36.438
8.508,-61.356,-93.197,-103.831,34.018,84.908,-141.078,185.403,-612.685,606.210,68.202,-38.390,37.269
8.519,-61.355,-93.336,-103.832,34.699,84.908,-141.078,185.049,-612.028,607.357,67.520,-38.308,37.692
8.529,-61.356,-93.613,-103.825,36.029,84.907,-141.078,184.333,-610.725,609.574,66.189,-38.134,38.516
8.538,-61.354,-93.876,-103.820,37.368,84.907,-141.077,183.529,-609.222,611.898,64.837,-37.941,39.350
8.548,-61.353,-93.993,-103.819,38.045,84.907,-141.077,183.054,-608.325,613.189,64.141,-37.835,39.779
8.558,-61.352,-94.234,-103.819,39.496,84.906,-141.076,181.929,-606.258,616.008,62.642,-37.593,40.695
8.568,-61.349,-94.422,-103.819,40.724,84.904,-141.077,180.898,-604.318,618.499,61.362,-37.370,41.475
8.578,-61.348,-94.519,-103.819,41.391,84.904,-141.077,180.293,-603.195,619.892,60.663,-37.241,41.900
8.588,-61.348,-94.696,-103.819,42.709,84.903,-141.077,179.002,-600.833,622.718,59.274,-36.971,42.737
8.598,-61.348,-94.862,-103.819,44.032,84.901,-141.077,177.609,-598.298,625.613,57.874,-36.683,43.575
8.608,-61.348,-94.945,-103.817,44.676,84.900,-141.076,176.916,-597.052,626.988,57.197,-36.537,43.977
8.618,-61.348,-95.107,-103.814,45.958,84.894,-141.076,175.494,-594.493,629.711,55.852,-36.234,44.771
8.628,-61.350,-95.261,-103.807,47.198,84.886,-141.076,174.036,-591.948,632.322,54.554,-35.928,45.526
8.638,-61.351,-95.336,-103.806,47.881,84.880,-141.076,173.176,-590.452,633.802,53.835,-35.752,45.941
8.649,-61.352,-95.440,-103.809,48.942,84.864,-141.075,171.741,-588.007,636.143,52.713,-35.472,46.579
8.658,-61.354,-95.544,-103.812,50.021,84.842,-141.074,170.225,-585.473,638.480,51.578,-35.178,47.216
8.668,-61.353,-95.600,-103.812,50.631,84.829,-141.074,169.360,-583.993,639.819,50.934,-35.007,47.575
8.678,-61.354,-95.675,-103.812,51.505,84.804,-141.074,168.027,-581.817,641.766,50.008,-34.757,48.083
8.688,-61.355,-95.741,-103.811,52.448,84.775,-141.074,166.505,-579.328,643.970,48.998,-34.475,48.631
8.698,-61.356,-95.760,-103.813,52.775,84.768,-141.074,165.960,-578.431,644.741,48.648,-34.374,48.821
8.708,-61.359,-95.798,-103.812,53.488,84.754,-141.074,164.757,-576.405,646.497,47.878,-34.145,49.241
8.719,-61.359,-95.825,-103.811,54.122,84.754,-141.074,163.716,-574.515,648.098,47.192,-33.929,49.624
8.728,-61.359,-95.834,-103.811,54.404,84.756,-141.074,163.256,-573.638,648.829,46.886,-33.830,49.797
8.739,-61.358,-95.846,-103.814,54.894,84.757,-141.074,162.421,-572.087,650.102,46.353,-33.657,50.094
8.749,-61.358,-95.853,-103.815,55.299,84.757,-141.075,161.709,-570.778,651.177,45.911,-33.511,50.339
8.760,-61.358,-95.855,-103.815,55.485,84.757,-141.074,161.376,-570.163,651.684,45.706,-33.443,50.453
8.769,-61.358,-95.851,-103.816,55.817,84.757,-141.074,160.745,-569.010,652.653,45.334,-33.318,50.657
8.780,-61.358,-95.843,-103.812,56.037,84.758,-141.075,160.302,-568.193,653.385,45.078,-33.230,50.798
8.789,-61.357,-95.837,-103.811,56.132,84.758,-141.075,160.100,-567.814,653.728,44.964,-33.191,50.861
8.799,-61.356,-95.822,-103.810,56.281,84.762,-141.075,159.788,-567.176,654.298,44.783,-33.127,50.964
8.809,-61.355,-95.809,-103.810,56.385,84.768,-141.075,159.572,-566.702,654.721,44.656,-33.079,51.040
8.819,-61.354,-95.802,-103.810,56.418,84.769,-141.075,159.491,-566.526,654.885,44.612,-33.063,51.066
8.829,-61.354,-95.783,-103.811,56.448,84.771,-141.075,159.364,-566.274,655.145,44.559,-33.043,51.095
8.839,-61.354,-95.760,-103.812,56.446,84.771,-141.075,159.268,-566.096,655.371,44.536,-33.036,51.108
8.849,-61.354,-95.747,-103.812,56.446,84.771,-141.075,159.214,-565.993,655.496,44.523,-33.030,51.116
8.859,-61.354,-95.726,-103.812,56.446,84.772,-141.075,159.125,-565.830,655.707,44.500,-33.022,51.128
8.869,-61.354,-95.703,-103.812,56.445,84.771,-141.075,159.023,-565.653,655.931,44.475,-33.014,51.141
8.879,-61.355,-95.689,-103.812,56.445,84.771,-141.075,158.960,-565.543,656.069,44.460,-33.009,51.149
8.889,-61.355,-95.668,-103.810,56.444,84.771,-141.076,158.861,-565.376,656.303,44.435,-33.000,51.162
8.898,-61.355,-95.653,-103.810,56.443,84.771,-141.075,158.797,-565.260,656.452,44.419,-32.994,51.171
8.909,-61.355,-95.646,-103.811,56.443,84.771,-141.075,158.767,-565.211,656.507,44.413,-32.993,51.174
8.919,-61.355,-95.639,-103.809,56.443,84.771,-141.075,158.736,-565.158,656.586,44.405,-32.990,51.178
8.928,-61.355,-95.643,-103.810,56.443,84.771,-141.075,158.760,-565.184,656.546,44.409,-32.991,51.176
8.939,-61.355,-95.646,-103.812,56.443,84.771,-141.076,158.771,-565.208,656.504,44.415,-32.993,51.173
8.949,-61.355,-95.649,-103.813,56.442,84.771,-141.076,158.781,-565.242,656.453,44.420,-32.995,51.169
8.959,-61.355,-95.650,-103.813,56.442,84.771,-141.076,158.795,-565.250,656.442,44.422,-32.995,51.169
8.968,-61.354,-95.651,-103.813,56.442,84.771,-141.076,158.803,-565.251,656.434,44.423,-32.995,51.170
8.979,-61.354,-95.650,-103.813,56.442,84.771,-141.076,158.808,-565.245,656.440,44.422,-32.995,51.171
8.988,-61.352,-95.649,-103.812,56.442,84.772,-141.076,158.814,-565.228,656.462,44.420,-32.994,51.173
8.999,-61.352,-95.649,-103.812,56.442,84.772,-141.076,158.818,-565.225,656.469,44.419,-32.994,51.174
9.011,-61.352,-95.648,-103.811,56.443,84.772,-141.076,158.815,-565.219,656.480,44.417,-32.993,51.175
9.021,-61.353,-95.646,-103.810,56.443,84.772,-141.076,158.798,-565.203,656.510,44.414,-32.992,51.176
9.031,-61.352,-95.645,-103.810,56.443,84.772,-141.075,158.796,-565.195,656.524,44.412,-32.992,51.178
9.041,-61.352,-95.644,-103.810,56.442,84.772,-141.076,158.799,-565.185,656.535,44.411,-32.991,51.179
9.049,-61.352,-95.645,-103.810,56.443,84.772,-141.076,158.801,-565.189,656.526,44.412,-32.991,51.178
9.061,-61.352,-95.645,-103.810,56.443,84.772,-141.076,158.800,-565.192,656.520,44.413,-32.992,51.178
9.071,-61.352,-95.646,-103.810,56.442,84.771,-141.075,158.802,-565.200,656.513,44.414,-32.992,51.177
9.079,-61.354,-95.645,-103.809,56.442,84.771,-141.075,158.783,-565.202,656.524,44.413,-32.992,51.176
9.091,-61.354,-95.645,-103.808,56.442,84.771,-141.076,158.778,-565.200,656.536,44.411,-32.991,51.176
9.101,-61.354,-95.644,-103.805,56.442,84.771,-141.076,158.767,-565.188,656.575,44.407,-32.990,51.178
9.111,-61.355,-95.643,-103.801,56.441,84.771,-141.075,158.760,-565.178,656.623,44.401,-32.988,51.181
9.121,-61.355,-95.644,-103.797,56.441,84.771,-141.075,158.758,-565.180,656.646,44.398,-32.987,51.183
9.131,-61.355,-95.645,-103.791,56.441,84.771,-141.076,158.753,-565.179,656.696,44.393,-32.985,51.185
9.141,-61.356,-95.644,-103.784,56.439,84.771,-141.075,158.739,-565.174,656.763,44.386,-32.983,51.188
9.151,-61.357,-95.644,-103.778,56.439,84.771,-141.075,158.725,-565.167,656.816,44.380,-32.981,51.190
9.161,-61.360,-95.644,-103.761,56.438,84.771,-141.075,158.680,-565.153,656.974,44.362,-32.975,51.197
9.169,-61.363,-95.645,-103.725,56.438,84.770,-141.075,158.624,-565.122,657.294,44.323,-32.962,51.214
9.181,-61.365,-95.645,-103.694,56.438,84.770,-141.075,158.578,-565.083,657.584,44.289,-32.950,51.231
9.189,-61.369,-95.644,-103.630,56.440,84.769,-141.075,158.477,-564.985,658.195,44.215,-32.925,51.267
9.201,-61.375,-95.641,-103.529,56.440,84.769,-141.075,158.328,-564.834,659.150,44.101,-32.885,51.322
9.211,-61.379,-95.639,-103.467,56.440,84.769,-141.075,158.227,-564.732,659.751,44.030,-32.860,51.357
9.221,-61.389,-95.631,-103.317,56.441,84.768,-141.075,157.973,-564.472,661.222,43.856,-32.799,51.441
9.229,-61.401,-95.619,-103.132,56.441,84.768,-141.075,157.644,-564.138,663.039,43.641,-32.723,51.544
9.241,-61.409,-95.611,-103.026,56.440,84.768,-141.075,157.445,-563.934,664.099,43.517,-32.678,51.604
9.251,-61.423,-95.587,-102.795,56.440,84.768,-141.075,157.004,-563.411,666.476,43.237,-32.578,51.741
9.261,-61.436,-95.549,-102.534,56.440,84.767,-141.075,156.482,-562.729,669.250,42.913,-32.461,51.902
9.271,-61.441,-95.529,-102.392,56.440,84.767,-141.075,156.218,-562.346,670.764,42.735,-32.396,51.992
9.281,-61.446,-95.481,-102.075,56.440,84.767,-141.075,155.666,-561.442,674.151,42.340,-32.251,52.198
9.291,-61.447,-95.431,-101.671,56.440,84.767,-141.075,155.055,-560.330,678.359,41.849,-32.067,52.459
9.301,-61.446,-95.413,-101.504,56.440,84.768,-141.075,154.819,-559.887,680.068,41.650,-31.992,52.565
9.309,-61.446,-95.359,-101.065,56.442,84.769,-141.075,154.144,-558.629,684.630,41.118,-31.789,52.847
9.321,-61.445,-95.309,-100.663,56.442,84.769,-141.075,153.515,-557.449,688.797,40.635,-31.602,53.102
9.328,-61.444,-95.280,-100.427,56.441,84.769,-141.075,153.139,-556.747,691.242,40.352,-31.492,53.251
9.338,-61.446,-95.216,-99.922,56.441,84.768,-141.075,152.278,-555.204,696.469,39.748,-31.254,53.563
9.349,-61.445,-95.145,-99.414,56.441,84.769,-141.075,151.383,-553.536,701.785,39.136,-31.007,53.881
9.359,-61.445,-95.109,-99.151,56.442,84.769,-141.075,150.910,-552.656,704.526,38.820,-30.878,54.044
9.369,-61.442,-95.042,-98.523,56.440,84.770,-141.075,149.865,-550.687,710.863,38.093,-30.577,54.418
9.378,-61.443,-94.978,-97.992,56.440,84.769,-141.075,148.892,-548.911,716.267,37.474,-30.316,54.731
9.389,-61.443,-94.945,-97.699,56.442,84.770,-141.075,148.350,-547.919,719.236,37.133,-30.171,54.903
9.398,-61.441,-94.880,-97.056,56.438,84.770,-141.075,147.212,-545.785,725.622,36.406,-29.856,55.269
9.408,-61.444,-94.799,-96.414,56.437,84.769,-141.075,145.906,-543.444,732.140,35.664,-29.531,55.633
9.419,-61.444,-94.761,-96.093,56.438,84.769,-141.075,145.260,-542.261,735.365,35.296,-29.366,55.814
9.428,-61.438,-94.695,-95.404,56.432,84.771,-141.075,144.000,-539.819,742.098,34.536,-29.020,56.191
9.438,-61.444,-94.617,-94.743,56.426,84.769,-141.075,142.555,-537.298,748.676,33.795,-28.679,56.541
9.448,-61.445,-94.587,-94.398,56.423,84.769,-141.076,141.868,-536.038,751.996,33.421,-28.503,56.720
9.458,-61.435,-94.530,-93.677,56.413,84.770,-141.075,140.540,-533.401,758.843,32.653,-28.139,57.095
9.468,-61.444,-94.457,-92.983,56.403,84.768,-141.075,138.940,-530.661,765.571,31.901,-27.776,57.437
9.478,-61.444,-94.430,-92.609,56.394,84.769,-141.075,138.192,-529.272,769.057,31.514,-27.586,57.618
9.488,-61.436,-94.366,-91.832,56.369,84.771,-141.075,136.634,-526.244,776.340,30.713,-27.186,57.995
9.498,-61.440,-94.323,-91.164,56.343,84.769,-141.075,135.217,-523.735,782.447,30.044,-26.849,58.294
9.508,-61.438,-94.307,-90.788,56.326,84.770,-141.074,134.503,-522.366,785.794,29.679,-26.662,58.461
9.518,-61.440,-94.269,-90.088,56.295,84.769,-141.074,133.033,-519.705,792.072,28.995,-26.309,58.765
9.528,-61.438,-94.251,-89.341,56.258,84.770,-141.073,131.586,-517.021,798.523,28.295,-25.941,59.075
9.538,-61.441,-94.238,-88.993,56.239,84.769,-141.073,130.852,-515.720,801.548,27.969,-25.768,59.215
9.548,-61.446,-94.218,-88.288,56.191,84.768,-141.073,129.378,-513.120,807.598,27.322,-25.422,59.489
9.559,-61.446,-94.195,-87.584,56.130,84.767,-141.073,127.932,-510.470,813.607,26.691,-25.079,59.758
9.568,-61.451,-94.178,-87.198,56.088,84.765,-141.073,127.061,-508.994,816.916,26.349,-24.892,59.895
9.579,-61.450,-94.170,-86.560,55.994,84.767,-141.072,125.892,-506.788,822.149,25.832,-24.603,60.115
9.589,-61.459,-94.145,-85.856,55.829,84.765,-141.071,124.491,-504.401,827.955,25.304,-24.309,60.324
9.598,-61.463,-94.136,-85.587,55.745,84.766,-141.071,123.997,-503.560,830.137,25.122,-24.206,60.395
9.608,-61.469,-94.128,-84.934,55.507,84.766,-141.071,122.963,-501.765,835.250,24.729,-23.982,60.550
9.618,-61.478,-94.112,-84.313,55.205,84.762,-141.070,122.022,-500.248,840.073,24.417,-23.808,60.665
9.629,-61.481,-94.107,-83.998,55.030,84.763,-141.069,121.627,-499.566,842.466,24.282,-23.730,60.717
9.638,-61.491,-94.095,-83.378,54.629,84.763,-141.069,120.912,-498.422,847.111,24.068,-23.607,60.795
9.648,-61.498,-94.076,-82.790,54.140,84.763,-141.069,120.421,-497.659,851.438,23.961,-23.545,60.830
9.658,-61.500,-94.069,-82.497,53.867,84.764,-141.068,120.267,-497.403,853.538,23.936,-23.529,60.839
9.668,-61.502,-94.054,-81.919,53.258,84.764,-141.068,120.109,-497.133,857.606,23.950,-23.538,60.832
9.678,-61.503,-94.016,-81.372,52.592,84.763,-141.068,119.999,-496.960,861.539,24.026,-23.582,60.800
9.689,-61.502,-93.992,-81.055,52.155,84.764,-141.068,120.044,-497.010,863.778,24.114,-23.632,60.767
9.699,-61.498,-93.948,-80.561,51.409,84.764,-141.067,120.214,-497.265,867.235,24.305,-23.744,60.694
9.709,-61.499,-93.890,-80.055,50.525,84.764,-141.067,120.520,-497.844,870.724,24.601,-23.914,60.573
9.718,-61.498,-93.852,-79.766,49.968,84.766,-141.067,120.799,-498.307,872.685,24.815,-24.034,60.489
9.729,-61.496,-93.783,-79.311,49.042,84.766,-141.067,121.262,-499.121,875.767,25.190,-24.247,60.338
9.739,-61.498,-93.697,-78.830,47.958,84.764,-141.067,121.833,-500.230,878.981,25.673,-24.520,60.135
9.749,-61.495,-93.655,-78.605,47.392,84.765,-141.067,122.247,-500.936,880.414,25.952,-24.676,60.023
9.759,-61.492,-93.575,-78.156,46.196,84.768,-141.067,123.219,-502.642,883.106,26.582,-25.022,59.763
9.769,-61.494,-93.493,-77.696,44.934,84.766,-141.067,124.207,-504.512,885.765,27.262,-25.395,59.470
9.779,-61.493,-93.443,-77.434,44.168,84.767,-141.067,124.860,-505.702,887.220,27.694,-25.627,59.285
9.789,-61.495,-93.357,-77.049,42.944,84.769,-141.067,125.929,-507.675,889.268,28.415,-26.010,58.971
9.799,-61.498,-93.264,-76.621,41.615,84.764,-141.067,126.989,-509.739,891.518,29.190,-26.420,58.622
9.809,-61.498,-93.219,-76.410,40.950,84.765,-141.067,127.567,-510.782,892.582,29.587,-26.625,58.446
9.819,-61.496,-93.132,-75.989,39.611,84.766,-141.067,128.744,-512.909,894.612,30.396,-27.036,58.083
9.829,-61.497,-93.029,-75.567,38.161,84.769,-141.067,130.005,-515.221,896.541,31.303,-27.488,57.668
9.839,-61.497,-92.987,-75.409,37.601,84.767,-141.068,130.479,-516.116,897.235,31.658,-27.664,57.502
9.849,-61.495,-92.885,-75.020,36.257,84.769,-141.067,131.609,-518.130,898.965,32.504,-28.074,57.110
9.859,-61.498,-92.800,-74.633,34.920,84.768,-141.068,132.746,-520.295,900.473,33.368,-28.486,56.697
9.870,-61.497,-92.763,-74.446,34.254,84.767,-141.068,133.375,-521.443,901.102,33.811,-28.694,56.485
9.879,-61.498,-92.691,-74.098,32.918,84.767,-141.068,134.688,-523.883,902.055,34.737,-29.120,56.037
9.889,-61.495,-92.619,-73.744,31.577,84.766,-141.068,136.006,-526.267,902.974,35.670,-29.541,55.581
9.899,-61.495,-92.576,-73.546,30.797,84.767,-141.068,136.764,-527.660,903.423,36.223,-29.785,55.308
9.909,-61.494,-92.521,-73.222,29.570,84.766,-141.068,137.986,-529.896,904.072,37.098,-30.165,54.871
9.919,-61.494,-92.464,-72.893,28.236,84.767,-141.069,139.376,-532.441,904.475,38.086,-30.582,54.372
9.929,-61.494,-92.429,-72.712,27.456,84.769,-141.069,140.196,-533.936,904.600,38.676,-30.825,54.072
9.939,-61.493,-92.369,-72.435,26.228,84.768,-141.069,141.470,-536.262,904.705,39.617,-31.206,53.588
