hapiel/Chataigne-Fairino-control/ai_recordings/breathing_robotic.csv
t,j1,j2,j3,j4,j5,j6,x,y,z,rx,ry,rz
0.004,-45.129,-102.915,-70.812,-6.033,57.219,-141.081,320.902,-675.516,683.011,89.740,-39.049,12.253
0.013,-45.128,-102.916,-70.814,-6.033,57.219,-141.081,320.914,-675.519,682.988,89.742,-39.048,12.253
0.024,-45.128,-102.916,-70.815,-6.033,57.219,-141.081,320.919,-675.522,682.972,89.744,-39.047,12.252
0.036,-45.128,-102.916,-70.817,-6.032,57.219,-141.081,320.926,-675.524,682.952,89.746,-39.046,12.251
0.044,-45.128,-102.916,-70.819,-6.032,57.218,-141.081,320.927,-675.525,682.933,89.747,-39.045,12.249
0.054,-45.128,-102.916,-70.820,-6.031,57.218,-141.081,320.925,-675.527,682.929,89.748,-39.045,12.249
0.064,-45.128,-102.915,-70.820,-6.031,57.216,-141.081,320.915,-675.525,682.933,89.747,-39.046,12.247
0.073,-45.127,-102.916,-70.821,-6.031,57.216,-141.081,320.931,-675.531,682.904,89.750,-39.044,12.246
0.083,-45.127,-102.917,-70.823,-6.031,57.216,-141.081,320.944,-675.534,682.879,89.752,-39.043,12.245
0.094,-45.125,-102.920,-70.828,-6.031,57.216,-141.081,320.988,-675.554,682.786,89.761,-39.038,12.241
0.103,-45.125,-102.924,-70.839,-6.031,57.215,-141.081,321.039,-675.598,682.621,89.778,-39.030,12.230
0.114,-45.124,-102.928,-70.846,-6.032,57.215,-141.081,321.078,-675.633,682.497,89.790,-39.024,12.223
0.124,-45.124,-102.939,-70.864,-6.032,57.215,-141.081,321.181,-675.735,682.169,89.821,-39.008,12.203
0.134,-45.125,-102.952,-70.886,-6.031,57.213,-141.081,321.292,-675.862,681.770,89.859,-38.990,12.177
0.144,-45.125,-102.961,-70.900,-6.030,57.212,-141.081,321.362,-675.939,681.524,89.882,-38.978,12.162
0.153,-45.124,-102.977,-70.925,-6.030,57.209,-141.081,321.501,-676.088,681.056,89.927,-38.956,12.131
0.164,-45.124,-102.990,-70.953,-6.030,57.204,-141.081,321.615,-676.224,680.592,89.971,-38.934,12.098
0.174,-45.124,-102.997,-70.974,-6.029,57.200,-141.080,321.663,-676.304,680.295,90.000,-38.920,12.075
0.183,-45.123,-103.015,-71.021,-6.029,57.190,-141.080,321.821,-676.501,679.578,90.070,-38.885,12.022
0.193,-45.125,-103.030,-71.077,-6.029,57.183,-141.080,321.959,-676.704,678.789,90.147,-38.846,11.966
0.203,-45.125,-103.038,-71.107,-6.029,57.180,-141.080,322.047,-676.805,678.371,90.188,-38.825,11.938
0.213,-45.126,-103.051,-71.183,-6.029,57.178,-141.080,322.226,-677.015,677.404,90.283,-38.778,11.874
0.225,-45.126,-103.066,-71.266,-6.028,57.178,-141.080,322.455,-677.240,676.326,90.389,-38.724,11.809
0.234,-45.126,-103.075,-71.311,-6.029,57.178,-141.080,322.578,-677.369,675.734,90.447,-38.695,11.772
0.244,-45.127,-103.097,-71.409,-6.027,57.178,-141.079,322.855,-677.665,674.426,90.573,-38.631,11.692
0.254,-45.127,-103.119,-71.519,-6.025,57.178,-141.079,323.159,-677.970,672.990,90.712,-38.559,11.606
0.266,-45.128,-103.129,-71.578,-6.025,57.179,-141.079,323.306,-678.124,672.231,90.787,-38.521,11.559
0.273,-45.129,-103.149,-71.707,-6.025,57.179,-141.079,323.598,-678.451,670.610,90.945,-38.440,11.458
0.283,-45.131,-103.172,-71.856,-6.023,57.178,-141.079,323.944,-678.819,668.744,91.126,-38.347,11.345
0.293,-45.130,-103.181,-71.940,-6.021,57.178,-141.079,324.121,-678.995,667.732,91.224,-38.296,11.284
0.303,-45.130,-103.191,-72.137,-6.018,57.178,-141.079,324.464,-679.330,665.513,91.440,-38.183,11.151
0.313,-45.129,-103.198,-72.310,-6.015,57.178,-141.078,324.745,-679.602,663.593,91.625,-38.086,11.037
0.323,-45.129,-103.203,-72.405,-6.013,57.178,-141.078,324.909,-679.757,662.518,91.729,-38.031,10.973
0.333,-45.129,-103.217,-72.602,-6.010,57.178,-141.077,325.246,-680.110,660.247,91.948,-37.915,10.838
0.343,-45.131,-103.239,-72.802,-6.006,57.177,-141.077,325.611,-680.517,657.848,92.176,-37.793,10.695
0.353,-45.131,-103.249,-72.903,-6.002,57.176,-141.077,325.799,-680.706,656.651,92.288,-37.733,10.625
0.363,-45.131,-103.267,-73.110,-5.988,57.175,-141.077,326.158,-681.070,654.254,92.509,-37.614,10.490
0.377,-45.131,-103.287,-73.317,-5.967,57.173,-141.077,326.509,-681.435,651.863,92.723,-37.498,10.357
0.383,-45.131,-103.295,-73.427,-5.952,57.173,-141.076,326.675,-681.602,650.641,92.831,-37.440,10.292
0.394,-45.133,-103.306,-73.643,-5.913,57.173,-141.075,326.945,-681.901,648.333,93.025,-37.334,10.172
0.403,-45.135,-103.320,-73.855,-5.853,57.172,-141.074,327.195,-682.191,646.107,93.197,-37.240,10.065
0.414,-45.136,-103.331,-73.959,-5.812,57.171,-141.074,327.327,-682.347,645.012,93.273,-37.198,10.017
0.423,-45.137,-103.358,-74.166,-5.701,57.167,-141.074,327.585,-682.655,642.886,93.399,-37.128,9.935
0.435,-45.139,-103.388,-74.369,-5.542,57.164,-141.073,327.812,-682.938,640.944,93.475,-37.086,9.884
0.444,-45.141,-103.406,-74.468,-5.453,57.162,-141.073,327.927,-683.087,639.996,93.504,-37.070,9.864
0.454,-45.142,-103.438,-74.666,-5.248,57.162,-141.072,328.137,-683.317,638.261,93.530,-37.057,9.847
0.464,-45.143,-103.468,-74.871,-4.990,57.164,-141.070,328.301,-683.489,636.688,93.505,-37.072,9.862
0.474,-45.143,-103.480,-74.977,-4.851,57.164,-141.070,328.361,-683.556,635.917,93.485,-37.084,9.874
0.484,-45.142,-103.506,-75.186,-4.551,57.164,-141.069,328.475,-683.652,634.510,93.418,-37.121,9.915
0.494,-45.143,-103.546,-75.411,-4.195,57.164,-141.069,328.618,-683.806,632.975,93.324,-37.174,9.972
0.504,-45.143,-103.565,-75.493,-4.049,57.163,-141.069,328.682,-683.871,632.417,93.278,-37.200,9.999
0.518,-45.142,-103.625,-75.709,-3.638,57.163,-141.069,328.887,-684.070,630.945,93.138,-37.278,10.084
0.522,-45.143,-103.687,-75.884,-3.263,57.163,-141.069,329.084,-684.276,629.737,92.995,-37.356,10.170
0.533,-45.143,-103.724,-75.979,-3.050,57.163,-141.069,329.197,-684.400,629.075,92.912,-37.402,10.220
0.545,-45.143,-103.806,-76.162,-2.608,57.162,-141.070,329.447,-684.663,627.782,92.729,-37.501,10.330
0.554,-45.145,-103.894,-76.350,-2.139,57.162,-141.070,329.690,-684.943,626.472,92.528,-37.610,10.450
0.565,-45.147,-103.943,-76.448,-1.903,57.161,-141.070,329.832,-685.116,625.715,92.435,-37.660,10.505
0.576,-45.150,-104.055,-76.639,-1.403,57.157,-141.070,330.153,-685.508,624.193,92.228,-37.771,10.625
0.584,-45.155,-104.182,-76.826,-0.893,57.150,-141.070,330.495,-685.986,622.549,92.023,-37.882,10.738
0.599,-45.158,-104.247,-76.913,-0.632,57.145,-141.070,330.645,-686.221,621.811,91.908,-37.943,10.800
0.606,-45.167,-104.369,-77.093,-0.091,57.134,-141.070,330.850,-686.637,620.425,91.656,-38.076,10.936
0.614,-45.175,-104.488,-77.273,0.456,57.127,-141.072,331.048,-687.018,619.089,91.395,-38.211,11.082
0.626,-45.179,-104.548,-77.367,0.723,57.125,-141.071,331.159,-687.213,618.354,91.275,-38.274,11.150
0.634,-45.187,-104.664,-77.561,1.263,57.124,-141.073,331.363,-687.565,616.886,91.031,-38.401,11.294
0.644,-45.196,-104.775,-77.766,1.796,57.125,-141.074,331.534,-687.908,615.328,90.800,-38.519,11.428
0.655,-45.202,-104.843,-77.892,2.107,57.125,-141.074,331.652,-688.120,614.317,90.674,-38.584,11.501
0.665,-45.205,-104.963,-78.091,2.589,57.125,-141.073,331.980,-688.506,612.512,90.500,-38.673,11.607
0.674,-45.207,-105.102,-78.297,3.108,57.125,-141.073,332.383,-688.952,610.534,90.313,-38.769,11.721
0.684,-45.209,-105.163,-78.381,3.328,57.125,-141.073,332.547,-689.152,609.710,90.232,-38.810,11.771
0.695,-45.214,-105.332,-78.595,3.892,57.124,-141.073,333.034,-689.732,607.432,90.037,-38.908,11.887
0.705,-45.218,-105.509,-78.791,4.409,57.125,-141.073,333.604,-690.374,605.058,89.883,-38.986,11.981
0.715,-45.221,-105.603,-78.887,4.660,57.125,-141.074,333.900,-690.738,603.799,89.817,-39.018,12.018
0.724,-45.238,-105.799,-79.084,5.177,57.124,-141.074,334.393,-691.539,601.184,89.682,-39.086,12.086
0.734,-45.271,-105.975,-79.280,5.686,57.126,-141.074,334.592,-692.316,598.784,89.534,-39.159,12.149
0.744,-45.292,-106.054,-79.388,5.943,57.128,-141.074,334.580,-692.680,597.610,89.457,-39.197,12.178
0.754,-45.333,-106.201,-79.607,6.452,57.128,-141.074,334.500,-693.338,595.338,89.301,-39.274,12.236
0.765,-45.375,-106.343,-79.829,6.972,57.129,-141.073,334.351,-693.945,593.144,89.131,-39.358,12.303
0.774,-45.396,-106.414,-79.938,7.226,57.129,-141.074,334.286,-694.251,592.035,89.050,-39.397,12.333
0.784,-45.431,-106.557,-80.158,7.749,57.128,-141.074,334.195,-694.801,589.866,88.874,-39.482,12.409
0.794,-45.452,-106.698,-80.376,8.259,57.130,-141.074,334.282,-695.263,587.670,88.709,-39.562,12.494
0.806,-45.456,-106.771,-80.489,8.518,57.131,-141.074,334.411,-695.459,586.522,88.629,-39.601,12.543
0.815,-45.462,-106.939,-80.731,9.063,57.133,-141.073,334.775,-695.931,583.875,88.479,-39.673,12.634
0.825,-45.467,-107.089,-80.943,9.526,57.136,-141.073,335.124,-696.364,581.456,88.368,-39.727,12.703
0.835,-45.471,-107.174,-81.053,9.780,57.135,-141.072,335.301,-696.620,580.147,88.304,-39.758,12.739
0.846,-45.485,-107.339,-81.263,10.298,57.133,-141.072,335.520,-697.100,577.775,88.145,-39.834,12.825
0.854,-45.512,-107.491,-81.476,10.823,57.132,-141.072,335.496,-697.574,575.554,87.968,-39.918,12.911
0.866,-45.530,-107.567,-81.584,11.093,57.133,-141.072,335.424,-697.821,574.453,87.872,-39.963,12.956
0.876,-45.569,-107.716,-81.812,11.625,57.134,-141.073,335.212,-698.328,572.137,87.699,-40.043,13.028
0.886,-45.618,-107.856,-82.047,12.149,57.135,-141.073,334.843,-698.833,569.832,87.533,-40.120,13.087
0.893,-45.643,-107.924,-82.164,12.413,57.135,-141.073,334.630,-699.079,568.708,87.446,-40.161,13.118
0.907,-45.692,-108.049,-82.404,12.941,57.138,-141.072,334.170,-699.476,566.563,87.262,-40.246,13.192
0.914,-45.731,-108.164,-82.648,13.460,57.144,-141.072,333.780,-699.773,564.461,87.082,-40.328,13.274
0.923,-45.750,-108.237,-82.788,13.759,57.149,-141.072,333.641,-699.940,563.180,86.985,-40.372,13.324
0.934,-45.765,-108.359,-83.006,14.228,57.152,-141.072,333.603,-700.165,561.074,86.840,-40.439,13.406
0.944,-45.774,-108.506,-83.244,14.730,57.153,-141.073,333.714,-700.442,558.559,86.708,-40.498,13.483
0.953,-45.776,-108.585,-83.360,14.978,57.153,-141.072,333.818,-700.590,557.270,86.647,-40.526,13.520
0.964,-45.779,-108.755,-83.605,15.501,57.153,-141.072,334.077,-700.903,554.462,86.526,-40.580,13.596
0.973,-45.780,-108.881,-83.815,15.948,57.154,-141.072,334.200,-701.052,552.321,86.399,-40.638,13.679
0.984,-45.784,-108.944,-83.937,16.188,57.155,-141.071,334.201,-701.120,551.130,86.336,-40.666,13.717
0.994,-45.796,-109.068,-84.178,16.666,57.153,-141.070,334.135,-701.268,548.803,86.207,-40.725,13.788
1.004,-45.819,-109.179,-84.423,17.136,57.153,-141.070,333.862,-701.417,546.565,86.078,-40.782,13.849
1.014,-45.832,-109.230,-84.538,17.370,57.153,-141.071,333.684,-701.471,545.581,86.000,-40.816,13.886
1.024,-45.861,-109.332,-84.780,17.842,57.153,-141.071,333.275,-701.588,543.499,85.855,-40.880,13.952
1.034,-45.884,-109.446,-85.010,18.303,57.154,-141.071,332.997,-701.730,541.366,85.720,-40.939,14.018
1.043,-45.896,-109.504,-85.128,18.529,57.155,-141.070,332.870,-701.811,540.225,85.664,-40.964,14.044
1.053,-45.908,-109.622,-85.355,18.957,57.155,-141.070,332.782,-701.933,537.940,85.568,-41.006,14.096
1.063,-45.905,-109.738,-85.585,19.382,57.155,-141.069,332.849,-701.956,535.633,85.479,-41.046,14.157
1.075,-45.904,-109.796,-85.691,19.592,57.154,-141.069,332.882,-701.961,534.581,85.424,-41.070,14.194
1.084,-45.905,-109.916,-85.903,20.016,57.154,-141.068,332.912,-702.012,532.405,85.319,-41.116,14.261
1.093,-45.906,-110.053,-86.109,20.448,57.153,-141.068,332.998,-702.128,530.116,85.216,-41.160,14.326
1.103,-45.907,-110.127,-86.211,20.665,57.152,-141.068,333.050,-702.213,528.918,85.169,-41.181,14.356
1.113,-45.910,-110.267,-86.402,21.104,57.151,-141.068,333.103,-702.329,526.765,85.045,-41.235,14.433
1.123,-45.916,-110.381,-86.598,21.550,57.149,-141.068,332.969,-702.320,524.934,84.887,-41.302,14.529
1.133,-45.918,-110.431,-86.688,21.776,57.147,-141.068,332.883,-702.272,524.186,84.788,-41.344,14.591
1.143,-45.922,-110.518,-86.899,22.213,57.148,-141.068,332.659,-702.111,522.522,84.625,-41.413,14.695
1.153,-45.922,-110.595,-87.109,22.643,57.148,-141.068,332.440,-701.884,520.956,84.460,-41.483,14.805
1.163,-45.923,-110.630,-87.219,22.855,57.148,-141.068,332.300,-701.762,520.162,84.381,-41.516,14.856
1.173,-45.924,-110.700,-87.427,23.278,57.147,-141.068,332.034,-701.504,518.684,84.213,-41.587,14.966
1.183,-45.928,-110.773,-87.636,23.693,57.149,-141.068,331.754,-701.280,517.133,84.057,-41.651,15.067
1.193,-45.931,-110.818,-87.734,23.893,57.150,-141.068,331.657,-701.221,516.282,83.991,-41.678,15.109
1.204,-45.940,-110.918,-87.929,24.262,57.150,-141.068,331.476,-701.205,514.371,83.903,-41.714,15.159
1.213,-45.952,-111.019,-88.110,24.606,57.150,-141.068,331.297,-701.242,512.488,83.831,-41.744,15.194
1.223,-45.960,-111.068,-88.199,24.774,57.150,-141.068,331.182,-701.271,511.565,83.796,-41.758,15.210
1.233,-45.985,-111.166,-88.391,25.087,57.151,-141.068,330.868,-701.394,509.505,83.769,-41.770,15.205
1.243,-46.017,-111.269,-88.578,25.381,57.152,-141.068,330.492,-701.600,507.367,83.764,-41.771,15.176
1.253,-46.040,-111.320,-88.676,25.520,57.153,-141.068,330.230,-701.748,506.224,83.776,-41.767,15.146
1.264,-46.094,-111.423,-88.866,25.786,57.153,-141.067,329.612,-702.110,503.953,83.807,-41.754,15.071
1.273,-46.156,-111.532,-89.066,26.063,57.153,-141.067,328.909,-702.511,501.544,83.845,-41.739,14.985
1.283,-46.176,-111.574,-89.139,26.167,57.153,-141.067,328.685,-702.646,500.660,83.857,-41.734,14.957
1.293,-46.221,-111.669,-89.305,26.410,57.153,-141.067,328.161,-702.944,498.640,83.879,-41.725,14.896
1.302,-46.258,-111.752,-89.473,26.651,57.153,-141.067,327.686,-703.130,496.767,83.890,-41.720,14.852
1.314,-46.271,-111.793,-89.557,26.766,57.153,-141.067,327.516,-703.195,495.821,83.901,-41.715,14.832
1.324,-46.289,-111.871,-89.730,26.998,57.154,-141.066,327.258,-703.254,493.927,83.924,-41.707,14.800
1.333,-46.299,-111.937,-89.921,27.219,57.155,-141.066,327.052,-703.212,491.961,83.967,-41.689,14.763
1.343,-46.302,-111.969,-90.014,27.327,57.155,-141.066,326.963,-703.180,491.017,83.986,-41.681,14.747
1.353,-46.313,-112.027,-90.203,27.539,57.155,-141.065,326.717,-703.114,489.140,84.028,-41.665,14.708
1.363,-46.331,-112.084,-90.375,27.734,57.154,-141.065,326.390,-703.112,487.404,84.067,-41.649,14.663
1.374,-46.345,-112.113,-90.462,27.833,57.154,-141.065,326.163,-703.136,486.526,84.087,-41.640,14.636
1.385,-46.381,-112.170,-90.634,28.014,57.154,-141.065,325.632,-703.249,484.730,84.143,-41.617,14.562
1.393,-46.424,-112.236,-90.798,28.191,57.154,-141.065,325.056,-703.442,482.896,84.205,-41.592,14.479
1.403,-46.450,-112.272,-90.881,28.281,57.155,-141.065,324.723,-703.575,481.938,84.238,-41.578,14.431
1.413,-46.509,-112.353,-91.041,28.453,57.155,-141.065,324.021,-703.928,479.927,84.319,-41.544,14.319
1.424,-46.563,-112.435,-91.195,28.612,57.155,-141.065,323.393,-704.268,477.924,84.409,-41.507,14.205
1.433,-46.594,-112.478,-91.291,28.702,57.154,-141.065,323.007,-704.442,476.741,84.467,-41.482,14.135
1.444,-46.632,-112.538,-91.444,28.834,57.152,-141.065,322.498,-704.632,474.938,84.560,-41.443,14.033
1.454,-46.660,-112.592,-91.617,28.961,57.149,-141.065,322.075,-704.732,472.986,84.677,-41.394,13.924
1.463,-46.674,-112.618,-91.705,29.018,57.149,-141.065,321.879,-704.775,471.981,84.744,-41.366,13.866
1.476,-46.697,-112.670,-91.880,29.128,57.147,-141.065,321.525,-704.847,469.986,84.879,-41.309,13.752
1.484,-46.719,-112.713,-92.069,29.224,57.147,-141.065,321.164,-704.873,467.907,85.037,-41.241,13.626
1.493,-46.733,-112.731,-92.161,29.257,57.147,-141.065,320.958,-704.906,466.879,85.126,-41.203,13.553
1.507,-46.766,-112.759,-92.348,29.300,57.148,-141.064,320.466,-704.991,464.829,85.324,-41.118,13.391
1.517,-46.809,-112.781,-92.536,29.317,57.149,-141.064,319.845,-705.139,462.751,85.545,-41.022,13.204
1.525,-46.834,-112.789,-92.626,29.318,57.150,-141.064,319.497,-705.229,461.752,85.657,-40.974,13.106
1.538,-46.884,-112.800,-92.817,29.317,57.152,-141.064,318.769,-705.381,459.717,85.889,-40.871,12.906
1.544,-46.928,-112.817,-93.005,29.317,57.152,-141.064,318.135,-705.516,457.628,86.124,-40.767,12.709
1.556,-46.947,-112.830,-93.098,29.316,57.152,-141.065,317.861,-705.588,456.541,86.245,-40.713,12.610
1.564,-46.977,-112.865,-93.273,29.317,57.150,-141.065,317.463,-705.719,454.372,86.482,-40.607,12.425
1.574,-46.991,-112.909,-93.435,29.318,57.150,-141.065,317.301,-705.809,452.212,86.714,-40.503,12.260
1.584,-46.992,-112.930,-93.514,29.319,57.150,-141.064,317.292,-705.816,451.157,86.826,-40.452,12.186
1.592,-46.991,-112.975,-93.652,29.320,57.150,-141.064,317.332,-705.845,449.226,87.031,-40.359,12.054
1.602,-46.993,-113.014,-93.781,29.321,57.149,-141.064,317.318,-705.872,447.458,87.219,-40.273,11.930
1.614,-46.992,-113.031,-93.845,29.322,57.148,-141.065,317.315,-705.868,446.608,87.308,-40.232,11.871
1.623,-46.994,-113.056,-93.973,29.323,57.148,-141.065,317.258,-705.831,445.026,87.479,-40.153,11.760
1.633,-46.994,-113.077,-94.089,29.320,57.146,-141.065,317.201,-705.787,443.616,87.634,-40.080,11.658
1.643,-46.995,-113.082,-94.149,29.321,57.145,-141.066,317.141,-705.746,442.954,87.706,-40.046,11.609
1.653,-46.993,-113.084,-94.278,29.322,57.146,-141.065,317.035,-705.594,441.653,87.852,-39.978,11.518
1.666,-46.988,-113.085,-94.401,29.321,57.147,-141.065,316.983,-705.426,440.424,87.990,-39.913,11.436
1.673,-46.985,-113.085,-94.458,29.322,57.148,-141.065,316.952,-705.347,439.866,88.053,-39.884,11.399
1.684,-46.978,-113.088,-94.561,29.321,57.150,-141.065,316.944,-705.196,438.805,88.172,-39.828,11.332
1.693,-46.972,-113.096,-94.655,29.321,57.151,-141.065,316.945,-705.082,437.783,88.284,-39.774,11.267
1.703,-46.970,-113.104,-94.691,29.320,57.151,-141.065,316.956,-705.058,437.321,88.334,-39.751,11.237
1.712,-46.970,-113.123,-94.749,29.320,57.151,-141.065,316.963,-705.060,436.512,88.418,-39.710,11.183
1.724,-46.972,-113.144,-94.789,29.320,57.150,-141.065,316.965,-705.103,435.838,88.487,-39.677,11.136
1.734,-46.974,-113.152,-94.808,29.320,57.149,-141.066,316.951,-705.119,435.552,88.516,-39.663,11.116
1.743,-46.976,-113.162,-94.831,29.318,57.148,-141.066,316.929,-705.141,435.192,88.555,-39.644,11.087
1.753,-46.980,-113.160,-94.855,29.318,57.147,-141.066,316.831,-705.132,434.978,88.579,-39.632,11.067
1.763,-46.981,-113.160,-94.860,29.318,57.147,-141.066,316.818,-705.132,434.921,88.585,-39.629,11.061
1.772,-46.984,-113.158,-94.872,29.318,57.146,-141.067,316.760,-705.123,434.839,88.595,-39.624,11.052
1.783,-46.987,-113.154,-94.877,29.318,57.145,-141.067,316.693,-705.120,434.843,88.596,-39.623,11.047
1.793,-46.989,-113.153,-94.878,29.318,57.145,-141.068,316.662,-705.127,434.854,88.595,-39.623,11.045
1.804,-46.990,-113.152,-94.876,29.318,57.145,-141.068,316.649,-705.134,434.866,88.594,-39.623,11.044
1.813,-46.990,-113.152,-94.877,29.318,57.144,-141.068,316.642,-705.134,434.867,88.594,-39.623,11.044
1.822,-46.990,-113.153,-94.877,29.318,57.144,-141.068,316.651,-705.133,434.861,88.595,-39.623,11.044
1.837,-46.986,-113.153,-94.878,29.318,57.143,-141.068,316.693,-705.111,434.845,88.597,-39.622,11.045
1.846,-46.982,-113.154,-94.879,29.318,57.143,-141.068,316.743,-705.093,434.825,88.598,-39.621,11.048
1.856,-46.977,-113.155,-94.880,29.318,57.143,-141.068,316.803,-705.069,434.794,88.602,-39.620,11.051
1.867,-46.975,-113.156,-94.881,29.318,57.143,-141.068,316.839,-705.057,434.776,88.603,-39.619,11.052
1.876,-46.969,-113.156,-94.884,29.318,57.143,-141.068,316.910,-705.023,434.746,88.607,-39.617,11.056
1.886,-46.963,-113.157,-94.884,29.317,57.143,-141.068,316.981,-704.994,434.738,88.608,-39.616,11.062
1.896,-46.961,-113.157,-94.884,29.317,57.144,-141.068,317.015,-704.978,434.736,88.608,-39.616,11.065
1.906,-46.954,-113.156,-94.883,29.317,57.145,-141.068,317.093,-704.942,434.756,88.606,-39.617,11.073
1.917,-46.948,-113.155,-94.882,29.318,57.145,-141.068,317.176,-704.903,434.775,88.604,-39.618,11.081
1.927,-46.945,-113.154,-94.881,29.318,57.145,-141.068,317.205,-704.888,434.791,88.602,-39.619,11.085
1.936,-46.944,-113.154,-94.880,29.318,57.146,-141.068,317.227,-704.877,434.809,88.600,-39.620,11.089
1.947,-46.946,-113.154,-94.880,29.318,57.146,-141.068,317.201,-704.888,434.815,88.599,-39.620,11.087
1.957,-46.947,-113.154,-94.880,29.318,57.146,-141.068,317.184,-704.897,434.818,88.599,-39.621,11.086
1.966,-46.951,-113.154,-94.880,29.318,57.146,-141.068,317.139,-704.916,434.814,88.599,-39.621,11.082
1.978,-46.954,-113.155,-94.881,29.319,57.145,-141.068,317.094,-704.937,434.798,88.601,-39.620,11.077
1.987,-46.955,-113.155,-94.881,29.319,57.145,-141.068,317.079,-704.944,434.790,88.601,-39.620,11.075
1.996,-46.957,-113.155,-94.882,29.319,57.144,-141.068,317.060,-704.952,434.782,88.602,-39.620,11.072
2.006,-46.956,-113.155,-94.882,29.319,57.143,-141.068,317.069,-704.946,434.783,88.602,-39.619,11.073
2.017,-46.955,-113.154,-94.882,29.319,57.143,-141.068,317.078,-704.939,434.796,88.601,-39.620,11.074
2.026,-46.954,-113.153,-94.881,29.319,57.143,-141.068,317.089,-704.928,434.819,88.598,-39.621,11.077
2.036,-46.952,-113.152,-94.880,29.320,57.143,-141.068,317.105,-704.916,434.842,88.596,-39.622,11.080
2.046,-46.951,-113.152,-94.880,29.320,57.143,-141.068,317.114,-704.910,434.848,88.595,-39.623,11.081
2.057,-46.949,-113.151,-94.879,29.320,57.143,-141.068,317.137,-704.897,434.866,88.593,-39.624,11.085
2.067,-46.948,-113.151,-94.879,29.321,57.143,-141.068,317.156,-704.886,434.875,88.592,-39.625,11.087
2.076,-46.947,-113.151,-94.879,29.320,57.144,-141.067,317.167,-704.883,434.869,88.593,-39.624,11.088
2.086,-46.946,-113.151,-94.879,29.320,57.144,-141.068,317.180,-704.877,434.869,88.593,-39.624,11.089
2.096,-46.945,-113.151,-94.879,29.320,57.144,-141.067,317.187,-704.876,434.865,88.593,-39.624,11.089
2.107,-46.946,-113.152,-94.879,29.320,57.144,-141.067,317.186,-704.878,434.858,88.594,-39.624,11.089
2.116,-46.947,-113.152,-94.879,29.320,57.144,-141.067,317.167,-704.887,434.856,88.594,-39.624,11.087
2.126,-46.949,-113.152,-94.880,29.320,57.143,-141.067,317.145,-704.898,434.850,88.594,-39.624,11.085
2.136,-46.949,-113.152,-94.879,29.320,57.143,-141.067,317.138,-704.902,434.853,88.594,-39.624,11.084
2.146,-46.951,-113.152,-94.879,29.318,57.143,-141.067,317.123,-704.913,434.839,88.597,-39.623,11.080
2.156,-46.952,-113.152,-94.879,29.310,57.143,-141.067,317.118,-704.928,434.811,88.605,-39.619,11.074
2.167,-46.952,-113.152,-94.879,29.302,57.143,-141.067,317.128,-704.937,434.779,88.615,-39.614,11.068
2.177,-46.952,-113.152,-94.879,29.280,57.143,-141.066,317.151,-704.962,434.704,88.638,-39.604,11.053
2.187,-46.951,-113.152,-94.878,29.254,57.143,-141.066,317.182,-704.989,434.615,88.666,-39.590,11.036
2.199,-46.951,-113.152,-94.878,29.240,57.143,-141.066,317.200,-705.001,434.568,88.681,-39.583,11.027
2.207,-46.950,-113.152,-94.878,29.228,57.143,-141.066,317.229,-705.009,434.529,88.693,-39.578,11.020
2.217,-46.948,-113.152,-94.878,29.230,57.143,-141.066,317.249,-704.998,434.534,88.691,-39.578,11.023
2.226,-46.947,-113.151,-94.878,29.230,57.143,-141.066,317.258,-704.992,434.538,88.691,-39.579,11.024
2.238,-46.946,-113.151,-94.877,29.230,57.144,-141.066,317.276,-704.985,434.544,88.690,-39.579,11.026
2.246,-46.944,-113.151,-94.876,29.230,57.145,-141.066,317.302,-704.975,434.552,88.690,-39.579,11.029
2.257,-46.943,-113.151,-94.876,29.230,57.144,-141.065,317.316,-704.970,434.552,88.690,-39.580,11.030
2.266,-46.942,-113.152,-94.875,29.229,57.144,-141.066,317.327,-704.969,434.554,88.690,-39.579,11.031
2.276,-46.943,-113.152,-94.873,29.228,57.145,-141.066,317.332,-704.973,434.571,88.688,-39.580,11.033
2.286,-46.943,-113.151,-94.871,29.227,57.146,-141.065,317.330,-704.979,434.596,88.686,-39.581,11.034
2.297,-46.946,-113.148,-94.863,29.227,57.148,-141.066,317.300,-704.992,434.716,88.674,-39.587,11.040
2.306,-46.949,-113.144,-94.851,29.226,57.163,-141.066,317.339,-704.997,434.873,88.659,-39.594,11.063
2.317,-46.951,-113.142,-94.846,29.226,57.183,-141.066,317.404,-704.993,434.955,88.650,-39.597,11.086
2.327,-46.954,-113.135,-94.836,29.224,57.230,-141.066,317.572,-704.962,435.139,88.632,-39.605,11.142
2.336,-46.954,-113.127,-94.828,29.221,57.255,-141.066,317.666,-704.927,435.311,88.617,-39.611,11.177
2.346,-46.954,-113.123,-94.825,29.220,57.255,-141.065,317.660,-704.916,435.388,88.611,-39.615,11.180
2.356,-46.953,-113.113,-94.815,29.218,57.246,-141.062,317.604,-704.897,435.608,88.591,-39.627,11.185
2.366,-46.954,-113.094,-94.799,29.218,57.238,-141.030,317.523,-704.852,436.003,88.552,-39.678,11.202
2.377,-46.953,-113.085,-94.789,29.218,57.234,-141.007,317.496,-704.828,436.210,88.531,-39.711,11.213
2.387,-46.952,-113.067,-94.753,29.218,57.226,-140.957,317.469,-704.798,436.794,88.470,-39.790,11.246
2.396,-46.949,-113.042,-94.709,29.218,57.223,-140.945,317.458,-704.743,437.535,88.395,-39.838,11.294
2.406,-46.946,-113.027,-94.678,29.217,57.222,-140.952,317.469,-704.708,438.040,88.344,-39.855,11.328
2.417,-46.939,-112.989,-94.597,29.212,57.221,-140.972,317.502,-704.629,439.312,88.218,-39.895,11.415
2.427,-46.927,-112.945,-94.495,29.206,57.221,-140.986,317.609,-704.522,440.850,88.063,-39.954,11.526
2.437,-46.918,-112.920,-94.440,29.203,57.221,-140.987,317.692,-704.441,441.710,87.977,-39.994,11.591
2.447,-46.896,-112.860,-94.316,29.198,57.221,-140.986,317.886,-704.233,443.683,87.778,-40.088,11.741
2.457,-46.872,-112.788,-94.162,29.192,57.218,-140.987,318.072,-704.003,446.100,87.532,-40.201,11.920
2.467,-46.863,-112.746,-94.079,29.188,57.217,-140.987,318.109,-703.888,447.432,87.397,-40.263,12.015
2.476,-46.857,-112.659,-93.906,29.179,57.218,-140.988,318.054,-703.706,450.219,87.115,-40.392,12.205
2.487,-46.861,-112.572,-93.709,29.168,57.219,-140.989,317.888,-703.598,453.239,86.807,-40.531,12.401
2.496,-46.865,-112.530,-93.607,29.165,57.218,-140.990,317.777,-703.554,454.778,86.647,-40.602,12.501
2.507,-46.875,-112.444,-93.385,29.162,57.216,-140.991,317.523,-703.491,458.054,86.301,-40.756,12.714
2.517,-46.890,-112.358,-93.145,29.159,57.213,-140.992,317.207,-703.456,461.528,85.932,-40.918,12.937
2.526,-46.901,-112.315,-93.020,29.156,57.212,-140.992,317.015,-703.456,463.301,85.744,-41.000,13.048
2.537,-46.926,-112.240,-92.751,29.149,57.209,-140.994,316.632,-703.525,466.912,85.355,-41.168,13.276
2.547,-46.954,-112.171,-92.480,29.143,57.205,-140.995,316.209,-703.632,470.465,84.969,-41.332,13.497
2.556,-46.973,-112.131,-92.324,29.141,57.205,-140.996,315.943,-703.692,472.514,84.744,-41.426,13.627
2.567,-46.999,-112.067,-92.079,29.136,57.204,-140.999,315.544,-703.758,475.754,84.390,-41.573,13.835
2.577,-47.026,-111.991,-91.811,29.124,57.202,-141.001,315.096,-703.790,479.342,84.002,-41.731,14.064
2.587,-47.039,-111.954,-91.680,29.117,57.201,-141.003,314.879,-703.802,481.089,83.814,-41.808,14.175
2.597,-47.063,-111.889,-91.420,29.106,57.200,-141.004,314.489,-703.835,484.472,83.443,-41.958,14.398
2.607,-47.083,-111.830,-91.170,29.099,57.199,-141.006,314.147,-703.855,487.674,83.088,-42.099,14.614
2.617,-47.088,-111.804,-91.048,29.096,57.197,-141.008,314.046,-703.843,489.214,82.915,-42.166,14.724
2.627,-47.092,-111.755,-90.820,29.095,57.197,-141.012,313.909,-703.779,492.108,82.587,-42.292,14.940
2.641,-47.099,-111.719,-90.601,29.085,57.197,-141.017,313.789,-703.783,494.718,82.294,-42.402,15.129
2.652,-47.107,-111.704,-90.499,29.061,57.196,-141.018,313.699,-703.846,495.839,82.183,-42.444,15.194
2.656,-47.130,-111.682,-90.296,28.967,57.193,-141.018,313.531,-704.103,497.804,82.026,-42.504,15.275
2.667,-47.159,-111.663,-90.108,28.821,57.188,-141.020,313.340,-704.477,499.398,81.953,-42.532,15.290
2.677,-47.175,-111.656,-90.010,28.725,57.186,-141.020,313.274,-704.713,500.116,81.943,-42.535,15.279
2.688,-47.219,-111.651,-89.829,28.481,57.182,-141.020,313.080,-705.361,501.114,82.013,-42.509,15.183
2.697,-47.271,-111.651,-89.648,28.171,57.175,-141.020,312.887,-706.167,501.802,82.169,-42.450,15.019
2.706,-47.299,-111.650,-89.565,27.993,57.173,-141.020,312.797,-706.598,502.016,82.281,-42.407,14.914
2.716,-47.346,-111.643,-89.401,27.605,57.173,-141.019,312.746,-707.435,502.357,82.539,-42.307,14.692
2.727,-47.380,-111.637,-89.243,27.197,57.173,-141.019,312.891,-708.225,502.537,82.832,-42.192,14.462
2.738,-47.398,-111.631,-89.144,26.923,57.173,-141.018,313.029,-708.716,502.623,83.032,-42.113,14.310
2.748,-47.422,-111.617,-88.963,26.424,57.172,-141.018,313.362,-709.543,502.807,83.393,-41.968,14.043
2.756,-47.450,-111.590,-88.778,25.891,57.173,-141.018,313.643,-710.369,503.084,83.770,-41.814,13.764
2.766,-47.464,-111.575,-88.683,25.608,57.175,-141.018,313.788,-710.797,503.208,83.973,-41.731,13.616
2.776,-47.500,-111.546,-88.481,25.026,57.178,-141.017,314.025,-711.717,503.496,84.384,-41.561,13.311
2.786,-47.549,-111.510,-88.269,24.405,57.180,-141.016,314.095,-712.719,503.830,84.818,-41.378,12.976
2.796,-47.576,-111.493,-88.153,24.089,57.182,-141.016,314.120,-713.241,504.078,85.029,-41.289,12.812
2.806,-47.636,-111.451,-87.916,23.433,57.174,-141.014,314.014,-714.323,504.607,85.465,-41.104,12.457
2.817,-47.694,-111.404,-87.661,22.770,57.157,-141.015,313.879,-715.378,505.362,85.879,-40.923,12.110
2.826,-47.719,-111.376,-87.530,22.442,57.145,-141.014,313.818,-715.859,505.842,86.073,-40.840,11.946
2.836,-47.759,-111.314,-87.232,21.712,57.110,-141.013,313.820,-716.837,506.990,86.494,-40.655,11.597
2.846,-47.780,-111.258,-86.968,21.090,57.083,-141.013,313.988,-717.566,508.101,86.838,-40.501,11.326
2.856,-47.787,-111.223,-86.794,20.688,57.070,-141.013,314.192,-718.002,508.845,87.055,-40.403,11.165
2.867,-47.789,-111.163,-86.522,20.055,57.057,-141.016,314.631,-718.600,510.053,87.394,-40.244,10.930
2.876,-47.793,-111.087,-86.233,19.370,57.054,-141.020,315.064,-719.178,511.461,87.752,-40.073,10.692
2.886,-47.797,-111.044,-86.088,19.033,57.054,-141.023,315.235,-719.435,512.264,87.917,-39.993,10.582
2.896,-47.809,-110.947,-85.801,18.354,57.053,-141.028,315.465,-719.924,513.937,88.245,-39.833,10.359
2.908,-47.835,-110.841,-85.512,17.678,57.052,-141.034,315.451,-720.424,515.770,88.555,-39.678,10.133
2.917,-47.855,-110.786,-85.368,17.336,57.053,-141.036,315.348,-720.698,516.692,88.713,-39.600,10.013
2.927,-47.905,-110.678,-85.078,16.659,57.054,-141.036,315.018,-721.296,518.555,89.019,-39.450,9.770
2.938,-47.974,-110.566,-84.804,15.990,57.056,-141.036,314.401,-721.945,520.345,89.328,-39.299,9.507
2.947,-48.008,-110.507,-84.666,15.654,57.056,-141.036,314.075,-722.251,521.281,89.479,-39.225,9.377
2.956,-48.071,-110.388,-84.395,14.986,57.056,-141.036,313.467,-722.802,523.138,89.780,-39.074,9.124
2.966,-48.124,-110.276,-84.118,14.316,57.056,-141.035,313.011,-723.322,524.951,90.084,-38.923,8.879
2.976,-48.146,-110.223,-83.980,13.986,57.055,-141.035,312.833,-723.559,525.839,90.233,-38.847,8.763
2.987,-48.181,-110.115,-83.701,13.331,57.055,-141.035,312.579,-723.960,527.677,90.521,-38.701,8.547
2.996,-48.207,-110.005,-83.432,12.688,57.055,-141.034,312.391,-724.269,529.490,90.803,-38.556,8.345
3.007,-48.221,-109.952,-83.303,12.372,57.055,-141.034,312.299,-724.425,530.327,90.947,-38.482,8.243
3.016,-48.256,-109.848,-83.042,11.745,57.059,-141.034,312.003,-724.774,532.036,91.226,-38.337,8.037
3.027,-48.302,-109.733,-82.789,11.128,57.058,-141.033,311.483,-725.102,533.840,91.490,-38.199,7.827
3.036,-48.335,-109.674,-82.663,10.824,57.058,-141.033,311.088,-725.295,534.780,91.615,-38.133,7.717
3.046,-48.408,-109.545,-82.417,10.229,57.059,-141.032,310.122,-725.652,536.780,91.846,-38.011,7.501
3.056,-48.487,-109.416,-82.172,9.651,57.060,-141.032,309.065,-725.994,538.850,92.060,-37.897,7.293
3.066,-48.524,-109.350,-82.055,9.359,57.060,-141.032,308.547,-726.152,539.819,92.175,-37.835,7.184
3.076,-48.590,-109.223,-81.828,8.787,57.060,-141.031,307.636,-726.407,541.681,92.403,-37.713,6.979
3.086,-48.648,-109.104,-81.598,8.227,57.060,-141.031,306.827,-726.639,543.521,92.622,-37.594,6.787
3.096,-48.679,-109.034,-81.466,7.910,57.061,-141.030,306.383,-726.743,544.618,92.741,-37.529,6.685
3.106,-48.720,-108.932,-81.251,7.413,57.063,-141.029,305.807,-726.888,546.319,92.927,-37.428,6.532
3.116,-48.746,-108.829,-81.018,6.893,57.064,-141.028,305.428,-726.963,548.138,93.117,-37.324,6.392
3.127,-48.756,-108.782,-80.900,6.635,57.064,-141.028,305.285,-727.001,549.013,93.213,-37.271,6.324
3.136,-48.780,-108.689,-80.661,6.134,57.064,-141.028,304.941,-727.086,550.823,93.388,-37.174,6.194
3.147,-48.810,-108.590,-80.413,5.607,57.063,-141.027,304.499,-727.178,552.716,93.573,-37.071,6.051
3.156,-48.822,-108.554,-80.317,5.412,57.062,-141.027,304.323,-727.215,553.456,93.638,-37.035,6.000
3.167,-48.853,-108.470,-80.092,4.967,57.061,-141.026,303.853,-727.304,555.234,93.776,-36.957,5.884
3.176,-48.882,-108.384,-79.863,4.541,57.059,-141.026,303.384,-727.343,557.151,93.890,-36.893,5.785
3.186,-48.897,-108.338,-79.748,4.335,57.060,-141.027,303.112,-727.337,558.186,93.935,-36.867,5.743
3.195,-48.927,-108.241,-79.519,3.933,57.058,-141.026,302.537,-727.285,560.348,94.012,-36.823,5.665
3.206,-48.957,-108.148,-79.293,3.550,57.058,-141.026,301.969,-727.224,562.489,94.077,-36.787,5.597
3.216,-48.968,-108.105,-79.182,3.371,57.058,-141.026,301.747,-727.178,563.541,94.103,-36.772,5.571
3.226,-48.992,-108.022,-78.970,3.013,57.059,-141.026,301.273,-727.109,565.505,94.167,-36.736,5.509
3.238,-49.018,-107.940,-78.757,2.676,57.060,-141.025,300.767,-727.032,567.537,94.211,-36.712,5.458
3.247,-49.030,-107.898,-78.653,2.512,57.061,-141.024,300.507,-726.975,568.572,94.228,-36.703,5.436
3.256,-49.058,-107.816,-78.420,2.160,57.061,-141.023,299.958,-726.899,570.773,94.265,-36.682,5.386
3.266,-49.087,-107.757,-78.226,1.876,57.063,-141.023,299.469,-726.903,572.510,94.298,-36.664,5.339
3.276,-49.103,-107.727,-78.118,1.724,57.061,-141.022,299.200,-726.916,573.472,94.311,-36.656,5.313
3.286,-49.136,-107.676,-77.898,1.440,57.061,-141.022,298.678,-726.964,575.398,94.325,-36.649,5.272
3.298,-49.167,-107.631,-77.677,1.164,57.060,-141.021,298.186,-727.025,577.285,94.334,-36.645,5.234
3.306,-49.184,-107.605,-77.570,1.032,57.061,-141.021,297.917,-727.036,578.251,94.334,-36.645,5.218
3.316,-49.210,-107.553,-77.362,0.776,57.061,-141.020,297.439,-727.012,580.172,94.330,-36.649,5.194
3.327,-49.233,-107.499,-77.153,0.532,57.059,-141.020,296.984,-726.938,582.166,94.311,-36.658,5.182
3.337,-49.244,-107.470,-77.049,0.410,57.059,-141.020,296.737,-726.884,583.199,94.299,-36.666,5.177
3.346,-49.265,-107.411,-76.840,0.181,57.060,-141.020,296.266,-726.752,585.307,94.261,-36.687,5.179
3.359,-49.273,-107.359,-76.632,-0.044,57.059,-141.020,295.981,-726.572,587.364,94.224,-36.709,5.193
3.366,-49.274,-107.337,-76.527,-0.146,57.058,-141.020,295.888,-726.483,588.378,94.199,-36.724,5.207
3.377,-49.277,-107.295,-76.319,-0.350,57.058,-141.019,295.690,-726.319,590.365,94.152,-36.750,5.231
3.386,-49.280,-107.257,-76.103,-0.557,57.057,-141.020,295.503,-726.165,592.377,94.105,-36.777,5.256
3.396,-49.281,-107.234,-76.001,-0.657,57.056,-141.019,295.385,-726.065,593.391,94.078,-36.792,5.269
3.407,-49.281,-107.190,-75.769,-0.873,57.056,-141.020,295.198,-725.850,595.622,94.017,-36.827,5.306
3.416,-49.282,-107.155,-75.577,-1.048,57.056,-141.019,295.041,-725.681,597.452,93.965,-36.857,5.336
3.426,-49.282,-107.140,-75.469,-1.141,57.056,-141.019,294.970,-725.599,598.456,93.934,-36.875,5.355
3.437,-49.282,-107.111,-75.257,-1.328,57.054,-141.020,294.829,-725.454,600.385,93.879,-36.905,5.386
3.447,-49.282,-107.094,-75.037,-1.499,57.054,-141.019,294.748,-725.345,602.306,93.812,-36.943,5.426
3.456,-49.281,-107.086,-74.929,-1.582,57.054,-141.020,294.704,-725.289,603.259,93.778,-36.963,5.447
3.467,-49.280,-107.068,-74.706,-1.747,57.054,-141.020,294.611,-725.159,605.250,93.700,-37.006,5.495
3.476,-49.281,-107.051,-74.490,-1.903,57.054,-141.020,294.493,-725.032,607.186,93.622,-37.050,5.542
3.487,-49.281,-107.047,-74.379,-1.976,57.054,-141.021,294.453,-724.985,608.157,93.578,-37.074,5.568
3.496,-49.282,-107.041,-74.160,-2.131,57.052,-141.021,294.371,-724.920,609.994,93.506,-37.114,5.609
3.506,-49.283,-107.034,-73.936,-2.295,57.050,-141.021,294.280,-724.852,611.847,93.438,-37.152,5.646
3.516,-49.283,-107.031,-73.827,-2.374,57.049,-141.020,294.243,-724.816,612.755,93.404,-37.172,5.666
3.527,-49.282,-107.028,-73.610,-2.531,57.049,-141.021,294.196,-724.748,614.528,93.339,-37.208,5.706
3.536,-49.284,-107.026,-73.389,-2.698,57.049,-141.021,294.140,-724.704,616.275,93.282,-37.240,5.740
3.547,-49.284,-107.026,-73.276,-2.780,57.049,-141.020,294.110,-724.676,617.180,93.249,-37.258,5.759
3.557,-49.286,-107.025,-73.040,-2.955,57.049,-141.021,294.037,-724.627,619.052,93.186,-37.293,5.796
3.567,-49.287,-107.026,-72.841,-3.116,57.050,-141.021,293.994,-724.603,620.557,93.148,-37.313,5.818
3.576,-49.288,-107.027,-72.736,-3.203,57.050,-141.021,293.968,-724.596,621.339,93.130,-37.324,5.828
3.586,-49.291,-107.028,-72.529,-3.374,57.051,-141.021,293.913,-724.577,622.882,93.095,-37.343,5.847
3.596,-49.291,-107.028,-72.325,-3.559,57.051,-141.021,293.883,-724.551,624.360,93.075,-37.354,5.859
3.606,-49.291,-107.028,-72.225,-3.650,57.052,-141.021,293.874,-724.531,625.094,93.065,-37.359,5.866
3.617,-49.291,-107.028,-72.007,-3.842,57.052,-141.021,293.846,-724.487,626.690,93.039,-37.374,5.883
3.626,-49.291,-107.028,-71.824,-4.023,57.052,-141.021,293.831,-724.469,627.958,93.037,-37.375,5.884
3.637,-49.290,-107.028,-71.727,-4.122,57.052,-141.021,293.829,-724.458,628.621,93.039,-37.374,5.883
3.647,-49.290,-107.028,-71.534,-4.329,57.053,-141.021,293.823,-724.444,629.896,93.053,-37.366,5.875
3.656,-49.289,-107.028,-71.345,-4.542,57.053,-141.021,293.830,-724.434,631.116,93.077,-37.353,5.862
3.667,-49.289,-107.027,-71.236,-4.664,57.053,-141.021,293.828,-724.424,631.820,93.090,-37.346,5.855
3.676,-49.289,-107.026,-71.067,-4.859,57.053,-141.021,293.824,-724.415,632.896,93.116,-37.332,5.839
3.687,-49.288,-107.026,-70.887,-5.066,57.054,-141.020,293.833,-724.404,634.027,93.144,-37.317,5.823
3.696,-49.288,-107.026,-70.800,-5.164,57.054,-141.020,293.826,-724.397,634.588,93.155,-37.311,5.817
3.706,-49.288,-107.026,-70.622,-5.362,57.054,-141.021,293.817,-724.380,635.727,93.176,-37.298,5.804
3.717,-49.288,-107.026,-70.452,-5.543,57.054,-141.021,293.789,-724.350,636.868,93.187,-37.292,5.798
3.727,-49.288,-107.026,-70.366,-5.634,57.055,-141.021,293.778,-724.336,637.433,93.192,-37.289,5.795
3.743,-49.288,-107.025,-70.201,-5.820,57.054,-141.021,293.753,-724.312,638.497,93.213,-37.278,5.782
3.747,-49.288,-107.025,-70.051,-5.992,57.055,-141.021,293.729,-724.294,639.453,93.235,-37.265,5.768
3.757,-49.288,-107.026,-69.977,-6.074,57.055,-141.021,293.729,-724.290,639.909,93.245,-37.260,5.762
3.767,-49.290,-107.028,-69.841,-6.231,57.056,-141.021,293.709,-724.292,640.745,93.268,-37.247,5.748
3.777,-49.292,-107.030,-69.713,-6.372,57.056,-141.021,293.680,-724.292,641.540,93.285,-37.238,5.737
3.787,-49.293,-107.032,-69.671,-6.418,57.056,-141.021,293.668,-724.297,641.800,93.290,-37.235,5.733
3.797,-49.298,-107.034,-69.580,-6.528,57.056,-141.021,293.603,-724.333,642.321,93.312,-37.223,5.714
3.807,-49.308,-107.033,-69.532,-6.604,57.057,-141.021,293.482,-724.389,642.553,93.339,-37.207,5.687
3.817,-49.317,-107.034,-69.513,-6.635,57.057,-141.021,293.388,-724.444,642.623,93.353,-37.200,5.671
3.827,-49.342,-107.037,-69.496,-6.664,57.059,-141.021,293.109,-724.596,642.651,93.369,-37.191,5.639
3.837,-49.378,-107.043,-69.499,-6.655,57.060,-141.021,292.676,-724.811,642.591,93.367,-37.192,5.604
3.847,-49.402,-107.049,-69.503,-6.651,57.060,-141.021,292.411,-724.974,642.486,93.374,-37.188,5.577
3.857,-49.453,-107.069,-69.510,-6.648,57.060,-141.021,291.882,-725.375,642.160,93.399,-37.174,5.510
3.868,-49.505,-107.091,-69.517,-6.648,57.061,-141.022,291.367,-725.800,641.785,93.430,-37.157,5.441
3.877,-49.530,-107.105,-69.521,-6.648,57.061,-141.022,291.135,-726.020,641.570,93.447,-37.146,5.406
3.887,-49.577,-107.140,-69.527,-6.647,57.061,-141.023,290.738,-726.501,641.055,93.489,-37.122,5.333
3.897,-49.617,-107.174,-69.533,-6.646,57.061,-141.024,290.435,-726.938,640.556,93.529,-37.099,5.270
3.908,-49.633,-107.194,-69.534,-6.646,57.062,-141.024,290.341,-727.153,640.288,93.550,-37.087,5.241
3.917,-49.645,-107.230,-69.535,-6.644,57.061,-141.025,290.385,-727.457,639.814,93.586,-37.066,5.206
3.928,-49.646,-107.263,-69.539,-6.642,57.061,-141.026,290.569,-727.679,639.354,93.622,-37.045,5.184
3.938,-49.648,-107.277,-69.541,-6.640,57.061,-141.025,290.622,-727.781,639.159,93.636,-37.037,5.173
3.947,-49.648,-107.297,-69.546,-6.640,57.060,-141.026,290.732,-727.921,638.853,93.661,-37.023,5.158
3.960,-49.648,-107.319,-69.548,-6.639,57.060,-141.026,290.861,-728.066,638.551,93.685,-37.009,5.144
3.968,-49.648,-107.329,-69.548,-6.639,57.060,-141.026,290.919,-728.133,638.417,93.695,-37.003,5.137
3.977,-49.648,-107.346,-69.548,-6.639,57.061,-141.027,291.019,-728.248,638.193,93.713,-36.992,5.127
3.987,-49.647,-107.361,-69.547,-6.639,57.061,-141.027,291.102,-728.340,638.021,93.726,-36.984,5.120
3.998,-49.647,-107.368,-69.546,-6.639,57.061,-141.028,291.155,-728.387,637.925,93.733,-36.979,5.116
4.008,-49.642,-107.382,-69.546,-6.638,57.061,-141.029,291.284,-728.455,637.751,93.746,-36.971,5.112
4.017,-49.638,-107.390,-69.547,-6.638,57.061,-141.029,291.387,-728.489,637.640,93.755,-36.966,5.112
4.028,-49.635,-107.393,-69.547,-6.637,57.061,-141.029,291.439,-728.489,637.611,93.757,-36.965,5.114
4.036,-49.628,-107.395,-69.547,-6.637,57.062,-141.030,291.551,-728.466,637.578,93.760,-36.962,5.121
4.048,-49.623,-107.395,-69.547,-6.638,57.063,-141.031,291.616,-728.441,637.578,93.760,-36.962,5.126
4.058,-49.622,-107.394,-69.546,-6.638,57.063,-141.031,291.621,-728.429,637.600,93.758,-36.963,5.128
4.067,-49.621,-107.391,-69.544,-6.638,57.065,-141.032,291.628,-728.402,637.655,93.754,-36.964,5.134
4.077,-49.619,-107.389,-69.543,-6.638,57.066,-141.032,291.638,-728.379,637.693,93.750,-36.967,5.139
4.087,-49.619,-107.388,-69.543,-6.637,57.067,-141.032,291.635,-728.369,637.716,93.748,-36.968,5.141
4.097,-49.620,-107.387,-69.542,-6.635,57.068,-141.032,291.622,-728.366,637.740,93.745,-36.970,5.143
4.109,-49.622,-107.387,-69.541,-6.633,57.068,-141.032,291.598,-728.365,637.765,93.741,-36.971,5.144
4.118,-49.622,-107.386,-69.542,-6.632,57.068,-141.032,291.585,-728.366,637.770,93.740,-36.972,5.144
4.127,-49.625,-107.386,-69.541,-6.632,57.069,-141.033,291.553,-728.374,637.779,93.739,-36.972,5.143
4.137,-49.627,-107.385,-69.541,-6.629,57.069,-141.034,291.519,-728.374,637.807,93.735,-36.973,5.143
4.148,-49.627,-107.384,-69.541,-6.627,57.068,-141.035,291.507,-728.374,637.820,93.733,-36.974,5.144
4.157,-49.628,-107.383,-69.541,-6.626,57.068,-141.035,291.491,-728.368,637.843,93.730,-36.975,5.145
4.168,-49.628,-107.383,-69.540,-6.626,57.068,-141.035,291.484,-728.364,637.859,93.728,-36.976,5.146
4.177,-49.628,-107.383,-69.540,-6.625,57.068,-141.035,291.484,-728.364,637.862,93.727,-36.976,5.146
4.188,-49.628,-107.383,-69.540,-6.624,57.068,-141.035,291.494,-728.363,637.858,93.727,-36.976,5.147
4.196,-49.626,-107.384,-69.540,-6.624,57.068,-141.035,291.513,-728.362,637.850,93.728,-36.976,5.148
4.206,-49.626,-107.384,-69.540,-6.623,57.068,-141.035,291.522,-728.358,637.850,93.727,-36.977,5.149
4.217,-49.624,-107.385,-69.540,-6.621,57.069,-141.036,291.553,-728.348,637.854,93.725,-36.977,5.153
4.226,-49.621,-107.384,-69.540,-6.620,57.070,-141.036,291.585,-728.332,637.863,93.723,-36.978,5.157
4.237,-49.620,-107.384,-69.539,-6.620,57.071,-141.036,291.607,-728.325,637.867,93.723,-36.978,5.160
4.247,-49.617,-107.383,-69.539,-6.620,57.074,-141.037,291.647,-728.303,637.885,93.721,-36.978,5.166
4.257,-49.615,-107.383,-69.538,-6.619,57.076,-141.038,291.680,-728.287,637.900,93.720,-36.978,5.172
4.266,-49.614,-107.383,-69.538,-6.619,57.077,-141.038,291.698,-728.282,637.897,93.720,-36.978,5.173
4.277,-49.613,-107.383,-69.538,-6.619,57.078,-141.039,291.710,-728.277,637.898,93.720,-36.978,5.175
4.288,-49.614,-107.383,-69.539,-6.619,57.079,-141.039,291.711,-728.281,637.892,93.721,-36.977,5.175
4.296,-49.614,-107.383,-69.539,-6.619,57.080,-141.038,291.715,-728.280,637.893,93.720,-36.978,5.176
4.306,-49.615,-107.383,-69.538,-6.618,57.080,-141.039,291.701,-728.281,637.902,93.719,-36.978,5.176
4.319,-49.616,-107.382,-69.538,-6.618,57.080,-141.040,291.682,-728.282,637.913,93.718,-36.978,5.175
4.326,-49.616,-107.382,-69.538,-6.618,57.080,-141.040,291.670,-728.283,637.921,93.717,-36.978,5.175
4.336,-49.618,-107.381,-69.538,-6.617,57.080,-141.041,291.654,-728.286,637.927,93.717,-36.978,5.175
4.346,-49.618,-107.381,-69.538,-6.618,57.080,-141.041,291.644,-728.290,637.926,93.717,-36.977,5.174
4.357,-49.619,-107.381,-69.538,-6.617,57.080,-141.041,291.642,-728.292,637.925,93.717,-36.977,5.174
4.367,-49.619,-107.382,-69.538,-6.617,57.080,-141.041,291.635,-728.296,637.922,93.716,-36.977,5.173
4.376,-49.619,-107.381,-69.538,-6.614,57.080,-141.041,291.632,-728.292,637.937,93.714,-36.979,5.175
4.386,-49.619,-107.381,-69.538,-6.613,57.080,-141.041,291.633,-728.290,637.941,93.712,-36.979,5.176
4.396,-49.619,-107.381,-69.538,-6.611,57.079,-141.041,291.629,-728.285,637.958,93.710,-36.982,5.177
4.406,-49.618,-107.380,-69.537,-6.609,57.079,-141.041,291.626,-728.276,637.980,93.706,-36.983,5.179
4.416,-49.618,-107.380,-69.537,-6.606,57.079,-141.041,291.627,-728.269,637.997,93.702,-36.985,5.182
4.425,-49.617,-107.379,-69.536,-6.601,57.079,-141.041,291.625,-728.251,638.042,93.695,-36.990,5.187
4.437,-49.616,-107.377,-69.536,-6.595,57.080,-141.040,291.624,-728.225,638.093,93.687,-36.995,5.193
4.446,-49.616,-107.375,-69.536,-6.593,57.080,-141.040,291.621,-728.213,638.122,93.683,-36.997,5.197
4.455,-49.615,-107.374,-69.535,-6.585,57.080,-141.040,291.618,-728.189,638.180,93.673,-37.003,5.204
4.466,-49.615,-107.372,-69.535,-6.572,57.080,-141.039,291.601,-728.162,638.262,93.657,-37.013,5.214
4.476,-49.615,-107.371,-69.534,-6.561,57.080,-141.039,291.585,-728.142,638.325,93.644,-37.019,5.222
4.486,-49.615,-107.368,-69.533,-6.543,57.080,-141.040,291.548,-728.106,638.444,93.621,-37.032,5.235
4.496,-49.616,-107.362,-69.533,-6.521,57.080,-141.039,291.491,-728.054,638.604,93.593,-37.048,5.251
4.506,-49.616,-107.359,-69.532,-6.509,57.080,-141.039,291.462,-728.023,638.692,93.577,-37.057,5.261
4.516,-49.616,-107.355,-69.531,-6.487,57.080,-141.039,291.411,-727.975,638.844,93.549,-37.073,5.277
4.526,-49.617,-107.352,-69.531,-6.474,57.080,-141.039,291.381,-727.946,638.936,93.533,-37.083,5.287
4.536,-49.617,-107.352,-69.531,-6.471,57.080,-141.039,291.371,-727.938,638.958,93.529,-37.085,5.289
4.547,-49.618,-107.351,-69.531,-6.469,57.080,-141.039,291.354,-727.935,638.980,93.526,-37.087,5.290
4.556,-49.618,-107.350,-69.531,-6.469,57.081,-141.038,291.350,-727.935,638.980,93.526,-37.087,5.290
4.566,-49.618,-107.350,-69.531,-6.469,57.081,-141.039,291.349,-727.935,638.980,93.526,-37.087,5.290
4.575,-49.619,-107.350,-69.531,-6.469,57.081,-141.038,291.345,-727.938,638.977,93.526,-37.087,5.289
4.586,-49.618,-107.350,-69.531,-6.469,57.081,-141.038,291.348,-727.936,638.978,93.526,-37.088,5.290
4.596,-49.618,-107.351,-69.531,-6.469,57.081,-141.038,291.353,-727.936,638.976,93.526,-37.087,5.290
4.606,-49.617,-107.351,-69.531,-6.470,57.081,-141.038,291.366,-727.932,638.971,93.527,-37.087,5.291
4.616,-49.616,-107.351,-69.532,-6.470,57.082,-141.039,291.388,-727.931,638.955,93.529,-37.085,5.291
4.626,-49.616,-107.352,-69.532,-6.470,57.082,-141.038,291.398,-727.933,638.942,93.530,-37.085,5.291
4.638,-49.615,-107.352,-69.532,-6.470,57.083,-141.038,291.416,-727.932,638.935,93.530,-37.085,5.293
4.646,-49.614,-107.352,-69.532,-6.470,57.085,-141.038,291.434,-727.928,638.934,93.530,-37.085,5.295
4.656,-49.614,-107.352,-69.532,-6.470,57.085,-141.037,291.439,-727.927,638.934,93.531,-37.086,5.296
4.667,-49.613,-107.352,-69.533,-6.470,57.086,-141.037,291.454,-727.921,638.934,93.531,-37.086,5.298
4.677,-49.613,-107.352,-69.532,-6.470,57.086,-141.038,291.460,-727.918,638.937,93.531,-37.085,5.298
4.687,-49.612,-107.352,-69.533,-6.471,57.087,-141.038,291.466,-727.916,638.935,93.531,-37.085,5.299
4.696,-49.613,-107.352,-69.533,-6.471,57.089,-141.038,291.468,-727.917,638.932,93.532,-37.085,5.300
4.705,-49.614,-107.352,-69.533,-6.470,57.091,-141.038,291.461,-727.919,638.933,93.531,-37.085,5.301
4.716,-49.615,-107.352,-69.535,-6.469,57.091,-141.038,291.457,-727.927,638.911,93.533,-37.085,5.300
4.726,-49.615,-107.356,-69.545,-6.468,57.092,-141.038,291.483,-727.969,638.753,93.546,-37.077,5.292
4.736,-49.617,-107.361,-69.551,-6.470,57.091,-141.038,291.495,-728.019,638.622,93.558,-37.070,5.282
4.746,-49.618,-107.362,-69.551,-6.470,57.091,-141.038,291.484,-728.031,638.607,93.560,-37.069,5.279
4.756,-49.619,-107.364,-69.552,-6.471,57.090,-141.038,291.482,-728.052,638.565,93.564,-37.067,5.275
4.766,-49.623,-107.364,-69.555,-6.471,57.089,-141.039,291.429,-728.080,638.530,93.567,-37.064,5.268
4.776,-49.625,-107.363,-69.556,-6.470,57.089,-141.039,291.399,-728.080,638.540,93.566,-37.065,5.267
4.787,-49.626,-107.362,-69.556,-6.469,57.088,-141.039,291.379,-728.079,638.554,93.564,-37.066,5.267
4.796,-49.626,-107.364,-69.559,-6.470,57.089,-141.039,291.397,-728.094,638.495,93.570,-37.062,5.264
4.807,-49.626,-107.365,-69.563,-6.470,57.089,-141.039,291.410,-728.109,638.438,93.575,-37.060,5.261
4.816,-49.626,-107.371,-69.577,-6.470,57.089,-141.039,291.453,-728.166,638.206,93.596,-37.048,5.248
4.826,-49.626,-107.376,-69.615,-6.469,57.089,-141.039,291.521,-728.247,637.733,93.639,-37.023,5.222
4.836,-49.626,-107.378,-69.641,-6.469,57.089,-141.040,291.557,-728.289,637.436,93.667,-37.007,5.205
4.847,-49.627,-107.378,-69.706,-6.468,57.089,-141.039,291.615,-728.368,636.742,93.732,-36.971,5.165
4.856,-49.625,-107.376,-69.779,-6.467,57.088,-141.039,291.700,-728.437,635.975,93.805,-36.930,5.122
4.866,-49.624,-107.377,-69.818,-6.467,57.088,-141.039,291.751,-728.480,635.558,93.845,-36.907,5.100
4.876,-49.622,-107.376,-69.899,-6.466,57.088,-141.039,291.857,-728.564,634.689,93.927,-36.861,5.053
4.886,-49.620,-107.377,-69.987,-6.466,57.088,-141.039,291.977,-728.658,633.735,94.016,-36.811,5.001
4.896,-49.618,-107.378,-70.043,-6.465,57.088,-141.039,292.061,-728.718,633.127,94.073,-36.778,4.969
4.906,-49.616,-107.378,-70.141,-6.464,57.088,-141.039,292.187,-728.822,632.065,94.173,-36.721,4.911
4.916,-49.613,-107.378,-70.261,-6.463,57.089,-141.039,292.336,-728.945,630.778,94.293,-36.653,4.843
4.927,-49.612,-107.377,-70.329,-6.462,57.090,-141.039,292.416,-729.006,630.065,94.360,-36.614,4.805
4.936,-49.607,-107.375,-70.477,-6.458,57.090,-141.038,292.598,-729.128,628.508,94.504,-36.532,4.724
4.946,-49.602,-107.375,-70.629,-6.449,57.091,-141.038,292.800,-729.263,626.899,94.649,-36.449,4.643
4.961,-49.600,-107.376,-70.708,-6.442,57.091,-141.038,292.905,-729.332,626.065,94.722,-36.406,4.603
4.966,-49.594,-107.379,-70.866,-6.425,57.091,-141.037,293.125,-729.471,624.395,94.866,-36.323,4.524
4.976,-49.588,-107.383,-71.032,-6.403,57.092,-141.037,293.351,-729.616,622.638,95.015,-36.236,4.442
4.987,-49.584,-107.385,-71.117,-6.391,57.092,-141.037,293.475,-729.687,621.742,95.090,-36.193,4.401
4.996,-49.579,-107.387,-71.298,-6.365,57.093,-141.037,293.700,-729.829,619.851,95.248,-36.100,4.315
5.006,-49.575,-107.387,-71.477,-6.331,57.094,-141.037,293.877,-729.954,618.055,95.393,-36.015,4.234
5.016,-49.574,-107.387,-71.571,-6.309,57.094,-141.036,293.943,-730.017,617.132,95.464,-35.973,4.194
5.026,-49.573,-107.388,-71.756,-6.245,57.096,-141.036,294.078,-730.133,615.372,95.586,-35.901,4.126
5.036,-49.571,-107.386,-71.956,-6.151,57.100,-141.036,294.191,-730.219,613.587,95.690,-35.839,4.069
5.047,-49.571,-107.387,-72.058,-6.088,57.102,-141.036,294.243,-730.260,612.721,95.730,-35.816,4.049
5.056,-49.570,-107.389,-72.266,-5.943,57.105,-141.036,294.332,-730.324,611.018,95.795,-35.778,4.015
5.067,-49.568,-107.390,-72.472,-5.785,57.106,-141.035,294.404,-730.368,609.395,95.843,-35.749,3.989
5.076,-49.567,-107.391,-72.578,-5.695,57.107,-141.036,294.446,-730.381,608.583,95.861,-35.738,3.981
5.086,-49.561,-107.392,-72.789,-5.501,57.111,-141.035,294.550,-730.365,607.058,95.878,-35.729,3.981
5.096,-49.551,-107.390,-72.999,-5.290,57.115,-141.035,294.676,-730.294,605.641,95.876,-35.731,3.996
5.107,-49.545,-107.389,-73.106,-5.172,57.115,-141.035,294.742,-730.241,604.963,95.863,-35.738,4.010
5.116,-49.531,-107.389,-73.317,-4.916,57.115,-141.035,294.871,-730.120,603.685,95.819,-35.765,4.049
5.127,-49.519,-107.386,-73.544,-4.636,57.116,-141.035,294.965,-729.983,602.365,95.763,-35.799,4.095
5.136,-49.513,-107.387,-73.653,-4.490,57.116,-141.035,295.013,-729.919,601.737,95.729,-35.819,4.121
5.146,-49.502,-107.389,-73.873,-4.186,57.116,-141.035,295.079,-729.778,600.541,95.646,-35.869,4.180
5.156,-49.495,-107.390,-74.090,-3.857,57.116,-141.035,295.076,-729.629,599.458,95.537,-35.934,4.252
5.167,-49.494,-107.391,-74.201,-3.690,57.116,-141.035,295.041,-729.559,598.916,95.481,-35.967,4.286
5.178,-49.492,-107.391,-74.437,-3.312,57.117,-141.035,294.928,-729.393,597.844,95.339,-36.051,4.371
5.186,-49.492,-107.389,-74.644,-2.974,57.117,-141.036,294.794,-729.237,596.948,95.207,-36.128,4.449
5.196,-49.491,-107.390,-74.756,-2.785,57.117,-141.035,294.736,-729.147,596.469,95.131,-36.173,4.495
5.206,-49.491,-107.389,-74.999,-2.404,57.118,-141.036,294.595,-728.969,595.356,94.991,-36.255,4.579
5.216,-49.488,-107.391,-75.235,-2.011,57.120,-141.036,294.480,-728.779,594.305,94.836,-36.345,4.675
5.226,-49.488,-107.392,-75.356,-1.814,57.121,-141.036,294.415,-728.681,593.763,94.760,-36.389,4.722
5.236,-49.485,-107.395,-75.590,-1.405,57.123,-141.036,294.287,-728.468,592.797,94.587,-36.490,4.829
5.246,-49.484,-107.399,-75.833,-0.994,57.124,-141.036,294.145,-728.267,591.731,94.420,-36.586,4.931
5.256,-49.483,-107.401,-75.955,-0.791,57.124,-141.036,294.071,-728.166,591.177,94.341,-36.631,4.979
5.266,-49.483,-107.403,-76.210,-0.377,57.124,-141.036,293.884,-727.950,590.018,94.182,-36.722,5.074
5.276,-49.484,-107.402,-76.481,0.046,57.124,-141.036,293.676,-727.714,588.763,94.026,-36.811,5.167
5.287,-49.483,-107.401,-76.616,0.264,57.124,-141.036,293.569,-727.584,588.165,93.940,-36.859,5.219
5.296,-49.483,-107.403,-76.907,0.735,57.124,-141.036,293.344,-727.316,586.843,93.758,-36.962,5.328
5.306,-49.483,-107.405,-77.149,1.131,57.124,-141.036,293.144,-727.085,585.750,93.603,-37.049,5.422
5.316,-49.483,-107.408,-77.281,1.351,57.124,-141.036,293.038,-726.962,585.154,93.515,-37.098,5.474
5.326,-49.484,-107.414,-77.549,1.783,57.123,-141.036,292.826,-726.729,583.868,93.353,-37.189,5.571
5.337,-49.484,-107.421,-77.830,2.221,57.123,-141.036,292.609,-726.491,582.461,93.198,-37.275,5.664
5.346,-49.485,-107.422,-77.975,2.442,57.123,-141.036,292.491,-726.355,581.747,93.121,-37.318,5.710
5.356,-49.484,-107.424,-78.269,2.881,57.122,-141.036,292.256,-726.072,580.270,92.973,-37.399,5.800
5.367,-49.484,-107.425,-78.554,3.328,57.123,-141.036,291.997,-725.770,578.930,92.806,-37.491,5.902
5.376,-49.484,-107.426,-78.695,3.547,57.123,-141.036,291.867,-725.622,578.253,92.726,-37.535,5.950
5.386,-49.484,-107.430,-78.974,3.991,57.123,-141.036,291.621,-725.321,576.919,92.559,-37.626,6.053
5.396,-49.484,-107.434,-79.260,4.441,57.123,-141.036,291.345,-725.008,575.558,92.391,-37.717,6.155
5.406,-49.484,-107.434,-79.384,4.627,57.123,-141.036,291.228,-724.870,574.937,92.328,-37.751,6.194
5.416,-49.485,-107.435,-79.718,5.114,57.123,-141.036,290.913,-724.511,573.235,92.168,-37.837,6.292
5.426,-49.484,-107.440,-80.015,5.558,57.124,-141.036,290.649,-724.188,571.707,92.019,-37.917,6.384
5.436,-49.485,-107.442,-80.162,5.778,57.124,-141.036,290.505,-724.025,570.963,91.944,-37.957,6.430
5.447,-49.484,-107.449,-80.449,6.220,57.124,-141.036,290.235,-723.701,569.511,91.789,-38.040,6.526
5.457,-49.484,-107.456,-80.738,6.654,57.125,-141.036,289.965,-723.378,568.002,91.643,-38.116,6.617
5.466,-49.484,-107.458,-80.888,6.874,57.125,-141.036,289.817,-723.208,567.215,91.572,-38.154,6.661
5.477,-49.485,-107.464,-81.194,7.308,57.125,-141.036,289.518,-722.872,565.549,91.443,-38.222,6.739
5.487,-49.485,-107.475,-81.518,7.777,57.125,-141.036,289.222,-722.522,563.755,91.301,-38.297,6.828
5.497,-49.485,-107.480,-81.642,7.956,57.126,-141.036,289.107,-722.386,563.067,91.248,-38.325,6.862
5.507,-49.485,-107.496,-81.905,8.342,57.125,-141.036,288.885,-722.125,561.534,91.135,-38.384,6.932
5.517,-49.484,-107.506,-82.216,8.806,57.125,-141.036,288.570,-721.748,559.872,90.983,-38.462,7.026
5.527,-49.484,-107.507,-82.364,9.014,57.125,-141.036,288.411,-721.552,559.094,90.919,-38.495,7.066
5.537,-49.484,-107.507,-82.666,9.443,57.125,-141.036,288.050,-721.141,557.530,90.784,-38.565,7.150
5.550,-49.483,-107.514,-82.958,9.867,57.125,-141.036,287.744,-720.761,555.961,90.650,-38.634,7.234
5.563,-49.484,-107.517,-83.105,10.073,57.126,-141.036,287.574,-720.577,555.154,90.590,-38.664,7.272
5.567,-49.484,-107.525,-83.390,10.492,57.127,-141.036,287.250,-720.191,553.635,90.455,-38.734,7.357
5.577,-49.484,-107.530,-83.676,10.908,57.127,-141.036,286.917,-719.788,552.125,90.322,-38.802,7.442
5.587,-49.483,-107.531,-83.819,11.113,57.128,-141.036,286.749,-719.576,551.388,90.255,-38.835,7.484
5.597,-49.484,-107.531,-84.110,11.532,57.128,-141.036,286.355,-719.132,549.911,90.118,-38.905,7.570
5.607,-49.484,-107.537,-84.386,11.946,57.128,-141.036,286.003,-718.712,548.504,89.975,-38.977,7.660
5.617,-49.484,-107.540,-84.522,12.154,57.128,-141.036,285.820,-718.506,547.807,89.902,-39.013,7.706
5.627,-49.486,-107.552,-84.784,12.576,57.128,-141.036,285.451,-718.106,546.509,89.740,-39.094,7.806
5.636,-49.486,-107.563,-85.049,12.999,57.129,-141.036,285.084,-717.690,545.190,89.580,-39.174,7.907
5.647,-49.487,-107.566,-85.181,13.209,57.129,-141.036,284.888,-717.467,544.554,89.499,-39.214,7.958
5.657,-49.487,-107.566,-85.455,13.623,57.129,-141.036,284.477,-716.991,543.240,89.347,-39.288,8.054
5.667,-49.487,-107.567,-85.726,14.039,57.129,-141.036,284.070,-716.504,541.954,89.190,-39.366,8.154
5.677,-49.487,-107.569,-85.857,14.242,57.129,-141.036,283.870,-716.272,541.332,89.113,-39.404,8.203
5.687,-49.488,-107.571,-86.112,14.656,57.131,-141.036,283.444,-715.793,540.192,88.942,-39.487,8.312
5.696,-49.489,-107.577,-86.359,15.066,57.131,-141.036,283.033,-715.326,539.086,88.768,-39.571,8.422
5.707,-49.489,-107.582,-86.506,15.301,57.131,-141.036,282.807,-715.061,538.378,88.676,-39.615,8.480
5.717,-49.489,-107.590,-86.732,15.663,57.131,-141.036,282.457,-714.656,537.268,88.537,-39.682,8.569
5.727,-49.489,-107.593,-86.996,16.056,57.132,-141.036,282.051,-714.168,535.967,88.397,-39.750,8.660
5.737,-49.488,-107.594,-87.124,16.253,57.132,-141.036,281.855,-713.917,535.355,88.322,-39.785,8.709
5.746,-49.487,-107.598,-87.373,16.645,57.132,-141.036,281.452,-713.431,534.180,88.168,-39.858,8.808
5.757,-49.487,-107.604,-87.612,17.031,57.132,-141.037,281.046,-712.960,533.063,88.012,-39.931,8.908
5.770,-49.487,-107.608,-87.730,17.216,57.132,-141.036,280.857,-712.738,532.482,87.942,-39.965,8.953
5.778,-49.487,-107.620,-87.961,17.588,57.131,-141.036,280.488,-712.304,531.323,87.799,-40.032,9.045
5.786,-49.487,-107.629,-88.194,17.952,57.131,-141.036,280.101,-711.860,530.167,87.662,-40.096,9.132
5.796,-49.487,-107.631,-88.314,18.132,57.131,-141.036,279.906,-711.625,529.567,87.597,-40.127,9.175
5.808,-49.487,-107.631,-88.563,18.487,57.132,-141.036,279.489,-711.134,528.309,87.479,-40.181,9.251
5.817,-49.486,-107.633,-88.804,18.832,57.132,-141.036,279.097,-710.654,527.085,87.364,-40.234,9.326
5.828,-49.487,-107.632,-88.922,18.999,57.132,-141.036,278.881,-710.420,526.496,87.309,-40.260,9.361
5.838,-49.487,-107.633,-89.146,19.331,57.131,-141.036,278.475,-709.957,525.409,87.189,-40.315,9.438
5.847,-49.488,-107.638,-89.368,19.656,57.131,-141.036,278.089,-709.517,524.271,87.078,-40.366,9.508
5.857,-49.488,-107.641,-89.478,19.818,57.131,-141.036,277.897,-709.302,523.704,87.023,-40.391,9.544
5.869,-49.490,-107.647,-89.708,20.135,57.131,-141.036,277.512,-708.872,522.438,86.932,-40.433,9.602
5.876,-49.489,-107.649,-89.954,20.452,57.132,-141.037,277.124,-708.398,521.061,86.854,-40.468,9.654
5.895,-49.488,-107.649,-90.078,20.606,57.132,-141.036,276.931,-708.161,520.367,86.820,-40.484,9.677
5.896,-49.488,-107.650,-90.314,20.906,57.132,-141.036,276.552,-707.705,519.040,86.749,-40.516,9.724
5.907,-49.487,-107.652,-90.538,21.200,57.132,-141.036,276.176,-707.262,517.807,86.672,-40.551,9.774
5.916,-49.488,-107.654,-90.648,21.344,57.132,-141.037,275.991,-707.052,517.183,86.637,-40.566,9.796
5.926,-49.487,-107.663,-90.867,21.628,57.132,-141.036,275.658,-706.646,515.879,86.573,-40.595,9.838
5.938,-49.488,-107.676,-91.096,21.903,57.132,-141.036,275.323,-706.273,514.396,86.535,-40.613,9.862
5.947,-49.486,-107.683,-91.210,22.040,57.132,-141.036,275.182,-706.082,513.645,86.518,-40.620,9.875
5.957,-49.486,-107.689,-91.474,22.329,57.133,-141.036,274.805,-705.621,511.950,86.496,-40.630,9.891
5.966,-49.484,-107.691,-91.693,22.569,57.133,-141.036,274.491,-705.219,510.577,86.475,-40.640,9.907
5.977,-49.484,-107.692,-91.807,22.696,57.134,-141.036,274.307,-705.009,509.882,86.460,-40.646,9.916
5.986,-49.484,-107.695,-92.031,22.955,57.135,-141.036,273.954,-704.584,508.516,86.424,-40.662,9.941
5.996,-49.485,-107.701,-92.250,23.213,57.136,-141.036,273.602,-704.179,507.158,86.388,-40.679,9.965
6.006,-49.485,-107.706,-92.359,23.343,57.136,-141.036,273.432,-703.981,506.471,86.369,-40.687,9.977
6.016,-49.486,-107.717,-92.586,23.599,57.136,-141.036,273.076,-703.595,504.980,86.348,-40.697,9.989
6.026,-49.486,-107.733,-92.809,23.857,57.137,-141.036,272.763,-703.214,503.472,86.326,-40.706,10.005
6.036,-49.487,-107.738,-92.929,23.987,57.138,-141.036,272.584,-703.010,502.670,86.321,-40.709,10.009
6.046,-49.486,-107.747,-93.152,24.239,57.139,-141.036,272.247,-702.598,501.230,86.298,-40.719,10.026
6.056,-49.487,-107.754,-93.365,24.486,57.143,-141.035,271.899,-702.191,499.899,86.267,-40.733,10.048
6.066,-49.487,-107.760,-93.465,24.612,57.144,-141.035,271.748,-701.994,499.276,86.245,-40.743,10.065
6.077,-49.487,-107.780,-93.667,24.867,57.147,-141.035,271.443,-701.637,497.929,86.207,-40.759,10.091
6.086,-49.488,-107.816,-93.860,25.125,57.146,-141.035,271.193,-701.353,496.496,86.174,-40.774,10.112
6.100,-49.489,-107.834,-93.962,25.258,57.146,-141.035,271.050,-701.207,495.732,86.159,-40.781,10.121
6.106,-49.488,-107.874,-94.152,25.520,57.146,-141.035,270.814,-700.926,494.289,86.123,-40.797,10.144
6.116,-49.490,-107.900,-94.355,25.789,57.147,-141.035,270.499,-700.569,492.916,86.077,-40.817,10.175
6.126,-49.489,-107.910,-94.454,25.922,57.148,-141.035,270.334,-700.371,492.294,86.049,-40.829,10.194
6.137,-49.488,-107.926,-94.647,26.189,57.148,-141.035,270.007,-699.959,491.136,85.983,-40.858,10.238
6.146,-49.488,-107.946,-94.832,26.456,57.148,-141.035,269.677,-699.572,490.019,85.912,-40.890,10.285
6.156,-49.488,-107.960,-94.921,26.591,57.147,-141.036,269.522,-699.393,489.452,85.875,-40.906,10.308
6.166,-49.489,-107.987,-95.103,26.865,57.147,-141.036,269.193,-699.038,488.294,85.802,-40.938,10.355
6.177,-49.489,-108.023,-95.271,27.138,57.147,-141.036,268.919,-698.719,487.176,85.723,-40.973,10.406
6.187,-49.490,-108.040,-95.357,27.270,57.147,-141.036,268.771,-698.561,486.607,85.689,-40.987,10.428
6.196,-49.489,-108.075,-95.522,27.553,57.147,-141.036,268.492,-698.220,485.563,85.594,-41.028,10.491
6.206,-49.489,-108.097,-95.656,27.783,57.147,-141.036,268.233,-697.908,484.810,85.508,-41.065,10.548
6.217,-49.489,-108.109,-95.730,27.904,57.147,-141.036,268.089,-697.746,484.361,85.469,-41.083,10.573
6.227,-49.488,-108.132,-95.891,28.157,57.147,-141.037,267.796,-697.387,483.395,85.391,-41.116,10.625
6.237,-49.488,-108.149,-96.025,28.366,57.146,-141.037,267.528,-697.073,482.630,85.322,-41.145,10.670
6.247,-49.489,-108.156,-96.098,28.474,57.146,-141.037,267.375,-696.906,482.211,85.291,-41.159,10.690
6.257,-49.488,-108.174,-96.232,28.674,57.145,-141.038,267.121,-696.610,481.396,85.235,-41.182,10.725
6.266,-49.486,-108.193,-96.352,28.875,57.144,-141.038,266.903,-696.318,480.714,85.163,-41.213,10.775
6.277,-49.487,-108.196,-96.394,28.943,57.144,-141.038,266.802,-696.210,480.499,85.137,-41.224,10.791
6.286,-49.486,-108.205,-96.480,29.099,57.143,-141.039,266.601,-695.968,480.110,85.067,-41.254,10.837
6.297,-49.485,-108.219,-96.549,29.234,57.143,-141.039,266.462,-695.784,479.746,85.007,-41.279,10.877
6.306,-49.485,-108.228,-96.575,29.286,57.142,-141.040,266.414,-695.731,479.578,84.987,-41.287,10.890
6.317,-49.486,-108.240,-96.619,29.366,57.141,-141.040,266.313,-695.647,479.284,84.959,-41.299,10.906
6.327,-49.486,-108.243,-96.649,29.419,57.140,-141.040,266.250,-695.565,479.139,84.937,-41.309,10.920
6.337,-49.486,-108.243,-96.656,29.440,57.140,-141.040,266.215,-695.528,479.149,84.921,-41.315,10.931
6.347,-49.486,-108.241,-96.654,29.473,57.140,-141.041,266.172,-695.476,479.316,84.878,-41.333,10.959
6.357,-49.486,-108.237,-96.649,29.491,57.140,-141.041,266.142,-695.442,479.475,84.847,-41.346,10.980
6.366,-49.485,-108.236,-96.646,29.492,57.141,-141.041,266.145,-695.433,479.522,84.840,-41.349,10.985
6.377,-49.485,-108.233,-96.641,29.491,57.140,-141.041,266.139,-695.427,479.600,84.833,-41.352,10.990
6.387,-49.486,-108.231,-96.635,29.491,57.140,-141.041,266.127,-695.423,479.691,84.823,-41.356,10.995
6.397,-49.486,-108.230,-96.632,29.491,57.140,-141.041,266.127,-695.424,479.733,84.819,-41.358,10.998
6.407,-49.485,-108.229,-96.626,29.490,57.141,-141.042,266.132,-695.422,479.805,84.811,-41.360,11.004
6.417,-49.486,-108.227,-96.624,29.489,57.141,-141.042,266.121,-695.418,479.852,84.807,-41.362,11.006
6.427,-49.486,-108.226,-96.624,29.490,57.140,-141.042,266.114,-695.416,479.860,84.805,-41.362,11.007
6.437,-49.487,-108.228,-96.625,29.489,57.140,-141.043,266.111,-695.426,479.821,84.811,-41.359,11.002
6.446,-49.487,-108.229,-96.627,29.488,57.140,-141.044,266.109,-695.436,479.777,84.816,-41.357,10.998
6.457,-49.488,-108.230,-96.628,29.488,57.140,-141.046,266.099,-695.443,479.762,84.817,-41.354,10.996
6.467,-49.489,-108.230,-96.628,29.488,57.139,-141.051,266.085,-695.448,479.755,84.819,-41.349,10.993
6.477,-49.490,-108.229,-96.628,29.488,57.139,-141.051,266.074,-695.445,479.778,84.816,-41.349,10.994
6.487,-49.489,-108.229,-96.628,29.488,57.139,-141.052,266.074,-695.442,479.787,84.815,-41.349,10.995
6.497,-49.490,-108.228,-96.627,29.488,57.139,-141.053,266.060,-695.444,479.797,84.814,-41.349,10.994
6.507,-49.490,-108.229,-96.628,29.489,57.139,-141.053,266.060,-695.449,479.779,84.816,-41.347,10.993
6.517,-49.490,-108.230,-96.628,29.488,57.139,-141.054,266.063,-695.452,479.771,84.817,-41.347,10.992
6.527,-49.491,-108.231,-96.628,29.488,57.139,-141.054,266.065,-695.456,479.752,84.819,-41.346,10.991
6.537,-49.490,-108.231,-96.628,29.488,57.139,-141.054,266.068,-695.456,479.754,84.819,-41.345,10.991
6.547,-49.490,-108.231,-96.628,29.488,57.139,-141.055,266.074,-695.453,479.758,84.819,-41.345,10.992
6.557,-49.489,-108.230,-96.628,29.488,57.140,-141.056,266.089,-695.447,479.760,84.819,-41.344,10.994
6.567,-49.488,-108.231,-96.628,29.488,57.140,-141.058,266.105,-695.443,479.759,84.819,-41.342,10.995
6.577,-49.487,-108.231,-96.628,29.488,57.140,-141.058,266.111,-695.443,479.757,84.819,-41.342,10.995
6.587,-49.487,-108.231,-96.627,29.488,57.140,-141.058,266.110,-695.443,479.759,84.819,-41.342,10.995
6.597,-49.488,-108.230,-96.627,29.487,57.140,-141.058,266.103,-695.443,479.765,84.819,-41.341,10.995
6.607,-49.488,-108.230,-96.628,29.488,57.139,-141.059,266.102,-695.442,479.762,84.819,-41.341,10.994
6.617,-49.488,-108.230,-96.628,29.488,57.139,-141.059,266.087,-695.446,479.761,84.819,-41.341,10.992
6.627,-49.489,-108.231,-96.628,29.487,57.139,-141.059,266.081,-695.453,479.747,84.821,-41.339,10.990
6.637,-49.489,-108.231,-96.628,29.488,57.138,-141.059,266.081,-695.454,479.741,84.821,-41.339,10.990
6.647,-49.490,-108.231,-96.629,29.488,57.139,-141.060,266.076,-695.455,479.740,84.821,-41.339,10.990
6.657,-49.491,-108.230,-96.628,29.488,57.138,-141.060,266.059,-695.456,479.755,84.820,-41.340,10.989
6.668,-49.491,-108.229,-96.628,29.488,57.139,-141.060,266.053,-695.454,479.767,84.818,-41.340,10.990
6.677,-49.492,-108.229,-96.628,29.488,57.138,-141.060,266.042,-695.455,479.777,84.818,-41.340,10.990
6.687,-49.492,-108.229,-96.628,29.488,57.138,-141.060,266.034,-695.458,479.775,84.818,-41.340,10.989
6.697,-49.492,-108.230,-96.628,29.488,57.138,-141.061,266.035,-695.461,479.766,84.819,-41.339,10.988
6.707,-49.492,-108.231,-96.629,29.488,57.138,-141.062,266.039,-695.464,479.747,84.821,-41.337,10.986
6.718,-49.491,-108.231,-96.629,29.488,57.138,-141.062,266.050,-695.463,479.735,84.822,-41.336,10.986
6.728,-49.491,-108.231,-96.629,29.488,57.138,-141.063,266.054,-695.461,479.735,84.822,-41.335,10.986
6.736,-49.490,-108.231,-96.629,29.488,57.138,-141.064,266.060,-695.458,479.739,84.822,-41.334,10.987
6.747,-49.490,-108.231,-96.629,29.487,57.138,-141.064,266.065,-695.458,479.738,84.822,-41.334,10.987
6.756,-49.490,-108.231,-96.629,29.487,57.138,-141.064,266.065,-695.458,479.738,84.822,-41.334,10.987
6.767,-49.490,-108.231,-96.629,29.487,57.138,-141.065,266.070,-695.456,479.739,84.822,-41.334,10.988
6.777,-49.490,-108.231,-96.629,29.487,57.138,-141.065,266.068,-695.457,479.738,84.822,-41.334,10.988
6.788,-49.490,-108.231,-96.629,29.487,57.138,-141.065,266.066,-695.457,479.739,84.822,-41.333,10.987
6.799,-49.490,-108.231,-96.629,29.487,57.138,-141.065,266.061,-695.460,479.737,84.822,-41.333,10.987
6.807,-49.491,-108.231,-96.629,29.487,57.138,-141.065,266.057,-695.463,479.731,84.823,-41.333,10.986
6.817,-49.491,-108.231,-96.629,29.487,57.138,-141.065,266.052,-695.465,479.729,84.823,-41.333,10.985
6.827,-49.492,-108.231,-96.630,29.487,57.137,-141.065,266.044,-695.467,479.727,84.824,-41.333,10.984
6.837,-49.492,-108.231,-96.629,29.487,57.138,-141.065,266.037,-695.467,479.738,84.823,-41.333,10.985
6.848,-49.492,-108.231,-96.629,29.487,57.138,-141.065,266.037,-695.465,479.745,84.822,-41.333,10.985
6.856,-49.492,-108.230,-96.629,29.487,57.138,-141.066,266.032,-695.462,479.755,84.821,-41.334,10.986
6.866,-49.492,-108.230,-96.629,29.487,57.137,-141.066,266.034,-695.462,479.751,84.821,-41.333,10.985
6.876,-49.492,-108.230,-96.629,29.487,57.138,-141.067,266.038,-695.462,479.751,84.821,-41.332,10.986
6.886,-49.492,-108.231,-96.629,29.487,57.138,-141.067,266.044,-695.463,479.740,84.823,-41.332,10.985
6.896,-49.491,-108.231,-96.630,29.487,57.137,-141.067,266.052,-695.464,479.727,84.824,-41.331,10.985
6.906,-49.491,-108.231,-96.629,29.487,57.138,-141.067,266.055,-695.462,479.731,84.823,-41.331,10.985
6.916,-49.490,-108.231,-96.629,29.487,57.138,-141.068,266.061,-695.459,479.734,84.823,-41.331,10.986
6.925,-49.490,-108.231,-96.629,29.487,57.138,-141.068,266.063,-695.458,479.736,84.823,-41.330,10.986
6.936,-49.490,-108.231,-96.629,29.487,57.138,-141.068,266.068,-695.456,479.736,84.823,-41.330,10.987
6.946,-49.490,-108.231,-96.629,29.487,57.138,-141.068,266.065,-695.459,479.735,84.823,-41.330,10.987
6.956,-49.490,-108.231,-96.629,29.487,57.138,-141.068,266.062,-695.459,479.737,84.823,-41.330,10.987
6.968,-49.490,-108.231,-96.629,29.487,57.138,-141.068,266.061,-695.459,479.737,84.823,-41.330,10.986
6.976,-49.491,-108.231,-96.629,29.487,57.138,-141.068,266.054,-695.462,479.731,84.824,-41.330,10.985
6.987,-49.492,-108.231,-96.630,29.487,57.138,-141.068,266.046,-695.466,479.727,84.824,-41.330,10.984
6.996,-49.492,-108.231,-96.630,29.488,57.137,-141.068,266.045,-695.466,479.729,84.823,-41.330,10.984
7.006,-49.492,-108.231,-96.629,29.488,57.138,-141.068,266.037,-695.469,479.731,84.823,-41.330,10.984
7.017,-49.492,-108.231,-96.629,29.487,57.137,-141.068,266.035,-695.468,479.734,84.823,-41.330,10.984
7.026,-49.492,-108.231,-96.629,29.487,57.137,-141.068,266.036,-695.466,479.740,84.823,-41.331,10.984
7.036,-49.492,-108.230,-96.629,29.488,57.137,-141.068,266.037,-695.463,479.748,84.822,-41.331,10.985
7.046,-49.492,-108.231,-96.629,29.487,57.137,-141.068,266.040,-695.463,479.743,84.822,-41.330,10.985
7.056,-49.492,-108.231,-96.629,29.487,57.137,-141.068,266.041,-695.463,479.741,84.822,-41.330,10.985
7.066,-49.491,-108.231,-96.629,29.487,57.137,-141.068,266.048,-695.463,479.734,84.823,-41.330,10.985
7.076,-49.491,-108.231,-96.629,29.487,57.137,-141.068,266.055,-695.461,479.732,84.823,-41.330,10.985
7.086,-49.490,-108.231,-96.629,29.487,57.137,-141.068,266.058,-695.461,479.730,84.824,-41.330,10.985
7.096,-49.490,-108.231,-96.629,29.487,57.138,-141.068,266.063,-695.458,479.734,84.823,-41.330,10.986
7.106,-49.490,-108.231,-96.629,29.487,57.138,-141.068,266.065,-695.457,479.734,84.823,-41.330,10.986
7.116,-49.490,-108.231,-96.629,29.487,57.138,-141.068,266.063,-695.458,479.737,84.823,-41.330,10.986
7.126,-49.490,-108.231,-96.629,29.487,57.138,-141.068,266.061,-695.460,479.735,84.823,-41.330,10.986
7.136,-49.491,-108.231,-96.629,29.487,57.137,-141.068,266.057,-695.462,479.731,84.824,-41.330,10.985
7.146,-49.491,-108.231,-96.629,29.487,57.137,-141.068,266.051,-695.463,479.731,84.824,-41.330,10.985
7.156,-49.491,-108.231,-96.629,29.487,57.137,-141.068,266.047,-695.465,479.730,84.823,-41.330,10.985
7.166,-49.492,-108.231,-96.629,29.487,57.137,-141.069,266.040,-695.468,479.731,84.824,-41.329,10.984
7.176,-49.492,-108.231,-96.629,29.487,57.137,-141.069,266.043,-695.467,479.730,84.824,-41.329,10.984
7.186,-49.492,-108.231,-96.629,29.487,57.137,-141.069,266.037,-695.468,479.731,84.824,-41.329,10.984
7.196,-49.492,-108.231,-96.629,29.487,57.137,-141.069,266.039,-695.466,479.736,84.823,-41.330,10.984
7.206,-49.492,-108.231,-96.629,29.487,57.137,-141.068,266.039,-695.464,479.740,84.823,-41.330,10.984
7.216,-49.492,-108.231,-96.629,29.487,57.137,-141.069,266.041,-695.465,479.738,84.823,-41.330,10.985
7.226,-49.491,-108.231,-96.629,29.487,57.138,-141.069,266.046,-695.463,479.737,84.823,-41.330,10.985
7.237,-49.491,-108.231,-96.629,29.487,57.137,-141.069,266.047,-695.462,479.738,84.823,-41.330,10.985
7.246,-49.491,-108.231,-96.630,29.487,57.137,-141.069,266.055,-695.461,479.730,84.824,-41.329,10.985
7.256,-49.490,-108.231,-96.629,29.487,57.137,-141.069,266.060,-695.460,479.731,84.824,-41.329,10.986
7.267,-49.490,-108.231,-96.630,29.487,57.138,-141.069,266.061,-695.459,479.730,84.824,-41.329,10.986
7.276,-49.490,-108.231,-96.629,29.487,57.137,-141.069,266.059,-695.459,479.734,84.823,-41.330,10.986
7.286,-49.490,-108.231,-96.629,29.487,57.138,-141.069,266.064,-695.458,479.736,84.823,-41.329,10.986
7.296,-49.490,-108.231,-96.629,29.487,57.138,-141.069,266.062,-695.458,479.734,84.823,-41.329,10.986
7.306,-49.490,-108.231,-96.629,29.487,57.138,-141.069,266.061,-695.460,479.731,84.824,-41.329,10.986
7.316,-49.491,-108.232,-96.629,29.487,57.138,-141.069,266.057,-695.464,479.727,84.824,-41.329,10.985
7.326,-49.491,-108.232,-96.630,29.487,57.138,-141.069,266.056,-695.465,479.720,84.825,-41.329,10.984
7.336,-49.491,-108.231,-96.630,29.487,57.138,-141.069,266.051,-695.465,479.727,84.824,-41.329,10.984
7.346,-49.491,-108.231,-96.629,29.487,57.138,-141.069,266.048,-695.466,479.729,84.824,-41.329,10.985
7.356,-49.491,-108.231,-96.629,29.487,57.138,-141.069,266.048,-695.466,479.731,84.824,-41.329,10.985
7.366,-49.492,-108.231,-96.629,29.487,57.137,-141.069,266.044,-695.466,479.731,84.824,-41.329,10.984
7.376,-49.491,-108.231,-96.629,29.487,57.138,-141.069,266.048,-695.462,479.736,84.823,-41.329,10.985
7.386,-49.491,-108.231,-96.629,29.487,57.137,-141.069,266.047,-695.463,479.738,84.823,-41.329,10.985
7.395,-49.491,-108.231,-96.629,29.487,57.137,-141.069,266.051,-695.463,479.735,84.823,-41.329,10.985
7.407,-49.491,-108.231,-96.630,29.487,57.138,-141.069,266.054,-695.461,479.731,84.824,-41.329,10.985
7.417,-49.491,-108.231,-96.629,29.487,57.137,-141.069,266.053,-695.462,479.732,84.824,-41.329,10.985
7.425,-49.490,-108.231,-96.629,29.487,57.137,-141.069,266.057,-695.462,479.729,84.824,-41.329,10.985
7.436,-49.490,-108.231,-96.630,29.487,57.137,-141.069,266.057,-695.460,479.730,84.824,-41.329,10.985
7.446,-49.490,-108.231,-96.629,29.487,57.137,-141.069,266.057,-695.460,479.735,84.823,-41.329,10.986
7.456,-49.491,-108.231,-96.629,29.487,57.137,-141.069,266.053,-695.460,479.737,84.823,-41.329,10.985
7.467,-49.491,-108.231,-96.629,29.487,57.137,-141.070,266.049,-695.462,479.738,84.823,-41.329,10.985
7.476,-49.491,-108.231,-96.629,29.487,57.137,-141.070,266.045,-695.463,479.736,84.823,-41.328,10.984
7.486,-49.491,-108.231,-96.629,29.487,57.137,-141.070,266.045,-695.464,479.736,84.823,-41.328,10.984
7.497,-49.491,-108.231,-96.629,29.487,57.137,-141.070,266.044,-695.464,479.735,84.823,-41.328,10.984
7.511,-49.492,-108.231,-96.630,29.487,57.137,-141.070,266.043,-695.466,479.730,84.824,-41.328,10.984
7.516,-49.492,-108.231,-96.630,29.487,57.137,-141.070,266.044,-695.466,479.728,84.824,-41.328,10.984
7.526,-49.492,-108.231,-96.630,29.487,57.137,-141.070,266.042,-695.466,479.729,84.824,-41.328,10.983
7.537,-49.492,-108.231,-96.629,29.487,57.137,-141.070,266.042,-695.466,479.732,84.824,-41.328,10.984
7.546,-49.491,-108.231,-96.630,29.487,57.137,-141.070,266.044,-695.465,479.730,84.824,-41.328,10.984
7.556,-49.491,-108.231,-96.630,29.487,57.137,-141.070,266.056,-695.462,479.726,84.824,-41.328,10.985
7.566,-49.490,-108.232,-96.630,29.487,57.137,-141.070,266.061,-695.462,479.725,84.825,-41.328,10.985
7.576,-49.487,-108.224,-96.601,29.481,57.140,-141.070,266.113,-695.439,480.089,84.788,-41.343,11.015
7.586,-49.489,-108.200,-96.563,29.486,57.138,-141.070,266.003,-695.371,480.767,84.712,-41.375,11.061
7.597,-49.484,-108.191,-96.530,29.483,57.144,-141.069,266.081,-695.335,481.202,84.665,-41.395,11.103
7.606,-49.483,-108.180,-96.475,29.480,57.150,-141.069,266.124,-695.327,481.874,84.592,-41.426,11.158
7.616,-49.473,-108.169,-96.396,29.480,57.155,-141.069,266.284,-695.294,482.784,84.488,-41.470,11.243
7.626,-49.464,-108.169,-96.352,29.477,57.163,-141.068,266.465,-695.286,483.219,84.439,-41.490,11.292
7.636,-49.440,-108.174,-96.254,29.477,57.182,-141.068,266.932,-695.264,484.135,84.330,-41.534,11.408
7.646,-49.415,-108.170,-96.140,29.477,57.200,-141.067,267.378,-695.214,485.308,84.192,-41.590,11.542
7.656,-49.401,-108.170,-96.067,29.478,57.202,-141.067,267.605,-695.198,486.053,84.104,-41.626,11.616
7.666,-49.372,-108.171,-95.934,29.476,57.198,-141.066,268.028,-695.179,487.345,83.953,-41.690,11.741
7.677,-49.353,-108.169,-95.788,29.479,57.190,-141.066,268.309,-695.184,488.830,83.775,-41.765,11.871
7.686,-49.343,-108.169,-95.694,29.481,57.184,-141.065,268.462,-695.208,489.767,83.664,-41.811,11.950
7.696,-49.331,-108.168,-95.545,29.481,57.172,-141.065,268.634,-695.261,491.266,83.486,-41.885,12.068
7.707,-49.323,-108.166,-95.378,29.480,57.162,-141.065,268.770,-695.335,492.953,83.288,-41.967,12.198
7.717,-49.320,-108.166,-95.288,29.478,57.162,-141.065,268.860,-695.386,493.839,83.184,-42.008,12.270
7.726,-49.317,-108.165,-95.100,29.476,57.163,-141.066,269.017,-695.493,495.700,82.964,-42.096,12.422
7.737,-49.316,-108.164,-94.906,29.474,57.162,-141.066,269.125,-695.605,497.653,82.733,-42.187,12.578
7.746,-49.316,-108.162,-94.784,29.474,57.160,-141.067,269.167,-695.674,498.879,82.587,-42.245,12.673
7.756,-49.317,-108.155,-94.589,29.474,57.159,-141.067,269.227,-695.763,500.903,82.346,-42.339,12.834
7.766,-49.319,-108.146,-94.363,29.472,57.158,-141.068,269.272,-695.852,503.265,82.066,-42.447,13.020
7.776,-49.319,-108.139,-94.246,29.471,57.158,-141.068,269.294,-695.889,504.501,81.919,-42.503,13.118
7.787,-49.323,-108.124,-94.015,29.466,57.157,-141.068,269.281,-695.958,506.987,81.627,-42.615,13.310
7.798,-49.326,-108.109,-93.786,29.456,57.152,-141.069,269.272,-696.031,509.401,81.346,-42.722,13.493
7.807,-49.327,-108.108,-93.667,29.448,57.149,-141.069,269.301,-696.097,510.566,81.211,-42.773,13.581
7.818,-49.329,-108.110,-93.430,29.428,57.139,-141.070,269.352,-696.254,512.840,80.950,-42.871,13.746
7.826,-49.335,-108.115,-93.166,29.395,57.125,-141.071,269.362,-696.469,515.288,80.677,-42.974,13.912
7.836,-49.338,-108.116,-93.067,29.379,57.118,-141.071,269.356,-696.557,516.197,80.577,-43.012,13.970
7.846,-49.348,-108.121,-92.832,29.329,57.105,-141.071,269.338,-696.792,518.304,80.358,-43.094,14.097
7.857,-49.361,-108.126,-92.594,29.258,57.100,-141.071,269.339,-697.070,520.362,80.160,-43.167,14.214
7.867,-49.375,-108.126,-92.408,29.177,57.099,-141.071,269.321,-697.314,521.942,80.030,-43.214,14.289
7.877,-49.383,-108.126,-92.309,29.120,57.099,-141.071,269.325,-697.468,522.725,79.979,-43.232,14.316
7.887,-49.399,-108.125,-92.118,28.980,57.100,-141.071,269.353,-697.812,524.145,79.915,-43.255,14.343
7.897,-49.414,-108.124,-91.929,28.822,57.098,-141.071,269.417,-698.165,525.502,79.874,-43.270,14.356
7.907,-49.419,-108.124,-91.835,28.738,57.098,-141.071,269.489,-698.344,526.135,79.863,-43.274,14.358
7.918,-49.425,-108.123,-91.654,28.552,57.097,-141.071,269.673,-698.698,527.310,79.868,-43.272,14.347
7.927,-49.430,-108.121,-91.472,28.349,57.094,-141.071,269.895,-699.068,528.434,79.892,-43.264,14.323
7.937,-49.433,-108.120,-91.386,28.248,57.093,-141.071,269.999,-699.250,528.957,79.908,-43.258,14.307
7.948,-49.438,-108.117,-91.220,28.026,57.091,-141.072,270.245,-699.631,529.875,79.974,-43.235,14.256
7.963,-49.442,-108.112,-91.061,27.793,57.090,-141.072,270.502,-700.013,530.700,80.060,-43.204,14.193
7.967,-49.445,-108.107,-90.988,27.667,57.090,-141.072,270.618,-700.208,531.054,80.118,-43.183,14.149
7.978,-49.452,-108.098,-90.837,27.399,57.088,-141.072,270.848,-700.634,531.741,80.250,-43.136,14.049
7.987,-49.462,-108.087,-90.689,27.120,57.084,-141.072,271.053,-701.078,532.368,80.398,-43.082,13.934
7.997,-49.466,-108.083,-90.615,26.979,57.082,-141.072,271.167,-701.302,532.658,80.476,-43.054,13.875
8.008,-49.472,-108.080,-90.468,26.689,57.078,-141.071,271.466,-701.779,533.151,80.647,-42.992,13.750
8.017,-49.475,-108.081,-90.322,26.399,57.075,-141.071,271.813,-702.263,533.575,80.824,-42.927,13.623
8.028,-49.476,-108.081,-90.250,26.250,57.074,-141.071,271.991,-702.500,533.772,80.918,-42.892,13.556
8.038,-49.476,-108.081,-90.105,25.950,57.074,-141.071,272.396,-702.975,534.163,81.107,-42.822,13.428
8.048,-49.476,-108.082,-89.958,25.636,57.074,-141.070,272.814,-703.466,534.530,81.310,-42.746,13.290
8.057,-49.476,-108.081,-89.885,25.479,57.074,-141.070,273.013,-703.707,534.713,81.411,-42.708,13.221
8.067,-49.477,-108.082,-89.736,25.165,57.074,-141.070,273.424,-704.199,535.092,81.611,-42.632,13.085
8.077,-49.477,-108.083,-89.586,24.850,57.075,-141.069,273.841,-704.687,535.469,81.810,-42.556,12.950
8.086,-49.478,-108.082,-89.514,24.695,57.075,-141.069,274.036,-704.924,535.645,81.911,-42.517,12.882
8.097,-49.478,-108.083,-89.366,24.380,57.075,-141.069,274.449,-705.405,536.014,82.111,-42.440,12.748
8.107,-49.477,-108.083,-89.210,24.065,57.076,-141.069,274.867,-705.876,536.470,82.301,-42.366,12.621
8.117,-49.477,-108.081,-89.132,23.901,57.076,-141.069,275.070,-706.111,536.694,82.402,-42.326,12.553
8.127,-49.477,-108.082,-88.967,23.574,57.076,-141.068,275.496,-706.599,537.187,82.597,-42.250,12.423
8.137,-49.477,-108.081,-88.785,23.234,57.076,-141.068,275.920,-707.103,537.829,82.783,-42.177,12.297
8.147,-49.477,-108.080,-88.697,23.077,57.076,-141.068,276.114,-707.331,538.168,82.865,-42.144,12.242
8.158,-49.477,-108.080,-88.534,22.796,57.076,-141.068,276.461,-707.747,538.817,83.005,-42.088,12.147
8.167,-49.477,-108.081,-88.352,22.498,57.076,-141.068,276.840,-708.180,539.596,83.142,-42.033,12.056
8.178,-49.477,-108.080,-88.259,22.350,57.076,-141.068,277.022,-708.391,540.023,83.206,-42.007,12.014
8.190,-49.477,-108.077,-88.073,22.050,57.076,-141.067,277.376,-708.809,540.881,83.337,-41.955,11.926
8.198,-49.477,-108.070,-87.888,21.758,57.077,-141.068,277.711,-709.194,541.795,83.456,-41.906,11.847
8.207,-49.477,-108.068,-87.790,21.618,57.077,-141.067,277.871,-709.377,542.323,83.503,-41.887,11.816
8.218,-49.477,-108.059,-87.597,21.338,57.077,-141.068,278.161,-709.728,543.399,83.594,-41.849,11.754
8.228,-49.477,-108.054,-87.396,21.068,57.076,-141.068,278.459,-710.082,544.545,83.669,-41.819,11.703
8.240,-49.478,-108.054,-87.293,20.933,57.076,-141.068,278.617,-710.270,545.116,83.707,-41.803,11.678
8.247,-49.479,-108.052,-87.088,20.668,57.075,-141.068,278.902,-710.634,546.280,83.776,-41.775,11.630
8.258,-49.480,-108.052,-86.872,20.396,57.074,-141.068,279.205,-711.010,547.507,83.841,-41.748,11.585
8.267,-49.481,-108.052,-86.746,20.237,57.075,-141.068,279.376,-711.230,548.227,83.880,-41.732,11.558
8.278,-49.482,-108.052,-86.550,19.989,57.075,-141.068,279.651,-711.567,549.344,83.941,-41.707,11.517
8.288,-49.484,-108.050,-86.340,19.729,57.075,-141.068,279.904,-711.908,550.600,83.996,-41.684,11.478
8.298,-49.485,-108.050,-86.213,19.578,57.074,-141.068,280.060,-712.110,551.351,84.025,-41.672,11.457
8.307,-49.486,-108.049,-86.020,19.346,57.074,-141.068,280.292,-712.414,552.518,84.069,-41.654,11.427
8.318,-49.489,-108.050,-85.799,19.084,57.073,-141.068,280.553,-712.770,553.829,84.119,-41.633,11.390
8.328,-49.490,-108.050,-85.691,18.955,57.073,-141.068,280.675,-712.941,554.469,84.144,-41.623,11.372
8.338,-49.492,-108.051,-85.469,18.687,57.073,-141.068,280.944,-713.292,555.779,84.198,-41.600,11.333
8.348,-49.493,-108.050,-85.251,18.409,57.073,-141.068,281.221,-713.635,557.038,84.266,-41.571,11.287
8.358,-49.493,-108.050,-85.141,18.268,57.073,-141.068,281.373,-713.810,557.660,84.303,-41.557,11.264
8.370,-49.493,-108.047,-84.917,17.968,57.073,-141.068,281.680,-714.163,558.926,84.387,-41.521,11.208
8.378,-49.492,-108.046,-84.724,17.712,57.073,-141.068,281.952,-714.468,559.995,84.461,-41.490,11.160
8.388,-49.492,-108.046,-84.621,17.575,57.073,-141.068,282.093,-714.629,560.569,84.500,-41.474,11.134
8.398,-49.492,-108.046,-84.390,17.269,57.072,-141.068,282.403,-714.995,561.845,84.587,-41.437,11.076
8.408,-49.492,-108.046,-84.198,17.009,57.073,-141.068,282.666,-715.300,562.891,84.666,-41.403,11.024
8.419,-49.492,-108.046,-84.093,16.865,57.072,-141.068,282.812,-715.472,563.443,84.713,-41.383,10.993
8.428,-49.491,-108.047,-83.885,16.568,57.072,-141.068,283.116,-715.821,564.518,84.816,-41.339,10.925
8.438,-49.490,-108.046,-83.678,16.272,57.072,-141.068,283.415,-716.156,565.589,84.918,-41.296,10.858
8.451,-49.490,-108.046,-83.577,16.125,57.073,-141.068,283.560,-716.319,566.116,84.970,-41.273,10.825
8.458,-49.490,-108.042,-83.380,15.837,57.073,-141.068,283.828,-716.623,567.155,85.072,-41.230,10.758
8.473,-49.489,-108.039,-83.174,15.543,57.073,-141.068,284.105,-716.935,568.253,85.170,-41.187,10.694
8.478,-49.490,-108.037,-83.075,15.398,57.073,-141.068,284.222,-717.087,568.790,85.219,-41.166,10.661
8.488,-49.490,-108.037,-82.861,15.106,57.073,-141.068,284.497,-717.406,569.940,85.311,-41.127,10.601
8.497,-49.490,-108.037,-82.650,14.807,57.073,-141.068,284.764,-717.733,571.044,85.412,-41.083,10.534
8.507,-49.490,-108.039,-82.541,14.656,57.073,-141.068,284.909,-717.901,571.613,85.461,-41.062,10.501
8.518,-49.490,-108.037,-82.331,14.362,57.073,-141.068,285.167,-718.204,572.747,85.556,-41.020,10.439
8.527,-49.489,-108.036,-82.116,14.067,57.073,-141.068,285.436,-718.498,573.921,85.646,-40.981,10.381
8.537,-49.489,-108.033,-82.017,13.919,57.073,-141.068,285.556,-718.635,574.448,85.699,-40.958,10.347
8.547,-49.489,-108.025,-81.808,13.626,57.073,-141.068,285.773,-718.888,575.659,85.786,-40.919,10.290
8.557,-49.490,-108.013,-81.598,13.333,57.074,-141.068,285.960,-719.114,576.936,85.867,-40.883,10.237
8.567,-49.489,-108.007,-81.490,13.184,57.073,-141.068,286.059,-719.224,577.600,85.906,-40.866,10.211
8.577,-49.489,-107.996,-81.273,12.888,57.073,-141.068,286.252,-719.448,578.916,85.985,-40.831,10.160
8.587,-49.489,-107.992,-81.058,12.590,57.073,-141.068,286.475,-719.708,580.132,86.074,-40.792,10.102
8.597,-49.489,-107.990,-80.949,12.441,57.073,-141.068,286.589,-719.842,580.737,86.118,-40.772,10.072
8.607,-49.489,-107.987,-80.710,12.120,57.073,-141.068,286.828,-720.120,582.100,86.208,-40.732,10.014
8.617,-49.489,-107.981,-80.511,11.847,57.074,-141.068,287.022,-720.338,583.251,86.286,-40.697,9.964
8.627,-49.490,-107.977,-80.403,11.699,57.075,-141.068,287.108,-720.446,583.909,86.325,-40.680,9.939
8.638,-49.488,-107.968,-80.180,11.403,57.075,-141.069,287.301,-720.652,585.265,86.399,-40.646,9.892
8.647,-49.489,-107.954,-79.957,11.098,57.074,-141.068,287.444,-720.839,586.664,86.476,-40.612,9.840
8.657,-49.489,-107.947,-79.844,10.947,57.074,-141.068,287.525,-720.929,587.376,86.511,-40.596,9.817
8.667,-49.490,-107.935,-79.622,10.645,57.074,-141.069,287.671,-721.117,588.757,86.588,-40.561,9.767
8.677,-49.490,-107.928,-79.394,10.343,57.075,-141.069,287.849,-721.323,590.131,86.663,-40.527,9.718
8.687,-49.490,-107.925,-79.281,10.190,57.075,-141.068,287.940,-721.434,590.786,86.706,-40.508,9.690
8.697,-49.489,-107.920,-79.050,9.894,57.075,-141.068,288.121,-721.629,592.194,86.773,-40.477,9.648
8.707,-49.490,-107.911,-78.820,9.593,57.075,-141.068,288.278,-721.813,593.607,86.844,-40.445,9.602
8.717,-49.490,-107.908,-78.701,9.438,57.076,-141.068,288.358,-721.908,594.341,86.879,-40.429,9.579
8.727,-49.490,-107.897,-78.463,9.133,57.076,-141.068,288.493,-722.074,595.852,86.944,-40.399,9.537
8.737,-49.490,-107.891,-78.222,8.832,57.076,-141.069,288.647,-722.247,597.360,87.004,-40.371,9.499
8.747,-49.490,-107.889,-78.102,8.687,57.076,-141.068,288.719,-722.331,598.114,87.029,-40.360,9.482
8.757,-49.490,-107.889,-77.860,8.388,57.076,-141.068,288.886,-722.530,599.566,87.093,-40.331,9.440
8.767,-49.489,-107.885,-77.615,8.094,57.076,-141.069,289.037,-722.694,601.101,87.146,-40.306,9.407
8.777,-49.490,-107.882,-77.495,7.946,57.076,-141.068,289.098,-722.768,601.868,87.172,-40.294,9.390
8.787,-49.489,-107.872,-77.255,7.645,57.076,-141.068,289.218,-722.897,603.407,87.230,-40.268,9.353
8.797,-49.490,-107.864,-77.009,7.345,57.076,-141.068,289.321,-723.029,605.001,87.282,-40.244,9.319
8.807,-49.489,-107.862,-76.884,7.197,57.076,-141.068,289.382,-723.098,605.807,87.304,-40.234,9.305
8.817,-49.489,-107.860,-76.632,6.906,57.076,-141.069,289.509,-723.244,607.400,87.348,-40.213,9.277
8.827,-49.489,-107.862,-76.383,6.607,57.076,-141.069,289.653,-723.411,608.914,87.404,-40.187,9.240
8.837,-49.489,-107.861,-76.258,6.458,57.076,-141.069,289.720,-723.487,609.688,87.431,-40.174,9.223
8.847,-49.489,-107.859,-76.013,6.153,57.076,-141.069,289.844,-723.636,611.178,87.495,-40.145,9.182
8.856,-49.489,-107.856,-75.771,5.845,57.076,-141.068,289.965,-723.781,612.633,87.566,-40.112,9.136
8.867,-49.490,-107.854,-75.670,5.721,57.076,-141.069,290.006,-723.832,613.265,87.589,-40.101,9.121
8.878,-49.490,-107.850,-75.407,5.396,57.075,-141.069,290.104,-723.966,614.900,87.653,-40.071,9.078
8.888,-49.490,-107.850,-75.158,5.109,57.075,-141.069,290.212,-724.081,616.471,87.695,-40.051,9.052
8.898,-49.490,-107.850,-75.033,4.963,57.075,-141.069,290.265,-724.146,617.239,87.720,-40.039,9.035
8.907,-49.490,-107.850,-74.782,4.669,57.075,-141.069,290.360,-724.257,618.817,87.767,-40.017,9.005
8.917,-49.490,-107.847,-74.537,4.371,57.075,-141.069,290.447,-724.362,620.338,87.823,-39.991,8.969
8.927,-49.489,-107.844,-74.396,4.197,57.075,-141.069,290.497,-724.407,621.231,87.856,-39.975,8.948
8.937,-49.489,-107.838,-74.173,3.915,57.075,-141.069,290.566,-724.487,622.617,87.915,-39.947,8.911
8.948,-49.489,-107.833,-73.922,3.610,57.075,-141.069,290.630,-724.558,624.214,87.969,-39.922,8.876
8.959,-49.489,-107.832,-73.794,3.458,57.075,-141.069,290.669,-724.599,625.021,87.994,-39.910,8.860
8.967,-49.488,-107.831,-73.536,3.155,57.075,-141.069,290.755,-724.682,626.632,88.044,-39.886,8.829
8.978,-49.487,-107.831,-73.269,2.850,57.075,-141.070,290.827,-724.753,628.326,88.086,-39.866,8.803
8.987,-49.487,-107.830,-73.116,2.667,57.075,-141.070,290.867,-724.795,629.283,88.118,-39.851,8.783
8.997,-49.486,-107.826,-72.874,2.376,57.075,-141.070,290.918,-724.844,630.815,88.169,-39.827,8.751
9.008,-49.486,-107.819,-72.608,2.050,57.075,-141.070,290.965,-724.883,632.506,88.228,-39.799,8.714
9.017,-49.486,-107.814,-72.449,1.858,57.075,-141.070,290.972,-724.894,633.544,88.258,-39.783,8.694
9.028,-49.486,-107.805,-72.197,1.562,57.076,-141.070,290.970,-724.888,635.242,88.296,-39.765,8.670
9.037,-49.485,-107.799,-71.916,1.232,57.076,-141.070,290.992,-724.904,637.065,88.344,-39.743,8.640
9.047,-49.486,-107.798,-71.777,1.068,57.076,-141.070,291.003,-724.920,637.949,88.370,-39.730,8.624
9.058,-49.486,-107.793,-71.496,0.737,57.076,-141.071,291.010,-724.938,639.755,88.420,-39.706,8.591
9.067,-49.486,-107.784,-71.220,0.398,57.076,-141.071,291.007,-724.932,641.530,88.480,-39.677,8.553
9.076,-49.486,-107.779,-71.057,0.202,57.076,-141.071,290.999,-724.920,642.594,88.511,-39.662,8.533
9.087,-49.486,-107.768,-70.800,-0.108,57.077,-141.071,290.958,-724.882,644.312,88.556,-39.640,8.504
9.097,-49.487,-107.756,-70.516,-0.443,57.076,-141.071,290.897,-724.827,646.222,88.601,-39.619,8.475
9.110,-49.487,-107.751,-70.372,-0.618,57.076,-141.071,290.877,-724.802,647.166,88.629,-39.605,8.457
9.117,-49.487,-107.744,-70.083,-0.969,57.076,-141.071,290.854,-724.779,649.013,88.689,-39.576,8.419
9.127,-49.488,-107.740,-69.801,-1.325,57.076,-141.071,290.847,-724.775,650.733,88.766,-39.539,8.370
9.138,-49.488,-107.737,-69.660,-1.502,57.077,-141.071,290.841,-724.766,651.605,88.802,-39.522,8.347
9.147,-49.488,-107.730,-69.377,-1.855,57.078,-141.071,290.808,-724.730,653.381,88.871,-39.488,8.303
9.159,-49.488,-107.723,-69.094,-2.201,57.078,-141.071,290.763,-724.681,655.176,88.932,-39.458,8.264
9.167,-49.489,-107.720,-68.952,-2.382,57.077,-141.071,290.739,-724.665,656.041,88.972,-39.439,8.238
9.179,-49.489,-107.713,-68.669,-2.735,57.077,-141.071,290.687,-724.608,657.817,89.041,-39.405,8.194
9.190,-49.490,-107.701,-68.401,-3.085,57.077,-141.071,290.610,-724.536,659.502,89.117,-39.368,8.145
9.196,-49.490,-107.696,-68.269,-3.258,57.077,-141.071,290.583,-724.500,660.318,89.157,-39.349,8.120
9.207,-49.490,-107.689,-68.015,-3.602,57.078,-141.071,290.541,-724.456,661.823,89.246,-39.304,8.063
9.217,-49.490,-107.684,-67.766,-3.925,57.078,-141.071,290.501,-724.415,663.301,89.323,-39.267,8.014
9.227,-49.491,-107.682,-67.644,-4.090,57.078,-141.071,290.477,-724.397,664.012,89.367,-39.245,7.986
9.238,-49.491,-107.675,-67.406,-4.410,57.078,-141.070,290.424,-724.343,665.419,89.449,-39.205,7.934
9.250,-49.492,-107.670,-67.185,-4.713,57.079,-141.071,290.378,-724.300,666.700,89.532,-39.164,7.882
9.257,-49.493,-107.668,-67.084,-4.859,57.079,-141.070,290.361,-724.294,667.246,89.579,-39.140,7.851
9.267,-49.494,-107.667,-66.897,-5.134,57.079,-141.070,290.348,-724.305,668.202,89.674,-39.093,7.790
9.277,-49.495,-107.666,-66.735,-5.392,57.079,-141.070,290.354,-724.325,668.966,89.776,-39.042,7.725
9.287,-49.495,-107.664,-66.661,-5.508,57.080,-141.070,290.352,-724.326,669.335,89.820,-39.021,7.698
9.298,-49.495,-107.662,-66.527,-5.728,57.080,-141.070,290.362,-724.330,669.966,89.910,-38.975,7.642
9.307,-49.495,-107.659,-66.414,-5.929,57.080,-141.070,290.381,-724.351,670.438,90.002,-38.929,7.584
9.317,-49.495,-107.658,-66.365,-6.016,57.080,-141.070,290.390,-724.360,670.643,90.042,-38.909,7.559
9.327,-49.494,-107.658,-66.283,-6.175,57.080,-141.070,290.431,-724.397,670.909,90.125,-38.867,7.507
9.337,-49.494,-107.659,-66.233,-6.300,57.080,-141.069,290.485,-724.455,670.960,90.207,-38.826,7.457
9.347,-49.494,-107.659,-66.217,-6.350,57.080,-141.070,290.515,-724.490,670.931,90.243,-38.807,7.434
9.357,-49.493,-107.661,-66.201,-6.428,57.080,-141.070,290.581,-724.561,670.780,90.313,-38.772,7.391
9.368,-49.493,-107.662,-66.202,-6.495,57.080,-141.070,290.652,-724.638,670.510,90.385,-38.735,7.345
9.377,-49.493,-107.663,-66.205,-6.528,57.080,-141.069,290.701,-724.690,670.328,90.426,-38.714,7.320
9.387,-49.492,-107.670,-66.210,-6.572,57.080,-141.070,290.797,-724.787,670.028,90.485,-38.684,7.284
9.397,-49.492,-107.676,-66.214,-6.597,57.081,-141.069,290.865,-724.862,669.810,90.524,-38.665,7.260
9.407,-49.492,-107.679,-66.216,-6.605,57.081,-141.069,290.901,-724.896,669.716,90.537,-38.658,7.252
9.420,-49.491,-107.688,-66.217,-6.609,57.081,-141.069,290.975,-724.960,669.571,90.552,-38.650,7.245
9.427,-49.491,-107.694,-66.217,-6.609,57.081,-141.070,291.016,-725.004,669.486,90.560,-38.646,7.240
9.437,-49.490,-107.695,-66.217,-6.610,57.082,-141.070,291.029,-725.010,669.475,90.561,-38.645,7.240
9.449,-49.489,-107.695,-66.217,-6.610,57.082,-141.070,291.045,-725.000,669.481,90.561,-38.645,7.242
9.458,-49.488,-107.695,-66.216,-6.610,57.083,-141.070,291.053,-724.996,669.490,90.560,-38.646,7.244
9.467,-49.488,-107.695,-66.216,-6.610,57.083,-141.070,291.061,-724.995,669.486,90.561,-38.645,7.244
9.477,-49.487,-107.696,-66.216,-6.611,57.084,-141.070,291.082,-724.997,669.473,90.562,-38.645,7.245
9.488,-49.486,-107.697,-66.216,-6.611,57.085,-141.070,291.101,-724.995,669.464,90.563,-38.644,7.246
9.497,-49.486,-107.697,-66.216,-6.612,57.085,-141.070,291.108,-724.993,669.465,90.563,-38.644,7.247
9.508,-49.485,-107.696,-66.216,-6.612,57.086,-141.070,291.111,-724.984,669.477,90.563,-38.644,7.248
9.518,-49.484,-107.693,-66.215,-6.613,57.086,-141.070,291.111,-724.963,669.513,90.560,-38.645,7.251
9.527,-49.484,-107.693,-66.214,-6.613,57.086,-141.070,291.109,-724.955,669.529,90.559,-38.646,7.252
9.538,-49.484,-107.691,-66.213,-6.616,57.086,-141.071,291.101,-724.941,669.556,90.558,-38.646,7.253
9.548,-49.484,-107.689,-66.213,-6.620,57.086,-141.071,291.096,-724.931,669.567,90.561,-38.644,7.251
9.557,-49.484,-107.688,-66.213,-6.622,57.086,-141.071,291.094,-724.929,669.567,90.562,-38.644,7.250
9.568,-49.484,-107.687,-66.212,-6.626,57.086,-141.071,291.085,-724.923,669.576,90.565,-38.642,7.248
9.577,-49.484,-107.685,-66.211,-6.631,57.085,-141.071,291.073,-724.916,669.589,90.566,-38.641,7.246
9.588,-49.484,-107.685,-66.211,-6.633,57.085,-141.071,291.070,-724.916,669.586,90.569,-38.640,7.245
9.598,-49.484,-107.684,-66.211,-6.640,57.084,-141.071,291.069,-724.921,669.566,90.576,-38.636,7.240
9.608,-49.484,-107.684,-66.212,-6.649,57.084,-141.072,291.076,-724.931,669.531,90.585,-38.631,7.234
9.618,-49.484,-107.685,-66.212,-6.654,57.084,-141.073,291.083,-724.942,669.502,90.591,-38.627,7.230
9.628,-49.484,-107.686,-66.213,-6.665,57.084,-141.073,291.100,-724.966,669.434,90.606,-38.619,7.220
9.639,-49.484,-107.688,-66.214,-6.684,57.084,-141.074,291.132,-725.001,669.324,90.629,-38.606,7.206
9.649,-49.484,-107.689,-66.215,-6.696,57.084,-141.075,291.153,-725.023,669.252,90.645,-38.597,7.196
9.657,-49.484,-107.692,-66.216,-6.731,57.084,-141.076,291.207,-725.081,669.070,90.686,-38.575,7.171
9.674,-49.483,-107.694,-66.218,-6.782,57.084,-141.076,291.282,-725.151,668.828,90.745,-38.545,7.135
9.678,-49.483,-107.695,-66.218,-6.817,57.084,-141.076,291.326,-725.196,668.673,90.784,-38.524,7.111
9.688,-49.481,-107.697,-66.219,-6.920,57.084,-141.079,291.445,-725.312,668.258,90.896,-38.464,7.043
9.698,-49.481,-107.696,-66.218,-7.090,57.084,-141.081,291.603,-725.488,667.619,91.076,-38.368,6.931
9.708,-49.480,-107.696,-66.218,-7.183,57.084,-141.083,291.688,-725.580,667.274,91.173,-38.316,6.871
9.718,-49.480,-107.695,-66.217,-7.367,57.083,-141.085,291.853,-725.765,666.588,91.366,-38.212,6.752
9.728,-49.480,-107.694,-66.217,-7.614,57.083,-141.086,292.068,-726.015,665.659,91.626,-38.074,6.592
9.738,-49.480,-107.693,-66.217,-7.753,57.083,-141.086,292.185,-726.156,665.134,91.771,-37.997,6.502
9.748,-49.480,-107.693,-66.217,-8.063,57.083,-141.087,292.450,-726.472,663.946,92.097,-37.822,6.302
9.758,-49.481,-107.692,-66.218,-8.416,57.084,-141.087,292.744,-726.826,662.592,92.464,-37.623,6.076
9.767,-49.481,-107.691,-66.217,-8.610,57.084,-141.088,292.900,-727.015,661.855,92.665,-37.513,5.954
9.778,-49.482,-107.690,-66.217,-9.023,57.083,-141.088,293.227,-727.415,660.276,93.092,-37.279,5.693
9.788,-49.483,-107.688,-66.216,-9.461,57.083,-141.087,293.552,-727.825,658.620,93.538,-37.030,5.422
9.798,-49.483,-107.686,-66.215,-9.735,57.082,-141.087,293.755,-728.068,657.593,93.815,-36.874,5.255
9.808,-49.484,-107.682,-66.213,-10.180,57.082,-141.087,294.074,-728.449,655.933,94.262,-36.620,4.987
9.818,-49.484,-107.674,-66.213,-10.691,57.082,-141.087,294.415,-728.854,654.050,94.770,-36.327,4.685
9.829,-49.484,-107.670,-66.213,-10.950,57.083,-141.087,294.594,-729.056,653.081,95.027,-36.177,4.533
9.838,-49.484,-107.668,-66.211,-11.492,57.083,-141.087,294.968,-729.502,651.017,95.563,-35.861,4.218
9.848,-49.484,-107.668,-66.211,-12.051,57.084,-141.086,295.373,-729.965,648.814,96.117,-35.529,3.896
9.857,-49.484,-107.668,-66.211,-12.380,57.084,-141.086,295.605,-730.233,647.509,96.442,-35.331,3.708
9.869,-49.484,-107.670,-66.212,-12.909,57.084,-141.086,295.974,-730.659,645.396,96.961,-35.012,3.409
9.878,-49.483,-107.671,-66.212,-13.508,57.085,-141.086,296.379,-731.112,643.014,97.543,-34.649,3.078
9.888,-49.482,-107.672,-66.213,-13.807,57.086,-141.085,296.580,-731.330,641.814,97.833,-34.467,2.915
9.898,-49.482,-107.672,-66.212,-14.469,57.087,-141.085,296.991,-731.791,639.197,98.465,-34.062,2.561
9.908,-49.481,-107.671,-66.210,-15.036,57.087,-141.085,297.321,-732.161,636.968,99.000,-33.713,2.264
9.918,-49.480,-107.671,-66.210,-15.351,57.088,-141.085,297.507,-732.357,635.725,99.296,-33.519,2.102
9.928,-49.479,-107.670,-66.209,-15.988,57.089,-141.085,297.858,-732.748,633.190,99.891,-33.122,1.776
9.939,-49.479,-107.670,-66.209,-16.619,57.090,-141.085,298.190,-733.115,630.669,100.476,-32.727,1.460
9.948,-49.478,-107.670,-66.209,-16.942,57.091,-141.084,298.352,-733.296,629.380,100.773,-32.523,1.301
