hapiel/Chataigne-Fairino-control/ai_recordings/waterfall_robotic.csv
t,j1,j2,j3,j4,j5,j6,x,y,z,rx,ry,rz
0.001,-45.129,-102.908,-70.807,-6.028,57.229,-141.057,320.895,-675.448,683.169,89.722,-39.082,12.275
0.010,-45.129,-102.909,-70.807,-6.028,57.229,-141.057,320.897,-675.449,683.165,89.722,-39.082,12.275
0.020,-45.129,-102.909,-70.807,-6.028,57.229,-141.057,320.903,-675.452,683.158,89.723,-39.082,12.275
0.029,-45.129,-102.909,-70.807,-6.028,57.229,-141.057,320.902,-675.450,683.161,89.722,-39.082,12.275
0.039,-45.129,-102.910,-70.807,-6.028,57.229,-141.057,320.906,-675.456,683.150,89.723,-39.081,12.274
0.050,-45.129,-102.910,-70.807,-6.028,57.229,-141.057,320.906,-675.460,683.143,89.724,-39.081,12.273
0.059,-45.129,-102.910,-70.807,-6.028,57.229,-141.057,320.910,-675.462,683.138,89.724,-39.080,12.273
0.070,-45.129,-102.911,-70.807,-6.028,57.229,-141.057,320.907,-675.466,683.134,89.725,-39.080,12.273
0.082,-45.129,-102.911,-70.807,-6.028,57.229,-141.057,320.908,-675.467,683.132,89.725,-39.080,12.273
0.090,-45.129,-102.911,-70.807,-6.028,57.229,-141.057,320.905,-675.468,683.132,89.725,-39.080,12.272
0.100,-45.129,-102.910,-70.807,-6.028,57.229,-141.057,320.903,-675.465,683.138,89.724,-39.080,12.273
0.110,-45.129,-102.910,-70.807,-6.028,57.229,-141.057,320.903,-675.461,683.145,89.724,-39.081,12.273
0.119,-45.129,-102.910,-70.807,-6.028,57.229,-141.057,320.904,-675.461,683.145,89.724,-39.080,12.273
0.129,-45.129,-102.910,-70.807,-6.028,57.229,-141.057,320.898,-675.458,683.151,89.723,-39.081,12.273
0.139,-45.129,-102.909,-70.807,-6.028,57.229,-141.057,320.895,-675.457,683.154,89.723,-39.081,12.274
0.149,-45.129,-102.909,-70.807,-6.028,57.229,-141.057,320.897,-675.456,683.154,89.723,-39.081,12.274
0.159,-45.129,-102.909,-70.807,-6.028,57.229,-141.057,320.898,-675.453,683.160,89.722,-39.081,12.275
0.170,-45.129,-102.908,-70.807,-6.027,57.229,-141.058,320.890,-675.449,683.170,89.721,-39.081,12.275
0.179,-45.129,-102.908,-70.807,-6.028,57.229,-141.058,320.897,-675.447,683.169,89.721,-39.081,12.275
0.189,-45.129,-102.908,-70.806,-6.027,57.229,-141.058,320.897,-675.446,683.172,89.721,-39.081,12.276
0.200,-45.129,-102.908,-70.807,-6.027,57.229,-141.058,320.896,-675.445,683.173,89.721,-39.081,12.276
0.209,-45.129,-102.908,-70.807,-6.028,57.229,-141.058,320.894,-675.448,683.169,89.721,-39.081,12.275
0.219,-45.129,-102.909,-70.807,-6.027,57.229,-141.058,320.896,-675.450,683.166,89.722,-39.081,12.275
0.229,-45.129,-102.909,-70.807,-6.028,57.229,-141.058,320.901,-675.453,683.156,89.723,-39.080,12.274
0.239,-45.129,-102.909,-70.807,-6.028,57.229,-141.058,320.899,-675.455,683.154,89.723,-39.080,12.274
0.249,-45.129,-102.910,-70.807,-6.028,57.229,-141.058,320.904,-675.458,683.145,89.724,-39.080,12.274
0.259,-45.129,-102.910,-70.807,-6.028,57.229,-141.058,320.903,-675.462,683.143,89.724,-39.080,12.273
0.269,-45.129,-102.910,-70.807,-6.028,57.229,-141.058,320.903,-675.462,683.143,89.724,-39.080,12.273
0.279,-45.129,-102.910,-70.807,-6.028,57.229,-141.058,320.900,-675.463,683.142,89.724,-39.080,12.273
0.289,-45.129,-102.910,-70.807,-6.028,57.229,-141.058,320.905,-675.463,683.139,89.724,-39.080,12.273
0.300,-45.129,-102.910,-70.807,-6.028,57.229,-141.058,320.903,-675.463,683.141,89.724,-39.080,12.273
0.309,-45.129,-102.910,-70.807,-6.028,57.229,-141.058,320.901,-675.464,683.139,89.724,-39.079,12.273
0.319,-45.129,-102.910,-70.807,-6.028,57.229,-141.058,320.903,-675.462,683.143,89.724,-39.080,12.273
0.329,-45.129,-102.910,-70.807,-6.028,57.229,-141.058,320.899,-675.459,683.150,89.723,-39.080,12.274
0.340,-45.129,-102.910,-70.807,-6.028,57.229,-141.058,320.898,-675.458,683.151,89.723,-39.080,12.273
0.349,-45.129,-102.909,-70.807,-6.028,57.229,-141.058,320.897,-675.452,683.161,89.722,-39.081,12.275
0.359,-45.129,-102.909,-70.807,-6.028,57.229,-141.058,320.898,-675.451,683.163,89.722,-39.081,12.275
0.370,-45.129,-102.909,-70.807,-6.028,57.229,-141.058,320.895,-675.449,683.165,89.722,-39.081,12.275
0.379,-45.129,-102.909,-70.806,-6.028,57.229,-141.058,320.895,-675.449,683.169,89.721,-39.081,12.275
0.390,-45.129,-102.909,-70.807,-6.028,57.228,-141.058,320.894,-675.449,683.167,89.722,-39.081,12.275
0.400,-45.129,-102.908,-70.806,-6.027,57.229,-141.058,320.893,-675.446,683.176,89.721,-39.081,12.276
0.409,-45.129,-102.908,-70.806,-6.027,57.229,-141.058,320.892,-675.446,683.177,89.721,-39.081,12.276
0.419,-45.129,-102.908,-70.806,-6.028,57.229,-141.058,320.894,-675.445,683.176,89.721,-39.081,12.276
0.429,-45.129,-102.908,-70.806,-6.028,57.229,-141.058,320.891,-675.444,683.182,89.720,-39.081,12.276
0.439,-45.129,-102.908,-70.806,-6.027,57.229,-141.058,320.895,-675.445,683.178,89.720,-39.081,12.276
0.449,-45.129,-102.908,-70.806,-6.028,57.229,-141.058,320.896,-675.446,683.175,89.721,-39.081,12.276
0.460,-45.129,-102.909,-70.806,-6.028,57.229,-141.059,320.901,-675.448,683.170,89.721,-39.080,12.275
0.470,-45.129,-102.909,-70.806,-6.028,57.229,-141.058,320.899,-675.453,683.162,89.722,-39.080,12.274
0.479,-45.129,-102.910,-70.807,-6.028,57.229,-141.058,320.901,-675.455,683.155,89.723,-39.080,12.274
0.490,-45.129,-102.910,-70.807,-6.028,57.229,-141.058,320.906,-675.456,683.149,89.723,-39.080,12.274
0.500,-45.129,-102.910,-70.807,-6.028,57.229,-141.059,320.909,-675.460,683.141,89.724,-39.079,12.273
0.509,-45.129,-102.910,-70.807,-6.028,57.229,-141.058,320.906,-675.459,683.145,89.724,-39.079,12.274
0.521,-45.129,-102.910,-70.807,-6.028,57.229,-141.059,320.907,-675.457,683.148,89.724,-39.079,12.274
0.530,-45.129,-102.909,-70.807,-6.028,57.229,-141.058,320.904,-675.452,683.158,89.722,-39.080,12.275
0.539,-45.129,-102.909,-70.806,-6.028,57.229,-141.058,320.902,-675.452,683.161,89.722,-39.080,12.275
0.549,-45.129,-102.909,-70.806,-6.028,57.229,-141.058,320.899,-675.449,683.168,89.722,-39.080,12.275
0.559,-45.129,-102.909,-70.806,-6.028,57.229,-141.058,320.895,-675.449,683.171,89.721,-39.081,12.275
0.570,-45.129,-102.909,-70.806,-6.028,57.229,-141.058,320.894,-675.448,683.171,89.721,-39.081,12.275
0.579,-45.129,-102.908,-70.806,-6.028,57.229,-141.058,320.889,-675.448,683.176,89.721,-39.081,12.275
0.589,-45.129,-102.908,-70.806,-6.028,57.229,-141.058,320.889,-675.449,683.173,89.721,-39.081,12.275
0.600,-45.129,-102.908,-70.806,-6.027,57.228,-141.059,320.887,-675.448,683.175,89.721,-39.081,12.275
0.610,-45.129,-102.908,-70.806,-6.028,57.229,-141.058,320.891,-675.448,683.173,89.721,-39.081,12.275
0.620,-45.129,-102.909,-70.807,-6.028,57.229,-141.058,320.892,-675.452,683.165,89.722,-39.080,12.274
0.630,-45.129,-102.909,-70.806,-6.028,57.228,-141.058,320.891,-675.452,683.166,89.722,-39.081,12.274
0.639,-45.129,-102.909,-70.807,-6.028,57.229,-141.058,320.896,-675.455,683.159,89.722,-39.080,12.274
0.650,-45.129,-102.910,-70.807,-6.028,57.229,-141.059,320.899,-675.460,683.150,89.723,-39.079,12.274
0.659,-45.129,-102.910,-70.807,-6.028,57.229,-141.058,320.902,-675.459,683.148,89.724,-39.079,12.273
0.670,-45.129,-102.911,-70.807,-6.028,57.229,-141.058,320.909,-675.464,683.136,89.725,-39.079,12.273
0.680,-45.129,-102.911,-70.807,-6.028,57.229,-141.058,320.912,-675.466,683.130,89.725,-39.079,12.273
0.690,-45.129,-102.911,-70.807,-6.028,57.229,-141.059,320.912,-675.466,683.130,89.725,-39.078,12.273
0.699,-45.129,-102.911,-70.807,-6.028,57.229,-141.058,320.914,-675.464,683.131,89.725,-39.079,12.273
0.711,-45.129,-102.911,-70.807,-6.028,57.229,-141.059,320.910,-675.466,683.132,89.725,-39.078,12.273
0.719,-45.129,-102.911,-70.807,-6.028,57.229,-141.059,320.910,-675.467,683.130,89.725,-39.078,12.272
0.729,-45.129,-102.910,-70.807,-6.028,57.229,-141.059,320.908,-675.463,683.136,89.725,-39.078,12.273
0.739,-45.129,-102.910,-70.807,-6.028,57.229,-141.059,320.901,-675.458,683.149,89.723,-39.079,12.274
0.749,-45.129,-102.910,-70.807,-6.028,57.229,-141.059,320.900,-675.457,683.150,89.723,-39.079,12.274
0.760,-45.129,-102.909,-70.807,-6.028,57.229,-141.059,320.893,-675.451,683.165,89.722,-39.080,12.274
0.769,-45.129,-102.908,-70.806,-6.028,57.229,-141.059,320.884,-675.448,683.176,89.721,-39.080,12.275
0.780,-45.129,-102.908,-70.807,-6.028,57.228,-141.059,320.885,-675.446,683.176,89.721,-39.080,12.275
0.789,-45.129,-102.908,-70.807,-6.028,57.229,-141.059,320.884,-675.445,683.179,89.721,-39.080,12.275
0.802,-45.129,-102.908,-70.807,-6.028,57.228,-141.059,320.887,-675.446,683.176,89.721,-39.080,12.275
0.811,-45.129,-102.908,-70.807,-6.028,57.228,-141.059,320.888,-675.447,683.174,89.721,-39.080,12.275
0.820,-45.129,-102.908,-70.807,-6.028,57.229,-141.059,320.888,-675.449,683.170,89.721,-39.080,12.275
0.830,-45.129,-102.909,-70.807,-6.028,57.229,-141.059,320.893,-675.450,683.167,89.722,-39.079,12.275
0.839,-45.129,-102.909,-70.807,-6.028,57.229,-141.059,320.895,-675.453,683.161,89.722,-39.079,12.274
0.850,-45.129,-102.909,-70.807,-6.028,57.229,-141.059,320.900,-675.455,683.154,89.723,-39.079,12.274
0.859,-45.129,-102.910,-70.807,-6.028,57.229,-141.059,320.902,-675.460,683.143,89.724,-39.079,12.273
0.869,-45.129,-102.910,-70.807,-6.028,57.229,-141.059,320.903,-675.464,683.139,89.725,-39.078,12.273
0.879,-45.129,-102.911,-70.807,-6.028,57.229,-141.059,320.912,-675.469,683.127,89.726,-39.078,12.272
0.889,-45.129,-102.911,-70.808,-6.028,57.229,-141.059,320.908,-675.471,683.123,89.726,-39.078,12.272
0.899,-45.129,-102.912,-70.808,-6.028,57.229,-141.059,320.910,-675.474,683.118,89.727,-39.077,12.271
0.909,-45.129,-102.911,-70.808,-6.028,57.229,-141.059,320.910,-675.471,683.122,89.726,-39.077,12.272
0.919,-45.129,-102.911,-70.808,-6.028,57.229,-141.059,320.906,-675.470,683.126,89.726,-39.078,12.272
0.930,-45.130,-102.911,-70.808,-6.028,57.229,-141.059,320.901,-675.468,683.132,89.725,-39.078,12.272
0.940,-45.130,-102.910,-70.807,-6.028,57.229,-141.059,320.900,-675.467,683.137,89.725,-39.078,12.272
0.949,-45.130,-102.910,-70.807,-6.028,57.229,-141.059,320.895,-675.462,683.147,89.724,-39.078,12.273
0.959,-45.130,-102.909,-70.807,-6.028,57.229,-141.059,320.892,-675.459,683.153,89.723,-39.079,12.273
0.969,-45.129,-102.909,-70.807,-6.028,57.229,-141.059,320.890,-675.454,683.162,89.722,-39.079,12.274
0.980,-45.129,-102.909,-70.807,-6.028,57.228,-141.059,320.892,-675.451,683.167,89.722,-39.079,12.274
0.990,-45.129,-102.908,-70.807,-6.028,57.229,-141.059,320.892,-675.449,683.167,89.722,-39.079,12.275
0.999,-45.129,-102.908,-70.807,-6.028,57.228,-141.059,320.890,-675.448,683.170,89.722,-39.080,12.274
1.009,-45.129,-102.908,-70.806,-6.028,57.228,-141.059,320.891,-675.447,683.173,89.721,-39.080,12.275
1.019,-45.129,-102.908,-70.807,-6.028,57.229,-141.059,320.893,-675.445,683.173,89.721,-39.080,12.275
1.029,-45.129,-102.908,-70.807,-6.027,57.228,-141.059,320.896,-675.446,683.170,89.721,-39.080,12.275
1.039,-45.128,-102.909,-70.807,-6.028,57.229,-141.059,320.904,-675.449,683.160,89.722,-39.079,12.275
1.050,-45.129,-102.909,-70.807,-6.028,57.229,-141.059,320.903,-675.451,683.159,89.723,-39.079,12.275
1.059,-45.128,-102.910,-70.807,-6.028,57.229,-141.059,320.912,-675.454,683.147,89.724,-39.078,12.274
1.071,-45.129,-102.911,-70.807,-6.028,57.229,-141.059,320.914,-675.462,683.133,89.725,-39.078,12.273
1.079,-45.129,-102.910,-70.808,-6.028,57.229,-141.059,320.911,-675.462,683.133,89.725,-39.078,12.273
1.089,-45.129,-102.911,-70.808,-6.028,57.229,-141.059,320.914,-675.466,683.127,89.726,-39.078,12.273
1.099,-45.129,-102.911,-70.808,-6.028,57.229,-141.059,320.918,-675.469,683.120,89.726,-39.077,12.272
1.109,-45.129,-102.912,-70.808,-6.029,57.229,-141.059,320.917,-675.471,683.115,89.727,-39.077,12.271
1.119,-45.129,-102.912,-70.808,-6.029,57.228,-141.060,320.916,-675.471,683.117,89.727,-39.077,12.271
1.129,-45.129,-102.911,-70.808,-6.028,57.228,-141.060,320.909,-675.471,683.122,89.726,-39.077,12.271
1.140,-45.129,-102.911,-70.808,-6.029,57.229,-141.059,320.912,-675.472,683.119,89.727,-39.077,12.272
1.149,-45.129,-102.911,-70.808,-6.029,57.228,-141.060,320.906,-675.471,683.123,89.727,-39.077,12.271
1.159,-45.129,-102.911,-70.808,-6.029,57.229,-141.059,320.908,-675.466,683.130,89.726,-39.078,12.272
1.169,-45.129,-102.911,-70.807,-6.029,57.228,-141.060,320.910,-675.466,683.130,89.726,-39.077,12.272
1.180,-45.129,-102.910,-70.807,-6.029,57.229,-141.060,320.910,-675.461,683.136,89.725,-39.077,12.273
1.189,-45.128,-102.910,-70.807,-6.029,57.229,-141.059,320.915,-675.457,683.138,89.725,-39.078,12.273
1.203,-45.128,-102.910,-70.807,-6.029,57.228,-141.059,320.914,-675.457,683.140,89.725,-39.078,12.273
1.210,-45.128,-102.910,-70.808,-6.029,57.229,-141.059,320.916,-675.457,683.136,89.725,-39.078,12.273
1.219,-45.128,-102.910,-70.807,-6.029,57.229,-141.059,320.925,-675.456,683.135,89.725,-39.077,12.274
1.229,-45.128,-102.910,-70.807,-6.029,57.229,-141.060,320.922,-675.457,683.134,89.725,-39.077,12.274
1.239,-45.128,-102.910,-70.807,-6.028,57.229,-141.059,320.923,-675.455,683.137,89.725,-39.078,12.274
1.250,-45.128,-102.911,-70.808,-6.030,57.230,-141.059,320.934,-675.459,683.123,89.727,-39.077,12.274
1.259,-45.127,-102.911,-70.808,-6.030,57.229,-141.059,320.942,-675.460,683.111,89.728,-39.076,12.273
1.269,-45.128,-102.912,-70.808,-6.030,57.229,-141.059,320.938,-675.469,683.106,89.729,-39.076,12.272
1.280,-45.127,-102.912,-70.809,-6.031,57.231,-141.059,320.953,-675.470,683.087,89.731,-39.075,12.272
1.289,-45.127,-102.913,-70.809,-6.031,57.230,-141.059,320.959,-675.474,683.076,89.732,-39.074,12.272
1.302,-45.127,-102.914,-70.810,-6.033,57.231,-141.059,320.973,-675.481,683.049,89.737,-39.073,12.270
1.309,-45.127,-102.916,-70.811,-6.034,57.231,-141.059,320.984,-675.500,683.010,89.741,-39.071,12.267
1.319,-45.127,-102.917,-70.812,-6.034,57.231,-141.059,321.003,-675.510,682.978,89.744,-39.069,12.265
1.329,-45.126,-102.921,-70.814,-6.035,57.231,-141.059,321.036,-675.532,682.913,89.750,-39.066,12.262
1.339,-45.126,-102.924,-70.814,-6.034,57.233,-141.059,321.068,-675.547,682.879,89.753,-39.065,12.262
1.349,-45.125,-102.925,-70.814,-6.034,57.234,-141.058,321.094,-675.554,682.862,89.754,-39.064,12.264
1.359,-45.122,-102.927,-70.812,-6.033,57.235,-141.059,321.139,-675.540,682.870,89.752,-39.065,12.269
1.369,-45.118,-102.925,-70.810,-6.032,57.236,-141.058,321.179,-675.504,682.907,89.749,-39.067,12.276
1.379,-45.116,-102.925,-70.809,-6.033,57.236,-141.058,321.199,-675.486,682.925,89.747,-39.068,12.279
1.389,-45.111,-102.924,-70.808,-6.032,57.236,-141.058,321.244,-675.450,682.950,89.744,-39.069,12.286
1.400,-45.109,-102.923,-70.808,-6.032,57.234,-141.058,321.266,-675.435,682.959,89.743,-39.070,12.287
1.410,-45.109,-102.923,-70.808,-6.032,57.234,-141.059,321.262,-675.436,682.957,89.743,-39.069,12.287
1.420,-45.109,-102.924,-70.809,-6.031,57.233,-141.059,321.259,-675.440,682.947,89.744,-39.069,12.285
1.429,-45.109,-102.923,-70.810,-6.032,57.232,-141.058,321.247,-675.443,682.943,89.745,-39.069,12.283
1.439,-45.110,-102.923,-70.810,-6.031,57.232,-141.058,321.241,-675.442,682.946,89.744,-39.069,12.283
1.450,-45.110,-102.922,-70.809,-6.031,57.233,-141.058,321.230,-675.434,682.966,89.742,-39.070,12.285
1.459,-45.110,-102.919,-70.808,-6.031,57.235,-141.058,321.220,-675.416,683.009,89.738,-39.072,12.289
1.470,-45.111,-102.918,-70.807,-6.030,57.235,-141.058,321.204,-675.405,683.044,89.734,-39.074,12.292
1.480,-45.111,-102.914,-70.803,-6.027,57.235,-141.059,321.160,-675.372,683.145,89.723,-39.080,12.298
1.489,-45.114,-102.907,-70.798,-6.026,57.234,-141.059,321.067,-675.331,683.290,89.708,-39.086,12.304
1.500,-45.115,-102.902,-70.794,-6.026,57.232,-141.060,321.004,-675.307,683.382,89.700,-39.090,12.305
1.509,-45.122,-102.897,-70.790,-6.027,57.229,-141.061,320.875,-675.303,683.494,89.689,-39.094,12.302
1.519,-45.128,-102.898,-70.792,-6.027,57.227,-141.064,320.794,-675.350,683.464,89.693,-39.089,12.291
1.530,-45.131,-102.899,-70.793,-6.027,57.225,-141.067,320.764,-675.375,683.439,89.695,-39.085,12.286
1.539,-45.135,-102.900,-70.794,-6.027,57.224,-141.081,320.721,-675.411,683.408,89.699,-39.070,12.278
1.550,-45.135,-102.901,-70.795,-6.027,57.226,-141.099,320.731,-675.415,683.392,89.700,-39.050,12.280
1.559,-45.134,-102.901,-70.795,-6.027,57.228,-141.111,320.745,-675.414,683.387,89.701,-39.038,12.282
1.569,-45.133,-102.899,-70.794,-6.027,57.232,-141.136,320.749,-675.393,683.426,89.698,-39.015,12.288
1.579,-45.133,-102.897,-70.792,-6.028,57.233,-141.155,320.732,-675.374,683.473,89.694,-38.998,12.292
1.589,-45.133,-102.896,-70.793,-6.029,57.235,-141.162,320.740,-675.371,683.470,89.695,-38.990,12.293
1.600,-45.131,-102.898,-70.795,-6.031,57.238,-141.174,320.784,-675.373,683.428,89.701,-38.976,12.295
1.610,-45.129,-102.900,-70.795,-6.032,57.241,-141.189,320.837,-675.377,683.391,89.705,-38.958,12.297
1.619,-45.127,-102.901,-70.797,-6.034,57.242,-141.200,320.882,-675.376,683.351,89.710,-38.945,12.297
1.630,-45.121,-102.906,-70.801,-6.036,57.247,-141.227,321.000,-675.383,683.242,89.723,-38.912,12.300
1.640,-45.116,-102.911,-70.808,-6.037,57.254,-141.264,321.125,-675.399,683.107,89.737,-38.868,12.302
1.654,-45.114,-102.914,-70.811,-6.037,57.256,-141.287,321.177,-675.411,683.040,89.744,-38.842,12.302
1.659,-45.111,-102.918,-70.813,-6.039,57.260,-141.342,321.242,-675.422,682.972,89.752,-38.782,12.304
1.669,-45.107,-102.918,-70.812,-6.042,57.269,-141.419,321.315,-675.403,682.973,89.755,-38.704,12.315
1.679,-45.105,-102.918,-70.810,-6.042,57.277,-141.472,321.356,-675.385,682.997,89.753,-38.652,12.326
1.690,-45.100,-102.918,-70.811,-6.045,57.305,-141.628,321.493,-675.342,683.003,89.757,-38.494,12.356
1.705,-45.095,-102.919,-70.812,-6.049,57.335,-141.800,321.650,-675.314,682.981,89.763,-38.319,12.387
1.709,-45.090,-102.920,-70.813,-6.052,57.355,-141.903,321.778,-675.284,682.959,89.769,-38.213,12.408
1.719,-45.070,-102.924,-70.814,-6.063,57.392,-142.146,322.145,-675.200,682.880,89.787,-37.961,12.452
1.729,-45.063,-102.931,-70.816,-6.076,57.431,-142.448,322.371,-675.209,682.758,89.811,-37.647,12.483
1.739,-45.066,-102.933,-70.816,-6.081,57.453,-142.629,322.410,-675.233,682.729,89.820,-37.462,12.497
1.749,-45.065,-102.933,-70.816,-6.091,57.509,-143.050,322.551,-675.221,682.740,89.830,-37.036,12.546
1.759,-45.069,-102.932,-70.816,-6.094,57.580,-143.525,322.683,-675.211,682.786,89.835,-36.559,12.610
1.769,-45.072,-102.932,-70.815,-6.096,57.619,-143.782,322.744,-675.206,682.825,89.836,-36.302,12.645
1.779,-45.076,-102.930,-70.814,-6.099,57.696,-144.348,322.855,-675.190,682.918,89.836,-35.736,12.715
1.789,-45.077,-102.930,-70.814,-6.099,57.760,-144.999,322.941,-675.178,682.993,89.838,-35.085,12.776
1.799,-45.076,-102.930,-70.814,-6.100,57.784,-145.333,322.954,-675.177,683.032,89.839,-34.750,12.799
1.809,-45.075,-102.930,-70.814,-6.102,57.810,-146.055,322.879,-675.199,683.111,89.842,-34.027,12.823
1.819,-45.076,-102.931,-70.815,-6.102,57.819,-146.852,322.685,-675.257,683.188,89.846,-33.229,12.827
1.829,-45.076,-102.931,-70.815,-6.102,57.820,-147.261,322.576,-675.280,683.241,89.847,-32.820,12.828
1.840,-45.077,-102.930,-70.814,-6.102,57.822,-148.119,322.305,-675.336,683.380,89.846,-31.963,12.826
1.849,-45.078,-102.929,-70.813,-6.102,57.821,-149.026,322.027,-675.389,683.528,89.846,-31.057,12.823
1.859,-45.077,-102.928,-70.813,-6.103,57.821,-149.480,321.897,-675.412,683.596,89.847,-30.603,12.822
1.869,-45.077,-102.928,-70.813,-6.105,57.820,-150.463,321.621,-675.476,683.730,89.850,-29.619,12.818
1.880,-45.076,-102.929,-70.814,-6.106,57.820,-151.476,321.346,-675.545,683.863,89.854,-28.605,12.814
1.891,-45.076,-102.930,-70.815,-6.107,57.820,-152.013,321.198,-675.590,683.924,89.857,-28.066,12.811
1.899,-45.077,-102.931,-70.816,-6.107,57.820,-153.084,320.906,-675.667,684.065,89.861,-26.993,12.806
1.912,-45.077,-102.931,-70.816,-6.107,57.820,-154.197,320.593,-675.740,684.247,89.863,-25.880,12.803
1.920,-45.077,-102.931,-70.817,-6.108,57.820,-154.758,320.437,-675.779,684.331,89.865,-25.319,12.800
1.929,-45.077,-102.932,-70.817,-6.109,57.820,-155.917,320.129,-675.853,684.518,89.868,-24.158,12.796
1.939,-45.078,-102.931,-70.816,-6.111,57.820,-157.083,319.810,-675.921,684.740,89.869,-22.993,12.794
1.949,-45.078,-102.931,-70.815,-6.114,57.820,-157.780,319.647,-675.960,684.847,89.871,-22.395,12.791
1.959,-45.078,-102.931,-70.816,-6.121,57.819,-158.880,319.343,-676.044,685.027,89.881,-21.190,12.785
1.969,-45.079,-102.933,-70.817,-6.134,57.819,-160.089,319.042,-676.145,685.183,89.895,-19.973,12.776
1.981,-45.079,-102.933,-70.818,-6.140,57.819,-160.708,318.893,-676.192,685.270,89.902,-19.350,12.772
1.990,-45.079,-102.937,-70.819,-6.153,57.819,-161.947,318.621,-676.305,685.408,89.919,-18.102,12.765
1.999,-45.079,-102.942,-70.823,-6.164,57.817,-163.307,318.334,-676.435,685.543,89.937,-16.731,12.757
2.009,-45.079,-102.944,-70.824,-6.166,57.817,-163.820,318.223,-676.481,685.608,89.942,-16.215,12.754
2.020,-45.079,-102.948,-70.824,-6.166,57.816,-165.071,317.938,-676.578,685.830,89.945,-14.963,12.751
2.030,-45.079,-102.948,-70.823,-6.165,57.817,-166.292,317.651,-676.635,686.118,89.944,-13.742,12.751
2.040,-45.079,-102.947,-70.822,-6.165,57.816,-166.901,317.497,-676.656,686.282,89.942,-13.135,12.751
2.050,-45.078,-102.945,-70.821,-6.164,57.816,-168.102,317.219,-676.703,686.582,89.940,-11.935,12.750
2.060,-45.077,-102.945,-70.820,-6.164,57.816,-169.369,316.947,-676.757,686.886,89.939,-10.668,12.751
2.070,-45.076,-102.945,-70.820,-6.164,57.816,-169.858,316.842,-676.777,687.007,89.939,-10.180,12.751
2.080,-45.075,-102.945,-70.820,-6.163,57.817,-170.970,316.615,-676.824,687.279,89.938,-9.069,12.752
2.091,-45.074,-102.945,-70.820,-6.162,57.817,-172.060,316.387,-676.870,687.551,89.937,-7.979,12.751
2.100,-45.074,-102.944,-70.819,-6.162,57.816,-172.578,316.271,-676.884,687.699,89.936,-7.462,12.751
2.110,-45.073,-102.941,-70.817,-6.159,57.815,-173.586,316.038,-676.903,688.018,89.929,-6.458,12.749
2.125,-45.074,-102.938,-70.815,-6.155,57.811,-174.517,315.800,-676.921,688.330,89.922,-5.532,12.745
2.130,-45.074,-102.936,-70.814,-6.152,57.809,-174.959,315.683,-676.931,688.478,89.917,-5.093,12.742
2.141,-45.076,-102.933,-70.811,-6.148,57.807,-175.800,315.456,-676.946,688.784,89.908,-4.258,12.738
2.150,-45.076,-102.929,-70.810,-6.144,57.803,-176.555,315.253,-676.950,689.060,89.900,-3.508,12.733
2.160,-45.077,-102.926,-70.810,-6.143,57.802,-176.978,315.144,-676.954,689.207,89.897,-3.086,12.731
2.170,-45.077,-102.923,-70.809,-6.143,57.803,-177.588,315.001,-676.954,689.420,89.894,-2.479,12.730
2.180,-45.078,-102.921,-70.809,-6.143,57.803,-178.168,314.872,-676.972,689.592,89.892,-1.900,12.728
2.192,-45.078,-102.921,-70.810,-6.142,57.803,-178.435,314.818,-676.986,689.662,89.892,-1.633,12.728
2.200,-45.080,-102.921,-70.811,-6.140,57.803,-178.933,314.708,-677.017,689.789,89.892,-1.135,12.725
2.210,-45.082,-102.921,-70.810,-6.140,57.802,-179.355,314.597,-677.045,689.914,89.891,-0.714,12.721
2.220,-45.083,-102.921,-70.810,-6.139,57.801,-179.537,314.554,-677.055,689.965,89.890,-0.532,12.719
2.230,-45.083,-102.921,-70.810,-6.138,57.799,-179.846,314.477,-677.065,690.065,89.888,-0.224,12.716
2.239,-45.083,-102.920,-70.809,-6.136,57.796,-180.110,314.422,-677.070,690.155,89.886,0.039,12.713
2.250,-45.082,-102.920,-70.808,-6.136,57.795,-180.196,314.407,-677.071,690.181,89.886,0.124,12.713
2.260,-45.080,-102.922,-70.808,-6.137,57.796,-180.375,314.411,-677.075,690.217,89.887,0.304,12.715
2.270,-45.079,-102.923,-70.808,-6.137,57.795,-180.501,314.414,-677.081,690.237,89.888,0.431,12.716
2.280,-45.078,-102.924,-70.808,-6.138,57.796,-180.540,314.426,-677.080,690.240,89.889,0.471,12.717
2.290,-45.076,-102.925,-70.808,-6.138,57.797,-180.581,314.456,-677.084,690.221,89.892,0.513,12.720
2.300,-45.075,-102.926,-70.809,-6.139,57.797,-180.594,314.481,-677.088,690.199,89.894,0.527,12.721
2.314,-45.074,-102.927,-70.810,-6.139,57.797,-180.596,314.495,-677.088,690.188,89.895,0.530,12.722
2.320,-45.072,-102.928,-70.810,-6.139,57.797,-180.596,314.519,-677.086,690.173,89.896,0.531,12.724
2.330,-45.072,-102.928,-70.810,-6.139,57.797,-180.596,314.528,-677.086,690.169,89.896,0.531,12.725
2.340,-45.072,-102.928,-70.810,-6.139,57.797,-180.596,314.526,-677.086,690.171,89.896,0.531,12.724
2.350,-45.072,-102.928,-70.809,-6.140,57.798,-180.596,314.528,-677.084,690.178,89.896,0.530,12.725
2.360,-45.072,-102.928,-70.809,-6.139,57.798,-180.596,314.524,-677.083,690.182,89.895,0.530,12.725
2.371,-45.072,-102.928,-70.809,-6.139,57.798,-180.596,314.522,-677.084,690.181,89.895,0.530,12.725
2.380,-45.073,-102.928,-70.810,-6.139,57.798,-180.597,314.515,-677.087,690.177,89.896,0.531,12.724
2.390,-45.074,-102.928,-70.810,-6.140,57.797,-180.597,314.503,-677.093,690.176,89.896,0.531,12.722
2.400,-45.075,-102.928,-70.810,-6.139,57.797,-180.597,314.492,-677.097,690.180,89.895,0.531,12.722
2.410,-45.076,-102.927,-70.809,-6.139,57.798,-180.597,314.479,-677.098,690.188,89.895,0.530,12.721
2.422,-45.075,-102.927,-70.810,-6.139,57.798,-180.597,314.486,-677.094,690.185,89.895,0.530,12.722
2.439,-45.074,-102.927,-70.810,-6.139,57.798,-180.597,314.493,-677.091,690.185,89.895,0.531,12.723
2.440,-45.073,-102.927,-70.810,-6.139,57.798,-180.597,314.506,-677.085,690.186,89.895,0.530,12.724
2.450,-45.073,-102.927,-70.810,-6.139,57.798,-180.597,314.516,-677.084,690.180,89.895,0.531,12.724
2.461,-45.073,-102.928,-70.810,-6.139,57.798,-180.597,314.519,-677.087,690.173,89.896,0.531,12.724
2.470,-45.073,-102.928,-70.810,-6.139,57.798,-180.597,314.524,-677.090,690.167,89.896,0.531,12.725
2.482,-45.072,-102.929,-70.811,-6.139,57.799,-180.596,314.542,-677.089,690.156,89.897,0.531,12.726
2.490,-45.071,-102.930,-70.811,-6.139,57.799,-180.596,314.564,-677.089,690.140,89.898,0.532,12.728
2.500,-45.068,-102.931,-70.812,-6.139,57.801,-180.597,314.618,-677.083,690.110,89.901,0.534,12.733
2.510,-45.066,-102.933,-70.813,-6.139,57.804,-180.596,314.664,-677.084,690.086,89.902,0.535,12.737
2.520,-45.066,-102.935,-70.812,-6.139,57.806,-180.597,314.689,-677.093,690.064,89.904,0.536,12.739
2.530,-45.065,-102.938,-70.812,-6.140,57.813,-180.597,314.753,-677.103,690.027,89.907,0.538,12.747
2.540,-45.064,-102.940,-70.814,-6.141,57.828,-180.597,314.853,-677.106,689.980,89.911,0.540,12.763
2.550,-45.062,-102.942,-70.814,-6.141,57.839,-180.597,314.929,-677.106,689.954,89.912,0.542,12.775
2.562,-45.060,-102.947,-70.815,-6.140,57.874,-180.597,315.148,-677.102,689.882,89.917,0.545,12.813
2.570,-45.058,-102.951,-70.816,-6.140,57.934,-180.597,315.479,-677.069,689.825,89.921,0.547,12.875
2.581,-45.057,-102.953,-70.817,-6.140,57.978,-180.597,315.705,-677.046,689.797,89.923,0.548,12.921
2.590,-45.054,-102.957,-70.816,-6.139,58.100,-180.597,316.317,-676.966,689.751,89.925,0.550,13.045
2.603,-45.050,-102.961,-70.816,-6.138,58.258,-180.597,317.114,-676.843,689.712,89.928,0.552,13.208
2.613,-45.046,-102.962,-70.816,-6.137,58.348,-180.597,317.577,-676.759,689.699,89.928,0.552,13.302
2.624,-45.035,-102.962,-70.815,-6.137,58.553,-180.597,318.630,-676.534,689.708,89.927,0.552,13.518
2.640,-45.020,-102.960,-70.814,-6.135,58.796,-180.597,319.885,-676.235,689.755,89.922,0.550,13.775
2.650,-45.012,-102.959,-70.813,-6.134,58.933,-180.597,320.587,-676.064,689.785,89.920,0.549,13.921
2.651,-44.995,-102.955,-70.812,-6.131,59.240,-180.598,322.151,-675.677,689.851,89.913,0.546,14.244
2.661,-44.975,-102.950,-70.811,-6.122,59.589,-180.597,323.914,-675.214,689.959,89.899,0.538,14.613
2.670,-44.962,-102.948,-70.810,-6.113,59.810,-180.597,325.026,-674.913,690.038,89.888,0.532,14.846
2.680,-44.945,-102.940,-70.809,-6.093,60.186,-180.598,326.845,-674.393,690.221,89.863,0.519,15.239
2.690,-44.928,-102.929,-70.808,-6.064,60.637,-180.598,328.966,-673.754,690.486,89.826,0.500,15.707
2.700,-44.922,-102.924,-70.807,-6.045,60.885,-180.598,330.090,-673.411,690.643,89.804,0.489,15.961
2.710,-44.911,-102.912,-70.800,-6.005,61.414,-180.598,332.453,-672.670,691.026,89.751,0.462,16.501
2.720,-44.904,-102.900,-70.789,-5.969,61.976,-180.598,334.915,-671.897,691.426,89.699,0.437,17.070
2.730,-44.900,-102.893,-70.785,-5.953,62.269,-180.598,336.195,-671.478,691.629,89.674,0.426,17.366
2.740,-44.892,-102.877,-70.778,-5.928,62.883,-180.598,338.875,-670.586,692.014,89.629,0.408,17.988
2.749,-44.888,-102.860,-70.776,-5.910,63.520,-180.598,341.612,-669.671,692.327,89.594,0.396,18.628
2.760,-44.886,-102.853,-70.776,-5.902,63.847,-180.598,343.029,-669.201,692.455,89.579,0.391,18.958
2.770,-44.882,-102.845,-70.776,-5.882,64.533,-180.598,346.035,-668.234,692.651,89.551,0.384,19.648
2.780,-44.877,-102.842,-70.774,-5.851,65.255,-180.598,349.208,-667.201,692.843,89.516,0.375,20.374
2.789,-44.875,-102.841,-70.775,-5.828,65.623,-180.598,350.816,-666.659,692.952,89.493,0.368,20.743
2.799,-44.876,-102.842,-70.776,-5.765,66.378,-180.598,354.049,-665.541,693.204,89.434,0.350,21.497
2.809,-44.877,-102.843,-70.777,-5.684,67.162,-180.598,357.369,-664.323,693.527,89.358,0.327,22.280
2.819,-44.878,-102.844,-70.777,-5.640,67.554,-180.598,359.024,-663.693,693.699,89.317,0.316,22.671
2.829,-44.879,-102.845,-70.777,-5.559,68.356,-180.598,362.388,-662.372,694.047,89.239,0.295,23.471
2.840,-44.882,-102.844,-70.777,-5.494,69.156,-180.597,365.731,-661.023,694.347,89.173,0.283,24.268
2.849,-44.882,-102.844,-70.777,-5.468,69.554,-180.598,367.401,-660.337,694.471,89.146,0.279,24.665
2.859,-44.883,-102.845,-70.777,-5.423,70.344,-180.598,370.719,-658.954,694.677,89.100,0.276,25.454
2.869,-44.883,-102.846,-70.777,-5.379,71.118,-180.598,373.966,-657.552,694.865,89.056,0.275,26.228
2.879,-44.884,-102.847,-70.778,-5.355,71.505,-180.598,375.575,-656.844,694.957,89.033,0.274,26.614
2.889,-44.885,-102.850,-70.779,-5.304,72.264,-180.598,378.720,-655.415,695.147,88.984,0.273,27.372
2.899,-44.885,-102.853,-70.780,-5.247,72.985,-180.598,381.692,-654.009,695.359,88.929,0.270,28.092
2.909,-44.886,-102.854,-70.781,-5.221,73.337,-180.598,383.131,-653.313,695.456,88.905,0.270,28.442
2.920,-44.888,-102.857,-70.783,-5.180,74.001,-180.598,385.837,-651.989,695.607,88.865,0.273,29.105
2.930,-44.891,-102.858,-70.783,-5.152,74.618,-180.598,388.334,-650.745,695.717,88.837,0.278,29.718
2.940,-44.893,-102.859,-70.783,-5.145,74.958,-180.598,389.703,-650.059,695.750,88.829,0.283,30.056
2.949,-44.897,-102.859,-70.783,-5.144,75.457,-180.598,391.701,-649.048,695.775,88.825,0.293,30.550
2.959,-44.902,-102.859,-70.783,-5.145,75.951,-180.598,393.665,-648.031,695.795,88.822,0.303,31.040
2.969,-44.904,-102.858,-70.782,-5.145,76.171,-180.598,394.536,-647.572,695.807,88.821,0.308,31.258
2.979,-44.907,-102.858,-70.782,-5.146,76.576,-180.598,396.143,-646.720,695.816,88.819,0.316,31.659
2.989,-44.911,-102.859,-70.784,-5.146,76.928,-180.598,397.534,-645.984,695.799,88.820,0.324,32.007
2.999,-44.913,-102.860,-70.784,-5.147,77.079,-180.598,398.124,-645.674,695.786,88.821,0.327,32.156
3.009,-44.918,-102.862,-70.785,-5.147,77.343,-180.598,399.150,-645.140,695.750,88.824,0.334,32.415
3.019,-44.923,-102.865,-70.786,-5.148,77.547,-180.598,399.940,-644.739,695.704,88.827,0.339,32.615
3.029,-44.925,-102.867,-70.786,-5.149,77.630,-180.598,400.261,-644.583,695.676,88.830,0.341,32.695
3.039,-44.930,-102.869,-70.786,-5.149,77.757,-180.598,400.729,-644.349,695.650,88.831,0.344,32.817
3.049,-44.937,-102.870,-70.786,-5.149,77.826,-180.598,400.938,-644.245,695.638,88.832,0.346,32.880
3.060,-44.939,-102.871,-70.786,-5.150,77.838,-180.598,400.962,-644.239,695.628,88.834,0.347,32.889
3.069,-44.943,-102.872,-70.787,-5.151,77.831,-180.598,400.902,-644.288,695.608,88.836,0.347,32.878
3.079,-44.945,-102.872,-70.787,-5.151,77.818,-180.598,400.834,-644.337,695.594,88.837,0.347,32.864
3.090,-44.946,-102.873,-70.787,-5.151,77.812,-180.598,400.800,-644.360,695.587,88.838,0.347,32.856
3.099,-44.945,-102.873,-70.787,-5.151,77.801,-180.598,400.769,-644.386,695.574,88.839,0.347,32.846
3.110,-44.944,-102.874,-70.788,-5.152,77.788,-180.598,400.737,-644.410,695.562,88.840,0.347,32.835
3.119,-44.944,-102.873,-70.788,-5.152,77.781,-180.598,400.707,-644.424,695.562,88.840,0.347,32.828
3.129,-44.944,-102.873,-70.788,-5.152,77.766,-180.598,400.635,-644.459,695.570,88.840,0.346,32.812
3.139,-44.945,-102.872,-70.788,-5.152,77.749,-180.598,400.558,-644.497,695.578,88.839,0.346,32.795
3.149,-44.945,-102.872,-70.788,-5.152,77.741,-180.598,400.523,-644.516,695.578,88.839,0.346,32.786
3.159,-44.945,-102.872,-70.788,-5.152,77.724,-180.598,400.456,-644.552,695.579,88.839,0.345,32.769
3.169,-44.944,-102.872,-70.788,-5.153,77.708,-180.598,400.401,-644.582,695.573,88.840,0.345,32.755
3.180,-44.944,-102.872,-70.788,-5.153,77.704,-180.598,400.384,-644.596,695.568,88.841,0.345,32.750
3.189,-44.945,-102.872,-70.789,-5.153,77.696,-180.598,400.349,-644.618,695.561,88.841,0.345,32.742
3.199,-44.946,-102.872,-70.790,-5.153,77.695,-180.598,400.337,-644.629,695.550,88.842,0.345,32.740
3.209,-44.946,-102.872,-70.790,-5.153,77.695,-180.598,400.331,-644.634,695.544,88.843,0.346,32.739
3.220,-44.946,-102.872,-70.792,-5.153,77.695,-180.598,400.339,-644.635,695.525,88.845,0.346,32.740
3.230,-44.945,-102.873,-70.793,-5.153,77.696,-180.598,400.353,-644.634,695.507,88.846,0.346,32.741
3.239,-44.945,-102.873,-70.793,-5.153,77.696,-180.598,400.363,-644.631,695.501,88.846,0.346,32.742
3.250,-44.944,-102.874,-70.793,-5.153,77.696,-180.598,400.374,-644.631,695.492,88.847,0.347,32.742
3.260,-44.944,-102.874,-70.794,-5.153,77.696,-180.598,400.380,-644.633,695.478,88.848,0.347,32.743
3.270,-44.944,-102.874,-70.794,-5.154,77.697,-180.598,400.379,-644.636,695.474,88.849,0.347,32.743
3.279,-44.944,-102.875,-70.794,-5.154,77.697,-180.598,400.390,-644.637,695.464,88.850,0.347,32.743
3.293,-44.943,-102.875,-70.794,-5.154,77.697,-180.598,400.400,-644.635,695.460,88.850,0.347,32.744
3.303,-44.943,-102.875,-70.794,-5.154,77.697,-180.598,400.406,-644.630,695.463,88.850,0.347,32.745
3.310,-44.942,-102.875,-70.794,-5.154,77.697,-180.598,400.416,-644.623,695.464,88.850,0.347,32.746
3.322,-44.941,-102.875,-70.794,-5.154,77.697,-180.598,400.421,-644.620,695.466,88.850,0.347,32.746
3.330,-44.941,-102.875,-70.794,-5.154,77.697,-180.598,400.421,-644.618,695.465,88.850,0.347,32.746
3.345,-44.942,-102.875,-70.795,-5.155,77.697,-180.598,400.423,-644.626,695.449,88.852,0.347,32.746
3.350,-44.942,-102.876,-70.795,-5.155,77.697,-180.598,400.427,-644.631,695.435,88.853,0.348,32.746
3.359,-44.942,-102.876,-70.796,-5.156,77.697,-180.598,400.433,-644.635,695.422,88.854,0.348,32.746
3.369,-44.942,-102.878,-70.796,-5.156,77.697,-180.598,400.442,-644.646,695.399,88.856,0.349,32.746
3.380,-44.942,-102.879,-70.796,-5.156,77.697,-180.598,400.447,-644.659,695.383,88.858,0.349,32.746
3.389,-44.942,-102.880,-70.796,-5.156,77.697,-180.598,400.446,-644.666,695.375,88.858,0.349,32.745
3.399,-44.944,-102.881,-70.796,-5.156,77.697,-180.598,400.441,-644.682,695.356,88.860,0.349,32.744
3.409,-44.944,-102.882,-70.796,-5.156,77.696,-180.598,400.443,-644.696,695.335,88.862,0.350,32.743
3.419,-44.944,-102.883,-70.797,-5.156,77.696,-180.598,400.445,-644.702,695.324,88.862,0.350,32.743
3.429,-44.944,-102.884,-70.797,-5.157,77.696,-180.598,400.458,-644.710,695.300,88.865,0.351,32.743
3.440,-44.944,-102.886,-70.798,-5.157,77.696,-180.598,400.473,-644.727,695.262,88.868,0.351,32.743
3.449,-44.944,-102.887,-70.798,-5.158,77.696,-180.598,400.485,-644.736,695.239,88.870,0.352,32.743
3.460,-44.944,-102.890,-70.799,-5.158,77.696,-180.598,400.502,-644.757,695.201,88.873,0.352,32.743
3.470,-44.944,-102.891,-70.800,-5.158,77.696,-180.598,400.515,-644.769,695.170,88.876,0.353,32.743
3.479,-44.944,-102.892,-70.800,-5.159,77.696,-180.598,400.517,-644.773,695.163,88.877,0.353,32.743
3.489,-44.944,-102.892,-70.800,-5.159,77.696,-180.598,400.528,-644.771,695.153,88.878,0.353,32.744
3.500,-44.943,-102.892,-70.800,-5.160,77.697,-180.598,400.541,-644.766,695.151,88.878,0.353,32.745
3.510,-44.942,-102.893,-70.800,-5.160,77.697,-180.598,400.546,-644.766,695.143,88.879,0.353,32.745
3.520,-44.942,-102.893,-70.801,-5.160,77.697,-180.598,400.560,-644.764,695.131,88.880,0.354,32.746
3.529,-44.941,-102.895,-70.802,-5.161,77.697,-180.598,400.581,-644.773,695.094,88.883,0.355,32.747
3.540,-44.941,-102.896,-70.803,-5.162,77.697,-180.598,400.601,-644.787,695.056,88.887,0.355,32.747
3.549,-44.940,-102.902,-70.804,-5.162,77.698,-180.598,400.647,-644.820,694.971,88.894,0.357,32.748
3.566,-44.939,-102.912,-70.807,-5.162,77.698,-180.598,400.733,-644.885,694.812,88.906,0.360,32.750
3.570,-44.939,-102.916,-70.809,-5.162,77.699,-180.598,400.769,-644.920,694.730,88.913,0.361,32.750
3.580,-44.939,-102.933,-70.816,-5.162,77.699,-180.598,400.900,-645.044,694.437,88.936,0.366,32.751
3.589,-44.939,-102.952,-70.821,-5.163,77.700,-180.598,401.045,-645.184,694.124,88.961,0.372,32.752
3.599,-44.939,-102.966,-70.825,-5.163,77.700,-180.598,401.148,-645.279,693.908,88.977,0.375,32.753
3.610,-44.938,-102.996,-70.833,-5.163,77.701,-180.598,401.383,-645.495,693.422,89.015,0.384,32.754
3.620,-44.937,-103.025,-70.840,-5.165,77.702,-180.598,401.611,-645.693,692.963,89.052,0.392,32.757
3.630,-44.936,-103.042,-70.844,-5.166,77.702,-180.598,401.744,-645.819,692.687,89.074,0.396,32.758
3.640,-44.936,-103.077,-70.853,-5.167,77.702,-180.598,402.006,-646.061,692.138,89.118,0.406,32.759
3.655,-44.936,-103.114,-70.863,-5.169,77.702,-180.598,402.281,-646.339,691.525,89.166,0.417,32.759
3.662,-44.936,-103.134,-70.868,-5.171,77.702,-180.598,402.426,-646.482,691.214,89.191,0.422,32.760
3.671,-44.934,-103.176,-70.883,-5.172,77.702,-180.598,402.753,-646.787,690.490,89.249,0.434,32.761
3.681,-44.932,-103.223,-70.897,-5.172,77.703,-180.598,403.117,-647.113,689.729,89.308,0.447,32.764
3.690,-44.932,-103.249,-70.903,-5.172,77.702,-180.598,403.314,-647.297,689.318,89.340,0.454,32.765
3.700,-44.930,-103.307,-70.918,-5.172,77.703,-180.598,403.742,-647.699,688.409,89.410,0.470,32.767
3.710,-44.929,-103.374,-70.934,-5.172,77.703,-180.598,404.241,-648.166,687.357,89.492,0.488,32.770
3.720,-44.930,-103.416,-70.947,-5.171,77.703,-180.598,404.542,-648.478,686.662,89.545,0.499,32.769
3.730,-44.930,-103.484,-70.971,-5.172,77.703,-180.599,405.037,-648.973,685.513,89.635,0.519,32.770
3.740,-44.930,-103.557,-70.991,-5.172,77.703,-180.598,405.569,-649.502,684.318,89.728,0.539,32.771
3.750,-44.930,-103.594,-71.004,-5.172,77.703,-180.598,405.829,-649.768,683.707,89.775,0.549,32.771
3.760,-44.930,-103.671,-71.043,-5.172,77.702,-180.598,406.405,-650.354,682.251,89.889,0.574,32.771
3.771,-44.930,-103.753,-71.082,-5.172,77.702,-180.598,407.012,-650.956,680.757,90.006,0.600,32.772
3.780,-44.931,-103.794,-71.104,-5.172,77.702,-180.598,407.306,-651.276,679.964,90.068,0.613,32.771
3.791,-44.931,-103.881,-71.145,-5.171,77.702,-180.598,407.951,-651.917,678.364,90.193,0.641,32.773
3.800,-44.932,-103.981,-71.196,-5.172,77.702,-180.598,408.684,-652.667,676.478,90.341,0.673,32.773
3.810,-44.933,-104.040,-71.213,-5.171,77.701,-180.598,409.086,-653.082,675.524,90.414,0.689,32.773
3.837,-44.934,-104.167,-71.246,-5.170,77.701,-180.598,409.961,-653.978,673.492,90.569,0.722,32.774
3.939,-44.934,-104.296,-71.275,-5.169,77.701,-180.598,410.850,-654.871,671.459,90.724,0.756,32.775
4.023,-44.935,-104.358,-71.289,-5.171,77.701,-180.598,411.272,-655.302,670.483,90.799,0.772,32.775
4.028,-44.936,-104.485,-71.318,-5.170,77.699,-180.598,412.116,-656.185,668.497,90.950,0.805,32.775
4.029,-44.936,-104.608,-71.356,-5.170,77.699,-180.598,412.977,-657.038,666.438,91.108,0.840,32.777
4.030,-44.935,-104.664,-71.377,-5.170,77.700,-180.598,413.383,-657.420,665.464,91.183,0.856,32.780
4.031,-44.935,-104.771,-71.431,-5.170,77.699,-180.598,414.149,-658.193,663.428,91.341,0.890,32.782
4.032,-44.932,-104.865,-71.475,-5.170,77.700,-180.598,414.865,-658.834,661.679,91.476,0.920,32.788
4.033,-44.931,-104.921,-71.504,-5.171,77.701,-180.598,415.267,-659.223,660.619,91.559,0.938,32.790
4.034,-44.932,-105.037,-71.560,-5.171,77.701,-180.598,416.082,-660.045,658.446,91.727,0.974,32.793
4.035,-44.931,-105.153,-71.619,-5.171,77.701,-180.598,416.914,-660.857,656.224,91.899,1.012,32.797
4.036,-44.930,-105.214,-71.650,-5.171,77.701,-180.599,417.349,-661.283,655.066,91.988,1.032,32.799
4.038,-44.930,-105.344,-71.713,-5.171,77.702,-180.598,418.257,-662.183,652.616,92.177,1.072,32.803
4.039,-44.932,-105.485,-71.785,-5.169,77.701,-180.598,419.217,-663.171,649.926,92.383,1.117,32.805
4.039,-44.932,-105.558,-71.822,-5.169,77.701,-180.598,419.726,-663.678,648.518,92.491,1.141,32.807
4.040,-44.933,-105.704,-71.905,-5.167,77.700,-180.598,420.713,-664.701,645.638,92.713,1.189,32.809
4.042,-44.936,-105.835,-71.992,-5.168,77.699,-180.598,421.603,-665.635,642.886,92.927,1.236,32.811
4.042,-44.936,-105.905,-72.045,-5.169,77.698,-180.598,422.089,-666.136,641.337,93.048,1.262,32.812
4.043,-44.937,-106.013,-72.132,-5.168,77.698,-180.598,422.846,-666.906,638.900,93.238,1.303,32.815
4.044,-44.937,-106.122,-72.235,-5.169,77.698,-180.598,423.620,-667.689,636.263,93.445,1.348,32.819
4.044,-44.938,-106.172,-72.288,-5.169,77.698,-180.598,423.979,-668.054,634.979,93.547,1.370,32.821
4.045,-44.937,-106.273,-72.410,-5.169,77.698,-180.598,424.728,-668.794,632.225,93.765,1.417,32.827
4.047,-44.937,-106.367,-72.511,-5.170,77.698,-180.598,425.411,-669.464,629.797,93.956,1.459,32.833
4.049,-44.938,-106.426,-72.566,-5.169,77.698,-180.598,425.810,-669.879,628.384,94.066,1.482,32.835
4.060,-44.940,-106.547,-72.665,-5.169,77.698,-180.598,426.613,-670.720,625.603,94.282,1.529,32.838
4.070,-44.940,-106.671,-72.759,-5.169,77.697,-180.598,427.428,-671.551,622.861,94.495,1.575,32.842
4.080,-44.941,-106.736,-72.801,-5.169,77.697,-180.598,427.855,-671.983,621.490,94.600,1.598,32.845
4.089,-44.942,-106.888,-72.896,-5.169,77.697,-180.598,428.818,-672.978,618.346,94.841,1.650,32.850
4.099,-44.944,-107.029,-72.975,-5.168,77.697,-180.598,429.701,-673.887,615.527,95.055,1.697,32.854
4.109,-44.944,-107.110,-73.017,-5.167,77.697,-180.598,430.204,-674.397,613.951,95.174,1.723,32.857
4.119,-44.945,-107.262,-73.093,-5.167,77.696,-180.598,431.135,-675.352,611.013,95.397,1.771,32.862
4.129,-44.945,-107.386,-73.162,-5.167,77.694,-180.598,431.904,-676.131,608.517,95.587,1.812,32.866
4.139,-44.945,-107.440,-73.197,-5.168,77.693,-180.598,432.238,-676.474,607.377,95.674,1.831,32.868
4.150,-44.944,-107.541,-73.269,-5.167,77.693,-180.598,432.891,-677.094,605.177,95.842,1.867,32.875
4.160,-44.944,-107.622,-73.351,-5.167,77.693,-180.598,433.416,-677.622,603.111,96.003,1.902,32.880
4.170,-44.943,-107.657,-73.397,-5.167,77.693,-180.598,433.653,-677.843,602.120,96.081,1.919,32.884
4.179,-44.942,-107.717,-73.481,-5.169,77.693,-180.598,434.070,-678.238,600.317,96.224,1.949,32.890
4.189,-44.940,-107.783,-73.552,-5.171,77.695,-180.599,434.517,-678.641,598.603,96.359,1.979,32.898
4.199,-44.941,-107.821,-73.581,-5.170,77.695,-180.598,434.747,-678.878,597.746,96.424,1.992,32.900
4.209,-44.942,-107.907,-73.626,-5.170,77.696,-180.598,435.256,-679.396,596.049,96.552,2.020,32.904
4.219,-44.941,-107.993,-73.647,-5.170,77.696,-180.599,435.758,-679.886,594.621,96.657,2.043,32.909
4.230,-44.942,-108.036,-73.652,-5.170,77.697,-180.599,436.003,-680.134,593.967,96.704,2.053,32.911
4.239,-44.942,-108.125,-73.659,-5.170,77.697,-180.599,436.499,-680.640,592.658,96.798,2.073,32.913
4.250,-44.941,-108.216,-73.663,-5.171,77.697,-180.599,437.019,-681.144,591.362,96.891,2.093,32.918
4.260,-44.942,-108.257,-73.661,-5.169,77.697,-180.598,437.231,-681.377,590.822,96.928,2.100,32.918
4.270,-44.944,-108.318,-73.655,-5.169,77.696,-180.599,437.553,-681.724,590.050,96.982,2.112,32.918
4.279,-44.941,-108.349,-73.657,-5.169,77.696,-180.598,437.756,-681.875,589.597,97.014,2.119,32.922
4.290,-44.940,-108.359,-73.659,-5.169,77.697,-180.599,437.823,-681.923,589.443,97.026,2.122,32.924
4.300,-44.938,-108.372,-73.656,-5.169,77.696,-180.599,437.923,-681.978,589.291,97.036,2.124,32.926
4.309,-44.936,-108.377,-73.657,-5.169,77.697,-180.599,437.972,-681.991,589.218,97.041,2.125,32.928
4.320,-44.935,-108.378,-73.656,-5.169,77.697,-180.599,437.986,-681.993,589.207,97.042,2.125,32.929
4.329,-44.936,-108.380,-73.655,-5.169,77.697,-180.599,437.986,-682.012,589.187,97.043,2.126,32.928
4.339,-44.938,-108.383,-73.655,-5.169,77.697,-180.599,437.983,-682.037,589.153,97.046,2.126,32.927
4.350,-44.938,-108.384,-73.655,-5.169,77.697,-180.599,437.981,-682.046,589.142,97.046,2.126,32.926
4.359,-44.940,-108.383,-73.655,-5.169,77.697,-180.599,437.960,-682.057,589.147,97.046,2.126,32.924
4.369,-44.942,-108.382,-73.655,-5.169,77.697,-180.599,437.930,-682.065,589.163,97.045,2.126,32.922
4.379,-44.943,-108.382,-73.655,-5.169,77.696,-180.599,437.916,-682.072,589.163,97.045,2.126,32.921
4.390,-44.944,-108.381,-73.656,-5.168,77.696,-180.599,437.894,-682.075,589.175,97.044,2.126,32.920
4.400,-44.946,-108.378,-73.655,-5.168,77.696,-180.598,437.849,-682.079,589.228,97.039,2.125,32.917
4.409,-44.948,-108.376,-73.654,-5.168,77.696,-180.599,437.824,-682.074,589.269,97.036,2.124,32.916
4.419,-44.949,-108.371,-73.652,-5.167,77.696,-180.599,437.780,-682.051,589.369,97.029,2.123,32.914
4.429,-44.948,-108.363,-73.648,-5.166,77.696,-180.599,437.745,-681.999,589.520,97.017,2.120,32.915
4.439,-44.947,-108.360,-73.646,-5.166,77.696,-180.599,437.736,-681.972,589.593,97.011,2.119,32.916
4.449,-44.945,-108.356,-73.643,-5.166,77.696,-180.599,437.743,-681.937,589.664,97.006,2.118,32.918
4.460,-44.943,-108.358,-73.645,-5.167,77.696,-180.598,437.779,-681.930,589.626,97.009,2.118,32.920
4.470,-44.942,-108.360,-73.645,-5.167,77.697,-180.599,437.800,-681.932,589.594,97.011,2.119,32.921
4.480,-44.942,-108.363,-73.647,-5.167,77.696,-180.599,437.816,-681.950,589.536,97.016,2.120,32.921
4.489,-44.941,-108.365,-73.647,-5.168,77.697,-180.598,437.847,-681.957,589.492,97.019,2.120,32.923
4.500,-44.940,-108.367,-73.648,-5.167,77.697,-180.599,437.861,-681.961,589.466,97.021,2.121,32.924
4.509,-44.940,-108.369,-73.648,-5.168,77.697,-180.599,437.876,-681.975,589.428,97.024,2.121,32.924
4.520,-44.940,-108.372,-73.648,-5.168,77.697,-180.599,437.892,-681.993,589.384,97.027,2.122,32.924
4.530,-44.941,-108.374,-73.648,-5.168,77.697,-180.599,437.898,-682.008,589.354,97.030,2.123,32.923
4.540,-44.942,-108.378,-73.649,-5.168,77.696,-180.599,437.901,-682.042,589.292,97.034,2.124,32.922
4.550,-44.945,-108.380,-73.649,-5.168,77.696,-180.599,437.879,-682.072,589.267,97.036,2.124,32.919
4.560,-44.945,-108.380,-73.649,-5.168,77.696,-180.599,437.874,-682.076,589.265,97.036,2.124,32.918
4.570,-44.946,-108.380,-73.649,-5.168,77.696,-180.599,437.856,-682.085,589.269,97.036,2.124,32.917
4.580,-44.947,-108.379,-73.649,-5.168,77.696,-180.599,437.844,-682.080,589.291,97.034,2.124,32.917
4.590,-44.947,-108.378,-73.649,-5.167,77.696,-180.599,437.839,-682.075,589.306,97.033,2.124,32.916
4.599,-44.946,-108.376,-73.648,-5.167,77.696,-180.599,437.833,-682.062,589.335,97.031,2.123,32.917
4.609,-44.946,-108.373,-73.647,-5.167,77.696,-180.599,437.818,-682.047,589.390,97.026,2.122,32.917
4.619,-44.946,-108.371,-73.646,-5.167,77.696,-180.599,437.810,-682.034,589.421,97.024,2.121,32.917
4.629,-44.945,-108.368,-73.645,-5.167,77.696,-180.599,437.804,-682.010,589.473,97.020,2.121,32.918
4.639,-44.944,-108.366,-73.646,-5.167,77.696,-180.599,437.804,-681.988,589.503,97.018,2.120,32.919
4.649,-44.944,-108.366,-73.646,-5.167,77.696,-180.599,437.809,-681.981,589.510,97.017,2.120,32.919
4.660,-44.943,-108.366,-73.646,-5.167,77.696,-180.599,437.822,-681.974,589.503,97.018,2.120,32.921
4.670,-44.942,-108.366,-73.647,-5.167,77.696,-180.599,437.830,-681.974,589.490,97.019,2.121,32.921
4.681,-44.942,-108.366,-73.647,-5.167,77.696,-180.599,437.831,-681.975,589.488,97.019,2.121,32.921
4.689,-44.943,-108.367,-73.647,-5.167,77.696,-180.599,437.825,-681.980,589.486,97.019,2.121,32.920
4.699,-44.943,-108.368,-73.647,-5.167,77.696,-180.599,437.829,-681.988,589.467,97.021,2.121,32.920
4.710,-44.943,-108.368,-73.647,-5.167,77.696,-180.599,437.830,-681.992,589.460,97.021,2.121,32.920
4.720,-44.944,-108.370,-73.647,-5.168,77.696,-180.599,437.834,-682.004,589.434,97.023,2.122,32.920
4.730,-44.944,-108.372,-73.648,-5.168,77.696,-180.599,437.839,-682.020,589.397,97.026,2.122,32.919
4.739,-44.944,-108.372,-73.648,-5.168,77.696,-180.599,437.840,-682.025,589.387,97.027,2.123,32.919
4.749,-44.945,-108.373,-73.648,-5.168,77.696,-180.599,437.831,-682.035,589.379,97.028,2.123,32.918
4.762,-44.946,-108.373,-73.648,-5.168,77.696,-180.599,437.828,-682.038,589.374,97.028,2.123,32.918
4.770,-44.945,-108.373,-73.650,-5.169,77.696,-180.599,437.830,-682.038,589.356,97.030,2.123,32.918
4.779,-44.943,-108.373,-73.660,-5.169,77.696,-180.599,437.865,-682.024,589.245,97.040,2.125,32.921
4.790,-44.942,-108.372,-73.665,-5.168,77.697,-180.599,437.873,-682.020,589.195,97.043,2.126,32.922
4.799,-44.944,-108.372,-73.666,-5.168,77.697,-180.599,437.858,-682.028,589.178,97.045,2.126,32.921
4.809,-44.945,-108.372,-73.669,-5.168,77.697,-180.599,437.845,-682.041,589.146,97.047,2.127,32.920
4.819,-44.951,-108.370,-73.675,-5.167,77.697,-180.599,437.761,-682.081,589.108,97.051,2.128,32.914
4.830,-44.955,-108.369,-73.679,-5.167,77.697,-180.599,437.715,-682.100,589.084,97.053,2.128,32.910
4.839,-44.965,-108.367,-73.689,-5.166,77.697,-180.599,437.587,-682.175,588.994,97.061,2.130,32.900
4.850,-44.979,-108.365,-73.699,-5.167,77.697,-180.599,437.415,-682.280,588.905,97.069,2.131,32.887
4.860,-44.990,-108.365,-73.703,-5.167,77.698,-180.599,437.286,-682.363,588.865,97.072,2.132,32.876
4.869,-45.022,-108.365,-73.710,-5.167,77.697,-180.599,436.917,-682.607,588.784,97.079,2.134,32.845
4.879,-45.073,-108.367,-73.718,-5.167,77.697,-180.599,436.319,-683.011,588.664,97.089,2.136,32.794
4.899,-45.110,-108.367,-73.726,-5.167,77.697,-180.599,435.883,-683.303,588.568,97.097,2.137,32.757
4.900,-45.200,-108.371,-73.748,-5.167,77.697,-180.599,434.836,-684.021,588.263,97.123,2.143,32.667
4.909,-45.317,-108.377,-73.779,-5.168,77.697,-180.599,433.501,-684.953,587.820,97.160,2.151,32.553
4.919,-45.388,-108.382,-73.794,-5.168,77.697,-180.599,432.686,-685.524,587.583,97.179,2.155,32.483
4.929,-45.551,-108.393,-73.835,-5.167,77.698,-180.599,430.816,-686.838,586.953,97.230,2.166,32.322
4.939,-45.734,-108.415,-73.887,-5.167,77.697,-180.599,428.757,-688.362,586.065,97.301,2.181,32.141
4.949,-45.835,-108.433,-73.914,-5.168,77.698,-180.599,427.663,-689.231,585.493,97.347,2.191,32.042
4.960,-46.057,-108.474,-73.975,-5.167,77.698,-180.599,425.245,-691.144,584.219,97.447,2.213,31.824
4.970,-46.301,-108.528,-74.044,-5.168,77.699,-180.599,422.615,-693.283,582.695,97.566,2.238,31.585
4.980,-46.424,-108.560,-74.080,-5.167,77.698,-180.599,421.313,-694.384,581.839,97.632,2.252,31.464
4.989,-46.672,-108.630,-74.156,-5.167,77.698,-180.599,418.712,-696.629,579.995,97.775,2.283,31.222
4.999,-46.937,-108.697,-74.237,-5.167,77.698,-180.599,415.869,-698.968,578.142,97.920,2.314,30.963
5.010,-47.076,-108.727,-74.276,-5.167,77.698,-180.599,414.338,-700.166,577.270,97.988,2.328,30.826
5.020,-47.371,-108.786,-74.362,-5.167,77.698,-180.599,411.074,-702.651,575.470,98.129,2.359,30.538
5.030,-47.688,-108.842,-74.458,-5.168,77.699,-180.599,407.502,-705.270,573.580,98.279,2.391,30.227
5.040,-47.855,-108.867,-74.510,-5.168,77.698,-180.599,405.584,-706.621,572.627,98.355,2.407,30.063
5.049,-48.195,-108.914,-74.617,-5.168,77.697,-180.599,401.653,-709.321,570.747,98.506,2.440,29.728
5.060,-48.560,-108.963,-74.726,-5.168,77.697,-180.599,397.406,-712.183,568.799,98.661,2.473,29.370
5.069,-48.782,-108.993,-74.791,-5.169,77.697,-180.599,394.817,-713.904,567.636,98.755,2.493,29.152
5.079,-49.136,-109.038,-74.900,-5.169,77.697,-180.599,390.639,-716.621,565.764,98.905,2.525,28.804
5.089,-49.519,-109.086,-75.015,-5.169,77.696,-180.599,386.095,-719.525,563.772,99.065,2.559,28.427
5.099,-49.730,-109.111,-75.077,-5.170,77.696,-180.599,383.585,-721.097,562.705,99.151,2.578,28.220
5.109,-50.065,-109.155,-75.174,-5.170,77.696,-180.599,379.585,-723.602,560.983,99.288,2.607,27.891
5.120,-50.419,-109.199,-75.270,-5.170,77.696,-180.599,375.340,-726.204,559.267,99.425,2.636,27.544
5.129,-50.592,-109.216,-75.317,-5.170,77.696,-180.599,373.231,-727.440,558.485,99.489,2.649,27.374
5.140,-50.921,-109.243,-75.392,-5.170,77.696,-180.599,369.184,-729.746,557.238,99.589,2.671,27.049
5.151,-51.211,-109.253,-75.451,-5.170,77.696,-180.599,365.541,-731.668,556.428,99.656,2.685,26.762
5.159,-51.352,-109.251,-75.477,-5.170,77.695,-180.599,363.726,-732.567,556.155,99.679,2.690,26.621
5.177,-51.633,-109.246,-75.511,-5.170,77.695,-180.599,360.119,-734.316,555.831,99.708,2.696,26.342
5.180,-51.891,-109.238,-75.527,-5.169,77.696,-180.599,356.776,-735.886,555.772,99.714,2.697,26.085
5.189,-52.017,-109.233,-75.528,-5.169,77.696,-180.600,355.136,-736.638,555.834,99.710,2.697,25.959
5.199,-52.252,-109.219,-75.517,-5.168,77.695,-180.600,352.048,-738.008,556.150,99.685,2.692,25.723
5.209,-52.455,-109.196,-75.512,-5.168,77.694,-180.599,349.312,-739.119,556.538,99.657,2.686,25.517
5.219,-52.549,-109.180,-75.511,-5.168,77.695,-180.600,348.036,-739.600,556.766,99.641,2.682,25.422
5.229,-52.720,-109.142,-75.511,-5.167,77.695,-180.599,345.652,-740.415,557.297,99.603,2.674,25.249
5.239,-52.871,-109.092,-75.510,-5.168,77.695,-180.599,343.483,-741.036,558.001,99.554,2.664,25.096
5.249,-52.934,-109.066,-75.512,-5.168,77.695,-180.599,342.563,-741.257,558.339,99.531,2.659,25.033
5.260,-53.034,-109.016,-75.513,-5.168,77.695,-180.599,341.043,-741.567,559.018,99.483,2.649,24.930
5.269,-53.114,-108.975,-75.511,-5.168,77.694,-180.600,339.829,-741.797,559.616,99.441,2.640,24.848
5.279,-53.157,-108.956,-75.509,-5.167,77.695,-180.599,339.187,-741.939,559.913,99.419,2.635,24.805
5.290,-53.219,-108.922,-75.508,-5.168,77.695,-180.599,338.236,-742.105,560.395,99.385,2.628,24.741
5.300,-53.273,-108.889,-75.506,-5.167,77.696,-180.599,337.391,-742.233,560.872,99.351,2.620,24.686
5.310,-53.292,-108.872,-75.505,-5.167,77.695,-180.599,337.066,-742.247,561.115,99.334,2.617,24.665
5.320,-53.313,-108.840,-75.506,-5.168,77.695,-180.599,336.663,-742.178,561.547,99.304,2.610,24.643
5.330,-53.323,-108.812,-75.507,-5.167,77.694,-180.600,336.394,-742.073,561.942,99.276,2.605,24.631
5.340,-53.326,-108.800,-75.507,-5.168,77.695,-180.599,336.315,-742.014,562.109,99.264,2.602,24.629
5.350,-53.321,-108.784,-75.505,-5.167,77.695,-180.600,336.306,-741.893,562.345,99.247,2.598,24.633
5.360,-53.313,-108.771,-75.505,-5.168,77.696,-180.600,336.358,-741.770,562.521,99.235,2.596,24.641
5.372,-53.311,-108.764,-75.505,-5.167,77.696,-180.599,336.356,-741.713,562.625,99.227,2.594,24.643
5.380,-53.309,-108.752,-75.504,-5.167,77.696,-180.600,336.323,-741.636,562.794,99.215,2.591,24.644
5.390,-53.310,-108.746,-75.505,-5.167,77.696,-180.600,336.281,-741.604,562.881,99.209,2.590,24.642
5.400,-53.309,-108.746,-75.505,-5.167,77.696,-180.600,336.303,-741.597,562.875,99.210,2.590,24.644
5.410,-53.305,-108.749,-75.506,-5.168,77.696,-180.599,336.362,-741.591,562.822,99.214,2.591,24.648
5.419,-53.298,-108.754,-75.508,-5.168,77.697,-180.600,336.477,-741.582,562.725,99.221,2.593,24.656
5.430,-53.295,-108.757,-75.509,-5.168,77.696,-180.600,336.534,-741.580,562.670,99.225,2.594,24.659
5.440,-53.289,-108.762,-75.512,-5.169,77.697,-180.600,336.632,-741.574,562.572,99.233,2.595,24.666
5.450,-53.287,-108.765,-75.513,-5.168,77.697,-180.600,336.666,-741.582,562.521,99.237,2.596,24.667
5.460,-53.288,-108.765,-75.514,-5.168,77.696,-180.600,336.657,-741.592,562.501,99.238,2.596,24.666
5.470,-53.290,-108.769,-75.515,-5.168,77.696,-180.599,336.649,-741.623,562.439,99.243,2.597,24.665
5.479,-53.291,-108.776,-75.519,-5.168,77.696,-180.599,336.671,-741.670,562.294,99.254,2.599,24.665
5.490,-53.292,-108.782,-75.523,-5.168,77.697,-180.600,336.682,-741.713,562.167,99.263,2.602,24.664
5.500,-53.294,-108.795,-75.529,-5.168,77.697,-180.600,336.719,-741.800,561.924,99.281,2.605,24.663
5.510,-53.296,-108.808,-75.534,-5.168,77.697,-180.600,336.743,-741.896,561.676,99.300,2.609,24.661
5.520,-53.299,-108.815,-75.537,-5.168,77.696,-180.600,336.742,-741.951,561.548,99.309,2.611,24.659
5.530,-53.304,-108.827,-75.545,-5.168,77.697,-180.600,336.726,-742.060,561.281,99.329,2.616,24.655
5.540,-53.311,-108.840,-75.560,-5.168,77.696,-180.600,336.695,-742.179,560.939,99.356,2.621,24.649
5.550,-53.314,-108.846,-75.569,-5.168,77.696,-180.600,336.689,-742.232,560.754,99.370,2.624,24.647
5.560,-53.317,-108.859,-75.594,-5.167,77.696,-180.600,336.702,-742.334,560.286,99.407,2.632,24.645
5.570,-53.317,-108.865,-75.629,-5.168,77.696,-180.600,336.734,-742.378,559.801,99.447,2.641,24.646
5.580,-53.317,-108.867,-75.645,-5.168,77.696,-180.600,336.760,-742.391,559.583,99.466,2.645,24.648
5.590,-53.315,-108.876,-75.683,-5.167,77.696,-180.600,336.825,-742.440,559.024,99.511,2.655,24.652
5.600,-53.313,-108.894,-75.715,-5.167,77.696,-180.600,336.940,-742.539,558.415,99.559,2.665,24.657
5.610,-53.312,-108.904,-75.733,-5.167,77.697,-180.600,336.995,-742.602,558.055,99.588,2.671,24.659
5.620,-53.313,-108.936,-75.770,-5.167,77.696,-180.600,337.132,-742.803,557.179,99.656,2.685,24.661
5.630,-53.313,-108.980,-75.810,-5.167,77.697,-180.600,337.327,-743.065,556.112,99.737,2.703,24.665
5.643,-53.313,-109.007,-75.834,-5.167,77.697,-180.600,337.449,-743.228,555.460,99.787,2.713,24.667
5.650,-53.314,-109.061,-75.890,-5.167,77.696,-180.600,337.673,-743.556,554.068,99.895,2.736,24.671
5.660,-53.314,-109.113,-75.958,-5.167,77.696,-180.600,337.905,-743.867,552.568,100.011,2.761,24.677
5.672,-53.314,-109.145,-76.009,-5.167,77.697,-180.600,338.048,-744.060,551.525,100.094,2.778,24.681
5.680,-53.316,-109.200,-76.096,-5.167,77.697,-180.600,338.269,-744.397,549.759,100.232,2.808,24.686
5.692,-53.318,-109.269,-76.211,-5.166,77.697,-180.600,338.540,-744.815,547.482,100.412,2.846,24.692
5.703,-53.320,-109.308,-76.275,-5.166,77.696,-180.600,338.689,-745.051,546.198,100.513,2.867,24.696
5.710,-53.322,-109.393,-76.431,-5.166,77.696,-180.600,339.020,-745.555,543.224,100.748,2.917,24.705
5.720,-53.327,-109.502,-76.614,-5.166,77.696,-180.600,339.414,-746.197,539.589,101.035,2.978,24.715
5.730,-53.329,-109.547,-76.691,-5.166,77.696,-180.600,339.573,-746.456,538.074,101.154,3.003,24.719
5.740,-53.332,-109.666,-76.883,-5.166,77.696,-180.600,340.016,-747.124,534.190,101.460,3.068,24.732
5.750,-53.333,-109.806,-77.088,-5.166,77.696,-180.600,340.559,-747.875,529.873,101.798,3.139,24.750
5.760,-53.334,-109.885,-77.195,-5.166,77.696,-180.600,340.845,-748.293,527.543,101.979,3.177,24.758
5.770,-53.336,-110.066,-77.416,-5.165,77.696,-180.600,341.521,-749.233,522.454,102.373,3.260,24.779
5.780,-53.338,-110.276,-77.650,-5.165,77.696,-180.600,342.275,-750.292,516.825,102.807,3.352,24.802
5.790,-53.338,-110.380,-77.772,-5.165,77.696,-180.600,342.656,-750.802,513.949,103.029,3.398,24.815
5.800,-53.339,-110.587,-78.039,-5.166,77.696,-180.600,343.357,-751.778,507.969,103.494,3.495,24.842
5.812,-53.338,-110.790,-78.319,-5.166,77.697,-180.600,344.046,-752.684,501.873,103.969,3.594,24.872
5.820,-53.339,-110.898,-78.468,-5.167,77.696,-180.600,344.389,-753.154,498.634,104.222,3.647,24.887
5.830,-53.338,-111.130,-78.775,-5.166,77.696,-180.600,345.119,-754.124,491.832,104.750,3.757,24.922
5.840,-53.336,-111.384,-79.093,-5.167,77.696,-180.600,345.903,-755.134,484.584,105.312,3.873,24.961
5.850,-53.336,-111.523,-79.254,-5.167,77.696,-180.600,346.321,-755.679,480.769,105.606,3.934,24.982
5.860,-53.334,-111.825,-79.582,-5.167,77.696,-180.600,347.199,-756.825,472.718,106.225,4.061,25.026
5.870,-53.331,-112.126,-79.899,-5.170,77.696,-180.600,348.058,-757.899,464.789,106.835,4.186,25.074
5.880,-53.329,-112.273,-80.056,-5.171,77.696,-180.600,348.464,-758.393,460.894,107.134,4.247,25.098
5.890,-53.326,-112.573,-80.363,-5.170,77.696,-180.600,349.251,-759.376,453.115,107.730,4.369,25.146
5.901,-53.315,-112.904,-80.698,-5.172,77.697,-180.600,350.162,-760.352,444.561,108.386,4.502,25.207
5.911,-53.311,-113.034,-80.826,-5.172,77.697,-180.600,350.510,-760.720,441.244,108.639,4.553,25.231
5.920,-53.300,-113.361,-81.151,-5.172,77.697,-180.600,351.348,-761.584,432.862,109.281,4.682,25.294
5.930,-53.284,-113.599,-81.404,-5.176,77.697,-180.600,352.029,-762.089,426.549,109.768,4.780,25.351
5.945,-53.270,-113.714,-81.535,-5.178,77.697,-180.600,352.400,-762.274,423.406,110.012,4.829,25.385
5.950,-53.232,-113.915,-81.781,-5.179,77.696,-180.600,353.213,-762.457,417.724,110.453,4.917,25.459
5.960,-53.184,-114.088,-82.004,-5.180,77.697,-180.600,354.091,-762.470,412.722,110.843,4.994,25.542
5.971,-53.154,-114.172,-82.124,-5.181,77.697,-180.600,354.588,-762.405,410.144,111.045,5.034,25.590
5.980,-53.099,-114.279,-82.293,-5.180,77.697,-180.600,355.407,-762.184,406.701,111.316,5.088,25.669
5.990,-53.043,-114.367,-82.474,-5.183,77.697,-180.600,356.170,-761.848,403.372,111.584,5.141,25.749
6.002,-53.016,-114.407,-82.548,-5.184,77.697,-180.600,356.543,-761.700,401.957,111.697,5.163,25.787
6.010,-52.968,-114.467,-82.677,-5.184,77.697,-180.600,357.163,-761.395,399.639,111.883,5.200,25.851
6.020,-52.929,-114.502,-82.766,-5.183,77.697,-180.600,357.664,-761.117,398.142,112.004,5.224,25.901
6.030,-52.909,-114.515,-82.801,-5.184,77.697,-180.600,357.917,-760.974,397.556,112.053,5.233,25.926
6.039,-52.880,-114.530,-82.828,-5.184,77.697,-180.600,358.297,-760.799,397.033,112.095,5.241,25.958
6.049,-52.850,-114.541,-82.848,-5.184,77.697,-180.600,358.699,-760.614,396.655,112.124,5.247,25.991
6.060,-52.836,-114.546,-82.851,-5.183,77.697,-180.600,358.892,-760.539,396.554,112.131,5.249,26.005
6.073,-52.821,-114.540,-82.849,-5.182,77.698,-180.600,359.084,-760.427,396.665,112.123,5.247,26.020
6.079,-52.807,-114.520,-82.835,-5.180,77.697,-180.600,359.230,-760.293,397.121,112.087,5.240,26.030
6.089,-52.799,-114.504,-82.830,-5.180,77.697,-180.600,359.302,-760.198,397.397,112.067,5.236,26.036
6.099,-52.792,-114.475,-82.825,-5.179,77.697,-180.600,359.325,-760.057,397.883,112.032,5.229,26.041
6.109,-52.795,-114.437,-82.820,-5.179,77.697,-180.600,359.189,-759.950,398.481,111.990,5.221,26.033
6.119,-52.795,-114.418,-82.819,-5.180,77.697,-180.600,359.140,-759.881,398.757,111.971,5.217,26.032
6.129,-52.796,-114.388,-82.822,-5.179,77.697,-180.600,359.036,-759.773,399.165,111.944,5.212,26.028
6.139,-52.799,-114.367,-82.824,-5.180,77.697,-180.600,358.935,-759.718,399.433,111.926,5.209,26.023
6.149,-52.801,-114.362,-82.821,-5.179,77.697,-180.600,358.894,-759.715,399.550,111.917,5.207,26.020
6.159,-52.805,-114.348,-82.820,-5.179,77.697,-180.600,358.808,-759.691,399.756,111.902,5.204,26.015
6.169,-52.806,-114.332,-82.822,-5.180,77.697,-180.600,358.753,-759.632,399.965,111.889,5.202,26.013
6.179,-52.806,-114.323,-82.823,-5.180,77.697,-180.600,358.723,-759.602,400.088,111.881,5.200,26.012
6.189,-52.809,-114.316,-82.821,-5.179,77.696,-180.600,358.670,-759.598,400.213,111.871,5.198,26.008
6.199,-52.808,-114.316,-82.820,-5.179,77.697,-180.600,358.679,-759.595,400.225,111.870,5.198,26.009
6.209,-52.809,-114.317,-82.821,-5.179,77.697,-180.600,358.673,-759.600,400.202,111.872,5.198,26.009
6.220,-52.810,-114.320,-82.821,-5.179,77.697,-180.600,358.668,-759.619,400.149,111.876,5.199,26.008
6.229,-52.810,-114.324,-82.823,-5.180,77.697,-180.600,358.678,-759.629,400.060,111.883,5.200,26.009
6.239,-52.809,-114.326,-82.824,-5.180,77.697,-180.600,358.692,-759.629,400.022,111.886,5.201,26.010
6.249,-52.808,-114.327,-82.824,-5.180,77.697,-180.600,358.713,-759.622,400.017,111.886,5.201,26.011
6.259,-52.807,-114.327,-82.823,-5.180,77.697,-180.600,358.727,-759.621,400.015,111.886,5.201,26.012
6.270,-52.806,-114.329,-82.823,-5.180,77.697,-180.600,358.740,-759.621,399.994,111.888,5.201,26.013
6.279,-52.806,-114.332,-82.824,-5.180,77.697,-180.600,358.746,-759.630,399.946,111.891,5.202,26.013
6.289,-52.806,-114.332,-82.822,-5.181,77.697,-180.600,358.754,-759.633,399.956,111.890,5.202,26.013
6.299,-52.806,-114.331,-82.822,-5.180,77.697,-180.600,358.755,-759.631,399.977,111.888,5.201,26.013
6.309,-52.804,-114.330,-82.820,-5.180,77.697,-180.600,358.768,-759.620,400.023,111.885,5.200,26.014
6.319,-52.804,-114.328,-82.818,-5.180,77.697,-180.600,358.768,-759.616,400.073,111.881,5.200,26.014
6.329,-52.804,-114.328,-82.817,-5.179,77.697,-180.600,358.770,-759.619,400.086,111.879,5.199,26.014
6.339,-52.805,-114.329,-82.816,-5.180,77.697,-180.600,358.769,-759.627,400.078,111.880,5.200,26.014
6.349,-52.806,-114.330,-82.816,-5.180,77.697,-180.600,358.753,-759.640,400.055,111.882,5.200,26.012
6.360,-52.807,-114.330,-82.816,-5.180,77.697,-180.600,358.739,-759.645,400.056,111.881,5.200,26.011
6.369,-52.810,-114.329,-82.815,-5.180,77.697,-180.600,358.706,-759.659,400.077,111.880,5.199,26.009
6.379,-52.811,-114.329,-82.814,-5.180,77.697,-180.600,358.688,-759.670,400.103,111.878,5.199,26.007
6.390,-52.812,-114.329,-82.811,-5.180,77.697,-180.600,358.676,-759.682,400.126,111.876,5.199,26.006
6.399,-52.813,-114.330,-82.804,-5.179,77.697,-180.600,358.680,-759.700,400.198,111.869,5.198,26.004
6.409,-52.812,-114.331,-82.791,-5.180,77.697,-180.600,358.709,-759.724,400.334,111.857,5.195,26.004
6.419,-52.812,-114.331,-82.782,-5.180,77.697,-180.600,358.726,-759.740,400.424,111.849,5.194,26.004
6.429,-52.812,-114.332,-82.755,-5.180,77.697,-180.600,358.757,-759.794,400.713,111.824,5.189,26.001
6.439,-52.813,-114.334,-82.725,-5.180,77.697,-180.600,358.794,-759.859,401.024,111.796,5.183,25.998
6.449,-52.813,-114.338,-82.703,-5.181,77.697,-180.600,358.828,-759.912,401.225,111.778,5.179,25.995
6.459,-52.814,-114.343,-82.660,-5.180,77.697,-180.600,358.888,-760.012,401.629,111.741,5.173,25.992
6.469,-52.815,-114.345,-82.618,-5.181,77.697,-180.600,358.937,-760.099,402.075,111.702,5.165,25.987
6.480,-52.815,-114.346,-82.597,-5.181,77.697,-180.600,358.975,-760.137,402.303,111.682,5.161,25.986
6.489,-52.813,-114.344,-82.546,-5.180,77.697,-180.600,359.062,-760.207,402.896,111.630,5.150,25.983
6.499,-52.811,-114.344,-82.481,-5.181,77.697,-180.600,359.173,-760.305,403.635,111.566,5.138,25.979
6.509,-52.810,-114.346,-82.440,-5.180,77.697,-180.600,359.245,-760.375,404.081,111.527,5.130,25.977
6.523,-52.809,-114.348,-82.344,-5.180,77.697,-180.600,359.390,-760.543,405.132,111.434,5.112,25.970
6.530,-52.810,-114.351,-82.229,-5.180,77.697,-180.600,359.530,-760.759,406.389,111.324,5.090,25.958
6.539,-52.811,-114.353,-82.169,-5.180,77.697,-180.600,359.602,-760.867,407.044,111.267,5.079,25.953
6.549,-52.812,-114.353,-82.047,-5.181,77.697,-180.600,359.742,-761.081,408.415,111.147,5.055,25.941
6.561,-52.812,-114.355,-81.906,-5.181,77.697,-180.600,359.927,-761.316,409.981,111.011,5.028,25.929
6.569,-52.812,-114.356,-81.830,-5.180,77.697,-180.600,360.021,-761.445,410.837,110.936,5.013,25.922
6.579,-52.811,-114.359,-81.665,-5.180,77.697,-180.600,360.245,-761.718,412.662,110.776,4.981,25.909
6.589,-52.811,-114.368,-81.483,-5.180,77.697,-180.600,360.488,-762.038,414.593,110.606,4.948,25.895
6.599,-52.811,-114.375,-81.384,-5.180,77.697,-180.600,360.623,-762.225,415.613,110.515,4.929,25.887
6.609,-52.814,-114.397,-81.176,-5.179,77.697,-180.600,360.892,-762.645,417.666,110.331,4.893,25.868
6.619,-52.818,-114.433,-80.950,-5.179,77.697,-180.600,361.207,-763.151,419.712,110.144,4.855,25.848
6.629,-52.822,-114.460,-80.832,-5.179,77.697,-180.600,361.369,-763.456,420.663,110.055,4.838,25.837
6.639,-52.834,-114.530,-80.586,-5.178,77.697,-180.600,361.691,-764.168,422.443,109.881,4.803,25.810
6.649,-52.859,-114.614,-80.342,-5.179,77.697,-180.600,361.874,-765.012,423.990,109.725,4.772,25.772
6.659,-52.878,-114.661,-80.217,-5.178,77.697,-180.600,361.890,-765.495,424.740,109.647,4.756,25.747
6.669,-52.922,-114.755,-79.974,-5.179,77.697,-180.600,361.841,-766.490,426.145,109.501,4.727,25.690
6.680,-52.968,-114.876,-79.707,-5.178,77.697,-180.600,361.874,-767.632,427.436,109.356,4.698,25.633
6.690,-52.993,-114.936,-79.592,-5.178,77.697,-180.600,361.834,-768.190,427.867,109.303,4.687,25.603
6.699,-53.041,-115.054,-79.388,-5.178,77.697,-180.600,361.762,-769.244,428.475,109.218,4.670,25.548
6.709,-53.096,-115.188,-79.189,-5.177,77.697,-180.600,361.622,-770.400,428.795,109.153,4.657,25.488
6.719,-53.126,-115.255,-79.099,-5.177,77.697,-180.600,361.514,-770.980,428.849,109.130,4.652,25.456
6.729,-53.192,-115.399,-78.931,-5.177,77.697,-180.600,361.242,-772.199,428.656,109.107,4.647,25.389
6.740,-53.262,-115.561,-78.767,-5.177,77.697,-180.600,360.941,-773.511,428.169,109.105,4.647,25.318
6.749,-53.302,-115.644,-78.693,-5.177,77.697,-180.600,360.728,-774.195,427.801,109.114,4.649,25.279
6.761,-53.385,-115.819,-78.543,-5.178,77.697,-180.600,360.277,-775.626,426.952,109.139,4.654,25.198
6.770,-53.479,-116.018,-78.402,-5.177,77.697,-180.600,359.731,-777.206,425.643,109.196,4.665,25.108
6.780,-53.532,-116.131,-78.334,-5.177,77.697,-180.600,359.426,-778.082,424.763,109.239,4.674,25.060
6.789,-53.642,-116.366,-78.200,-5.177,77.697,-180.600,358.753,-779.892,422.842,109.339,4.694,24.958
6.799,-53.749,-116.599,-78.072,-5.179,77.697,-180.600,358.095,-781.667,420.876,109.443,4.715,24.858
6.810,-53.797,-116.711,-78.015,-5.179,77.696,-180.600,357.824,-782.489,419.866,109.498,4.726,24.814
6.819,-53.890,-116.938,-77.907,-5.179,77.696,-180.600,357.324,-784.113,417.759,109.615,4.750,24.732
6.829,-53.983,-117.161,-77.810,-5.179,77.696,-180.600,356.780,-785.704,415.575,109.739,4.775,24.649
6.839,-54.023,-117.266,-77.761,-5.178,77.696,-180.600,356.578,-786.434,414.576,109.794,4.786,24.613
6.849,-54.091,-117.466,-77.676,-5.179,77.696,-180.600,356.291,-787.757,412.594,109.907,4.808,24.554
6.860,-54.143,-117.672,-77.593,-5.179,77.696,-180.600,356.240,-788.996,410.480,110.029,4.833,24.512
6.870,-54.166,-117.773,-77.554,-5.180,77.696,-180.600,356.253,-789.581,409.423,110.090,4.845,24.495
6.879,-54.214,-117.959,-77.475,-5.180,77.696,-180.600,356.177,-790.709,407.567,110.195,4.866,24.455
6.890,-54.258,-118.116,-77.405,-5.181,77.696,-180.600,356.079,-791.681,406.028,110.282,4.883,24.419
6.900,-54.278,-118.185,-77.374,-5.181,77.697,-180.600,356.032,-792.109,405.359,110.319,4.890,24.403
6.910,-54.309,-118.311,-77.325,-5.181,77.696,-180.600,355.998,-792.853,404.031,110.396,4.906,24.379
6.920,-54.332,-118.428,-77.283,-5.180,77.696,-180.600,356.039,-793.500,402.781,110.468,4.920,24.362
6.930,-54.345,-118.481,-77.265,-5.180,77.696,-180.600,356.018,-793.803,402.192,110.503,4.927,24.352
6.940,-54.369,-118.573,-77.231,-5.180,77.696,-180.600,355.968,-794.350,401.213,110.560,4.939,24.332
6.950,-54.382,-118.650,-77.206,-5.181,77.696,-180.600,356.013,-794.758,400.345,110.612,4.949,24.323
6.960,-54.384,-118.685,-77.188,-5.181,77.696,-180.600,356.111,-794.925,400.017,110.629,4.952,24.324
6.971,-54.384,-118.743,-77.168,-5.180,77.696,-180.600,356.280,-795.175,399.381,110.666,4.960,24.326
6.980,-54.384,-118.791,-77.149,-5.180,77.696,-180.600,356.435,-795.377,398.886,110.694,4.965,24.329
6.990,-54.383,-118.811,-77.145,-5.181,77.696,-180.600,356.496,-795.458,398.629,110.711,4.968,24.331
7.000,-54.383,-118.843,-77.140,-5.180,77.696,-180.600,356.591,-795.581,398.212,110.737,4.974,24.333
7.010,-54.384,-118.867,-77.142,-5.180,77.697,-180.600,356.644,-795.667,397.838,110.762,4.979,24.335
7.020,-54.384,-118.873,-77.142,-5.180,77.696,-180.600,356.656,-795.690,397.747,110.768,4.980,24.336
7.030,-54.385,-118.874,-77.143,-5.180,77.696,-180.600,356.641,-795.702,397.727,110.769,4.980,24.334
7.040,-54.384,-118.872,-77.140,-5.180,77.696,-180.600,356.652,-795.695,397.785,110.764,4.979,24.335
7.050,-54.383,-118.872,-77.140,-5.179,77.697,-180.600,356.662,-795.688,397.782,110.765,4.979,24.336
7.060,-54.382,-118.872,-77.142,-5.179,77.697,-180.600,356.680,-795.675,397.776,110.765,4.979,24.337
7.070,-54.382,-118.870,-77.140,-5.179,77.697,-180.600,356.683,-795.669,397.815,110.762,4.979,24.338
7.082,-54.382,-118.870,-77.140,-5.179,77.697,-180.600,356.678,-795.671,397.817,110.762,4.979,24.337
7.089,-54.383,-118.869,-77.141,-5.179,77.697,-180.600,356.663,-795.671,397.831,110.761,4.978,24.336
7.100,-54.384,-118.866,-77.140,-5.179,77.696,-180.600,356.640,-795.672,397.877,110.758,4.978,24.334
7.109,-54.384,-118.866,-77.139,-5.179,77.697,-180.600,356.636,-795.671,397.898,110.756,4.978,24.334
7.119,-54.384,-118.866,-77.139,-5.179,77.697,-180.600,356.641,-795.672,397.879,110.757,4.978,24.335
7.130,-54.384,-118.868,-77.142,-5.179,77.697,-180.600,356.648,-795.671,397.835,110.761,4.979,24.336
7.140,-54.384,-118.868,-77.142,-5.179,77.697,-180.600,356.646,-795.673,397.826,110.762,4.979,24.335
7.149,-54.384,-118.868,-77.142,-5.179,77.696,-180.600,356.642,-795.675,397.829,110.761,4.979,24.335
7.160,-54.385,-118.868,-77.142,-5.179,77.697,-180.601,356.634,-795.677,397.835,110.761,4.979,24.335
7.170,-54.385,-118.868,-77.141,-5.179,77.697,-180.600,356.630,-795.680,397.835,110.761,4.979,24.334
7.183,-54.385,-118.869,-77.142,-5.179,77.696,-180.600,356.631,-795.683,397.809,110.763,4.979,24.334
7.193,-54.384,-118.872,-77.145,-5.179,77.697,-180.600,356.655,-795.683,397.727,110.769,4.980,24.336
7.205,-54.383,-118.874,-77.146,-5.179,77.697,-180.600,356.664,-795.686,397.679,110.773,4.981,24.337
7.215,-54.381,-118.879,-77.149,-5.180,77.697,-180.600,356.697,-795.685,397.583,110.780,4.982,24.339
7.221,-54.380,-118.884,-77.151,-5.179,77.697,-180.600,356.730,-795.696,397.482,110.787,4.984,24.341
7.230,-54.380,-118.888,-77.151,-5.179,77.697,-180.600,356.745,-795.707,397.417,110.791,4.984,24.342
7.240,-54.380,-118.900,-77.152,-5.179,77.697,-180.600,356.776,-795.746,397.235,110.803,4.987,24.343
7.252,-54.380,-118.920,-77.153,-5.179,77.697,-180.600,356.815,-795.821,396.928,110.824,4.991,24.344
7.260,-54.381,-118.929,-77.154,-5.179,77.697,-180.600,356.831,-795.857,396.787,110.833,4.993,24.345
7.270,-54.382,-118.951,-77.157,-5.179,77.697,-180.600,356.865,-795.942,396.420,110.858,4.998,24.345
7.280,-54.385,-118.983,-77.159,-5.179,77.697,-180.600,356.913,-796.071,395.918,110.891,5.005,24.346
7.292,-54.386,-119.004,-77.159,-5.178,77.697,-180.600,356.950,-796.155,395.605,110.912,5.009,24.346
7.300,-54.389,-119.050,-77.162,-5.178,77.697,-180.600,357.026,-796.335,394.882,110.960,5.018,24.347
7.310,-54.395,-119.103,-77.167,-5.178,77.696,-180.600,357.068,-796.558,394.042,111.017,5.029,24.346
7.320,-54.400,-119.133,-77.171,-5.179,77.697,-180.600,357.070,-796.691,393.544,111.051,5.036,24.344
7.330,-54.412,-119.202,-77.180,-5.178,77.697,-180.600,357.074,-796.994,392.410,111.128,5.051,24.339
7.342,-54.420,-119.284,-77.188,-5.178,77.696,-180.600,357.156,-797.326,391.098,111.216,5.069,24.338
7.351,-54.424,-119.328,-77.191,-5.178,77.696,-180.600,357.211,-797.500,390.414,111.262,5.078,24.338
7.360,-54.432,-119.416,-77.199,-5.179,77.696,-180.600,357.321,-797.845,389.003,111.357,5.097,24.339
7.370,-54.437,-119.517,-77.208,-5.178,77.696,-180.601,357.484,-798.223,387.378,111.466,5.119,24.343
7.383,-54.439,-119.571,-77.217,-5.179,77.696,-180.600,357.589,-798.406,386.476,111.527,5.131,24.347
7.392,-54.439,-119.688,-77.232,-5.179,77.696,-180.600,357.863,-798.785,384.567,111.656,5.156,24.359
7.400,-54.439,-119.819,-77.242,-5.179,77.697,-180.600,358.175,-799.220,382.476,111.797,5.184,24.372
7.410,-54.439,-119.892,-77.246,-5.178,77.697,-180.600,358.349,-799.464,381.336,111.872,5.198,24.379
7.420,-54.437,-120.050,-77.258,-5.178,77.696,-180.600,358.738,-799.973,378.842,112.039,5.231,24.395
7.431,-54.436,-120.217,-77.275,-5.178,77.697,-180.601,359.138,-800.497,376.136,112.221,5.267,24.413
7.440,-54.435,-120.301,-77.287,-5.178,77.697,-180.600,359.328,-800.748,374.744,112.315,5.285,24.423
7.450,-54.434,-120.482,-77.312,-5.178,77.697,-180.600,359.746,-801.291,371.750,112.518,5.325,24.443
7.460,-54.433,-120.701,-77.349,-5.178,77.697,-180.601,360.216,-801.930,368.045,112.769,5.375,24.467
7.474,-54.432,-120.788,-77.360,-5.178,77.696,-180.600,360.416,-802.183,366.595,112.867,5.394,24.477
7.480,-54.430,-120.987,-77.398,-5.179,77.697,-180.600,360.838,-802.733,363.172,113.101,5.439,24.501
7.494,-54.429,-121.176,-77.450,-5.179,77.696,-180.601,361.202,-803.216,359.737,113.340,5.486,24.525
7.500,-54.428,-121.269,-77.483,-5.179,77.697,-180.600,361.377,-803.427,357.974,113.463,5.510,24.538
7.510,-54.426,-121.462,-77.553,-5.179,77.697,-180.601,361.729,-803.862,354.275,113.723,5.560,24.565
7.520,-54.424,-121.662,-77.621,-5.179,77.697,-180.600,362.080,-804.306,350.497,113.987,5.611,24.593
7.530,-54.423,-121.778,-77.660,-5.180,77.697,-180.600,362.278,-804.558,348.309,114.140,5.640,24.609
7.540,-54.422,-121.964,-77.725,-5.180,77.697,-180.600,362.576,-804.957,344.769,114.388,5.688,24.634
7.550,-54.422,-122.185,-77.800,-5.179,77.697,-180.601,362.918,-805.425,340.588,114.680,5.745,24.663
7.560,-54.422,-122.295,-77.842,-5.179,77.696,-180.600,363.071,-805.640,338.464,114.830,5.773,24.678
7.570,-54.422,-122.518,-77.938,-5.181,77.697,-180.601,363.356,-806.038,334.015,115.146,5.834,24.710
7.580,-54.422,-122.693,-78.020,-5.181,77.697,-180.600,363.559,-806.322,330.450,115.400,5.882,24.736
7.590,-54.422,-122.787,-78.070,-5.182,77.697,-180.601,363.653,-806.456,328.469,115.543,5.909,24.751
7.600,-54.421,-122.979,-78.178,-5.181,77.697,-180.600,363.845,-806.694,324.357,115.839,5.965,24.783
7.610,-54.419,-123.165,-78.289,-5.181,77.697,-180.601,364.020,-806.892,320.305,116.132,6.021,24.815
7.620,-54.419,-123.261,-78.352,-5.181,77.697,-180.600,364.086,-806.976,318.155,116.289,6.051,24.832
7.629,-54.418,-123.408,-78.441,-5.182,77.697,-180.601,364.197,-807.112,314.951,116.522,6.095,24.857
7.639,-54.418,-123.570,-78.539,-5.181,77.697,-180.601,364.312,-807.252,311.409,116.779,6.143,24.886
7.650,-54.417,-123.650,-78.587,-5.181,77.697,-180.600,364.375,-807.318,309.665,116.906,6.166,24.900
7.659,-54.414,-123.816,-78.686,-5.181,77.697,-180.601,364.500,-807.437,306.042,117.169,6.216,24.930
7.669,-54.413,-123.943,-78.765,-5.181,77.697,-180.601,364.584,-807.513,303.268,117.371,6.253,24.954
7.679,-54.413,-124.006,-78.811,-5.182,77.697,-180.601,364.595,-807.535,301.797,117.480,6.274,24.966
7.689,-54.413,-124.133,-78.908,-5.182,77.697,-180.600,364.617,-807.558,298.804,117.701,6.315,24.990
7.699,-54.414,-124.249,-79.021,-5.181,77.697,-180.601,364.557,-807.513,295.795,117.928,6.357,25.014
7.710,-54.415,-124.304,-79.076,-5.181,77.697,-180.601,364.523,-807.485,294.367,118.036,6.377,25.025
7.719,-54.416,-124.400,-79.186,-5.182,77.697,-180.601,364.432,-807.392,291.695,118.241,6.415,25.047
7.730,-54.418,-124.495,-79.303,-5.181,77.697,-180.601,364.315,-807.273,288.972,118.450,6.454,25.068
7.740,-54.418,-124.551,-79.380,-5.181,77.697,-180.601,364.247,-807.170,287.289,118.581,6.478,25.083
7.750,-54.417,-124.636,-79.505,-5.182,77.697,-180.601,364.122,-806.978,284.624,118.790,6.516,25.107
7.760,-54.418,-124.726,-79.642,-5.181,77.697,-180.601,363.958,-806.762,281.778,119.013,6.558,25.133
7.769,-54.419,-124.769,-79.711,-5.181,77.697,-180.601,363.860,-806.651,280.363,119.125,6.578,25.144
7.779,-54.418,-124.862,-79.846,-5.182,77.697,-180.601,363.705,-806.427,277.479,119.351,6.619,25.171
7.789,-54.420,-124.966,-79.979,-5.180,77.697,-180.600,363.542,-806.239,274.466,119.584,6.662,25.196
7.799,-54.421,-125.021,-80.043,-5.180,77.697,-180.601,363.463,-806.152,272.938,119.702,6.683,25.209
7.809,-54.421,-125.126,-80.172,-5.181,77.697,-180.601,363.317,-805.951,269.954,119.934,6.725,25.236
7.820,-54.421,-125.230,-80.292,-5.180,77.697,-180.601,363.187,-805.769,267.068,120.156,6.765,25.262
7.829,-54.421,-125.283,-80.353,-5.180,77.697,-180.601,363.112,-805.675,265.617,120.268,6.786,25.274
7.839,-54.421,-125.383,-80.485,-5.181,77.697,-180.601,362.946,-805.429,262.677,120.498,6.827,25.302
7.849,-54.421,-125.474,-80.622,-5.181,77.697,-180.601,362.746,-805.145,259.809,120.725,6.868,25.330
7.862,-54.421,-125.516,-80.693,-5.181,77.697,-180.601,362.634,-804.989,258.413,120.836,6.888,25.343
7.870,-54.421,-125.599,-80.855,-5.180,77.697,-180.601,362.348,-804.602,255.407,121.080,6.932,25.372
7.879,-54.420,-125.680,-81.031,-5.182,77.697,-180.601,362.047,-804.144,252.291,121.335,6.977,25.404
7.889,-54.419,-125.724,-81.118,-5.182,77.697,-180.601,361.898,-803.921,250.688,121.465,7.000,25.421
7.899,-54.419,-125.817,-81.290,-5.181,77.697,-180.601,361.588,-803.489,247.440,121.728,7.047,25.453
7.909,-54.418,-125.919,-81.451,-5.183,77.697,-180.601,361.327,-803.086,244.169,121.990,7.093,25.486
7.919,-54.417,-125.976,-81.527,-5.182,77.697,-180.601,361.208,-802.905,242.493,122.122,7.117,25.503
7.929,-54.417,-126.109,-81.684,-5.182,77.697,-180.601,360.953,-802.554,238.825,122.409,7.167,25.539
7.939,-54.416,-126.225,-81.807,-5.182,77.697,-180.601,360.780,-802.278,235.766,122.646,7.209,25.570
7.949,-54.416,-126.295,-81.883,-5.182,77.697,-180.601,360.655,-802.103,233.889,122.792,7.234,25.588
7.959,-54.416,-126.404,-82.003,-5.181,77.697,-180.601,360.454,-801.822,230.980,123.018,7.274,25.617
7.970,-54.414,-126.519,-82.124,-5.181,77.697,-180.601,360.270,-801.524,227.960,123.253,7.315,25.648
7.979,-54.414,-126.571,-82.183,-5.181,77.697,-180.601,360.177,-801.369,226.561,123.362,7.334,25.663
7.989,-54.413,-126.660,-82.308,-5.181,77.697,-180.601,359.935,-801.017,223.896,123.575,7.371,25.691
8.000,-54.410,-126.733,-82.436,-5.183,77.697,-180.601,359.706,-800.612,221.433,123.776,7.405,25.720
8.010,-54.407,-126.768,-82.497,-5.184,77.697,-180.601,359.615,-800.409,220.264,123.872,7.422,25.735
8.019,-54.401,-126.828,-82.612,-5.183,77.697,-180.601,359.432,-800.014,218.154,124.045,7.452,25.763
8.029,-54.394,-126.876,-82.716,-5.184,77.697,-180.601,359.294,-799.630,216.332,124.197,7.478,25.790
8.040,-54.390,-126.896,-82.766,-5.184,77.697,-180.601,359.226,-799.445,215.509,124.267,7.490,25.803
8.049,-54.383,-126.935,-82.845,-5.185,77.697,-180.601,359.151,-799.134,214.084,124.385,7.510,25.826
8.059,-54.379,-126.971,-82.910,-5.184,77.697,-180.601,359.056,-798.904,212.857,124.486,7.527,25.843
8.069,-54.378,-126.991,-82.941,-5.185,77.697,-180.601,359.003,-798.816,212.326,124.529,7.535,25.850
8.079,-54.379,-127.017,-82.983,-5.184,77.697,-180.601,358.894,-798.672,211.405,124.603,7.547,25.859
8.089,-54.380,-127.031,-83.021,-5.184,77.697,-180.601,358.774,-798.552,210.799,124.655,7.556,25.864
8.100,-54.382,-127.032,-83.039,-5.184,77.697,-180.601,358.709,-798.494,210.585,124.675,7.559,25.865
8.110,-54.383,-127.030,-83.066,-5.184,77.697,-180.601,358.616,-798.396,210.329,124.699,7.563,25.867
8.120,-54.384,-127.025,-83.082,-5.183,77.697,-180.601,358.554,-798.340,210.247,124.709,7.565,25.867
8.129,-54.384,-127.024,-83.078,-5.182,77.697,-180.601,358.568,-798.354,210.310,124.703,7.564,25.867
8.139,-54.385,-127.018,-83.069,-5.182,77.697,-180.601,358.569,-798.388,210.497,124.688,7.562,25.863
8.150,-54.387,-127.004,-83.064,-5.181,77.697,-180.601,358.542,-798.412,210.760,124.668,7.558,25.859
8.159,-54.389,-126.997,-83.062,-5.181,77.697,-180.601,358.524,-798.417,210.876,124.660,7.557,25.856
8.170,-54.392,-126.985,-83.059,-5.181,77.697,-180.601,358.480,-798.436,211.103,124.644,7.555,25.851
8.179,-54.394,-126.969,-83.058,-5.181,77.696,-180.601,358.444,-798.439,211.346,124.627,7.552,25.846
8.189,-54.393,-126.963,-83.058,-5.181,77.696,-180.601,358.450,-798.426,211.438,124.621,7.551,25.846
8.199,-54.390,-126.961,-83.060,-5.181,77.696,-180.601,358.486,-798.400,211.458,124.621,7.551,25.849
8.209,-54.386,-126.965,-83.061,-5.182,77.697,-180.601,358.545,-798.372,211.377,124.627,7.552,25.855
8.220,-54.384,-126.967,-83.063,-5.182,77.697,-180.601,358.569,-798.354,211.336,124.630,7.552,25.857
8.231,-54.381,-126.972,-83.063,-5.182,77.697,-180.601,358.612,-798.341,211.257,124.636,7.553,25.861
8.239,-54.381,-126.977,-83.064,-5.183,77.697,-180.601,358.610,-798.344,211.161,124.643,7.554,25.862
8.249,-54.381,-126.979,-83.064,-5.183,77.697,-180.602,358.607,-798.348,211.134,124.644,7.555,25.862
8.260,-54.383,-126.982,-83.063,-5.183,77.697,-180.602,358.587,-798.362,211.093,124.647,7.555,25.860
8.269,-54.383,-126.982,-83.063,-5.183,77.697,-180.601,358.586,-798.366,211.094,124.647,7.555,25.860
8.280,-54.383,-126.983,-83.063,-5.183,77.697,-180.602,358.587,-798.366,211.091,124.647,7.555,25.860
8.289,-54.383,-126.982,-83.063,-5.183,77.697,-180.602,358.583,-798.365,211.101,124.646,7.555,25.860
8.299,-54.385,-126.980,-83.062,-5.182,77.697,-180.602,358.564,-798.375,211.128,124.644,7.555,25.858
8.309,-54.386,-126.979,-83.062,-5.182,77.697,-180.602,358.546,-798.383,211.148,124.643,7.554,25.857
8.319,-54.390,-126.978,-83.062,-5.182,77.697,-180.602,358.493,-798.407,211.174,124.641,7.554,25.853
8.329,-54.393,-126.976,-83.062,-5.182,77.697,-180.602,358.447,-798.426,211.197,124.639,7.554,25.849
8.339,-54.394,-126.975,-83.062,-5.182,77.697,-180.602,358.437,-798.430,211.212,124.638,7.554,25.848
8.350,-54.393,-126.974,-83.062,-5.181,77.697,-180.602,358.446,-798.425,211.231,124.636,7.554,25.849
8.359,-54.391,-126.973,-83.062,-5.181,77.697,-180.602,358.474,-798.412,211.251,124.635,7.553,25.851
8.369,-54.390,-126.973,-83.061,-5.181,77.697,-180.602,358.492,-798.404,211.262,124.634,7.553,25.852
8.379,-54.387,-126.972,-83.060,-5.181,77.697,-180.602,358.531,-798.392,211.277,124.633,7.553,25.854
8.389,-54.387,-126.974,-83.061,-5.181,77.697,-180.602,358.535,-798.388,211.249,124.635,7.553,25.855
8.400,-54.387,-126.975,-83.061,-5.182,77.697,-180.602,358.537,-798.386,211.224,124.637,7.554,25.855
8.409,-54.386,-126.977,-83.062,-5.182,77.697,-180.602,358.541,-798.384,211.188,124.640,7.554,25.856
8.420,-54.386,-126.979,-83.062,-5.182,77.697,-180.602,358.552,-798.379,211.154,124.642,7.555,25.857
8.429,-54.385,-126.980,-83.063,-5.183,77.697,-180.602,358.560,-798.375,211.136,124.644,7.555,25.858
8.440,-54.385,-126.981,-83.063,-5.183,77.697,-180.602,358.568,-798.372,211.108,124.646,7.555,25.859
8.450,-54.385,-126.982,-83.063,-5.183,77.697,-180.602,358.565,-798.372,211.092,124.647,7.555,25.859
8.460,-54.385,-126.982,-83.063,-5.183,77.697,-180.602,358.560,-798.375,211.092,124.647,7.555,25.859
8.470,-54.387,-126.982,-83.063,-5.183,77.697,-180.602,358.531,-798.387,211.095,124.647,7.555,25.856
8.480,-54.390,-126.981,-83.063,-5.183,77.697,-180.602,358.496,-798.404,211.114,124.646,7.555,25.854
8.490,-54.390,-126.980,-83.063,-5.182,77.697,-180.602,358.491,-798.406,211.130,124.644,7.555,25.853
8.499,-54.390,-126.978,-83.062,-5.182,77.697,-180.602,358.483,-798.410,211.161,124.642,7.555,25.852
8.510,-54.390,-126.977,-83.062,-5.182,77.697,-180.602,358.490,-798.405,211.187,124.640,7.554,25.853
8.520,-54.390,-126.976,-83.062,-5.182,77.697,-180.602,358.496,-798.404,211.198,124.639,7.554,25.853
8.532,-54.389,-126.975,-83.062,-5.182,77.697,-180.602,358.505,-798.398,211.216,124.638,7.554,25.853
8.540,-54.389,-126.974,-83.062,-5.181,77.697,-180.602,358.510,-798.396,211.230,124.636,7.554,25.854
8.550,-54.388,-126.974,-83.062,-5.181,77.697,-180.602,358.512,-798.396,211.237,124.636,7.554,25.854
8.561,-54.388,-126.974,-83.061,-5.181,77.697,-180.602,358.520,-798.393,211.242,124.636,7.554,25.854
8.570,-54.387,-126.975,-83.062,-5.181,77.697,-180.602,358.536,-798.386,211.226,124.637,7.554,25.856
8.580,-54.386,-126.975,-83.062,-5.182,77.697,-180.602,358.546,-798.381,211.211,124.638,7.554,25.856
8.590,-54.385,-126.978,-83.065,-5.183,77.697,-180.602,358.544,-798.367,211.140,124.644,7.555,25.857
8.600,-54.388,-126.981,-83.068,-5.183,77.696,-180.601,358.500,-798.375,211.049,124.652,7.557,25.855
8.611,-54.390,-126.983,-83.069,-5.183,77.696,-180.602,358.468,-798.388,211.011,124.654,7.557,25.853
8.620,-54.395,-126.986,-83.069,-5.183,77.696,-180.602,358.402,-798.421,210.976,124.657,7.558,25.849
8.630,-54.398,-126.988,-83.069,-5.184,77.696,-180.602,358.359,-798.441,210.941,124.659,7.558,25.846
8.640,-54.398,-126.988,-83.069,-5.184,77.696,-180.602,358.360,-798.442,210.942,124.660,7.558,25.846
8.650,-54.398,-126.987,-83.068,-5.184,77.696,-180.602,358.367,-798.442,210.970,124.657,7.558,25.846
8.660,-54.399,-126.986,-83.066,-5.183,77.695,-180.601,358.354,-798.457,211.010,124.654,7.557,25.844
8.670,-54.400,-126.985,-83.066,-5.183,77.695,-180.601,358.332,-798.467,211.020,124.653,7.557,25.842
8.680,-54.405,-126.984,-83.065,-5.182,77.694,-180.601,358.259,-798.503,211.053,124.650,7.557,25.835
8.690,-54.410,-126.983,-83.064,-5.181,77.693,-180.600,358.194,-798.537,211.087,124.646,7.556,25.829
8.700,-54.411,-126.983,-83.064,-5.181,77.693,-180.600,358.185,-798.541,211.088,124.646,7.556,25.829
8.710,-54.409,-126.983,-83.064,-5.180,77.693,-180.599,358.213,-798.528,211.081,124.646,7.555,25.830
8.720,-54.405,-126.982,-83.064,-5.179,77.693,-180.598,358.263,-798.506,211.097,124.644,7.555,25.833
8.730,-54.404,-126.981,-83.063,-5.178,77.694,-180.598,358.292,-798.502,211.129,124.641,7.553,25.834
8.740,-54.401,-126.978,-83.059,-5.176,77.694,-180.598,358.337,-798.497,211.233,124.631,7.551,25.836
8.751,-54.400,-126.972,-83.053,-5.172,77.694,-180.597,358.368,-798.511,211.390,124.617,7.548,25.835
8.761,-54.400,-126.969,-83.048,-5.170,77.694,-180.597,358.386,-798.526,211.502,124.606,7.546,25.834
8.771,-54.398,-126.962,-83.032,-5.165,77.694,-180.597,358.441,-798.578,211.796,124.579,7.541,25.831
8.780,-54.397,-126.956,-83.015,-5.154,77.694,-180.596,358.513,-798.637,212.116,124.545,7.535,25.828
8.793,-54.396,-126.955,-83.005,-5.147,77.695,-180.596,358.567,-798.673,212.275,124.526,7.531,25.827
8.803,-54.392,-126.952,-82.988,-5.133,77.697,-180.595,358.688,-798.723,212.560,124.492,7.524,25.828
8.810,-54.387,-126.950,-82.968,-5.116,77.697,-180.594,358.818,-798.779,212.868,124.454,7.516,25.827
8.820,-54.385,-126.949,-82.957,-5.102,77.697,-180.593,358.883,-798.825,213.064,124.428,7.511,25.825
8.830,-54.383,-126.948,-82.932,-5.062,77.697,-180.592,359.001,-798.947,213.531,124.362,7.499,25.817
8.840,-54.384,-126.944,-82.908,-5.004,77.697,-180.592,359.091,-799.095,214.095,124.277,7.484,25.805
8.850,-54.386,-126.943,-82.893,-4.965,77.697,-180.592,359.140,-799.198,214.458,124.222,7.474,25.797
8.860,-54.390,-126.940,-82.863,-4.849,77.697,-180.591,359.245,-799.446,215.349,124.073,7.448,25.773
8.870,-54.394,-126.937,-82.833,-4.674,77.697,-180.590,359.376,-799.753,216.496,123.867,7.412,25.741
8.880,-54.396,-126.937,-82.815,-4.564,77.697,-180.590,359.482,-799.933,217.188,123.740,7.390,25.723
8.890,-54.398,-126.934,-82.787,-4.307,77.696,-180.588,359.692,-800.295,218.702,123.454,7.340,25.682
8.902,-54.400,-126.937,-82.751,-3.978,77.694,-180.588,359.968,-800.748,220.543,123.094,7.278,25.633
8.909,-54.401,-126.938,-82.738,-3.789,77.694,-180.588,360.108,-800.977,221.533,122.894,7.243,25.606
8.920,-54.405,-126.941,-82.708,-3.370,77.691,-180.587,360.384,-801.489,223.724,122.452,7.167,25.544
8.930,-54.411,-126.942,-82.692,-2.883,77.690,-180.587,360.643,-801.997,226.118,121.953,7.079,25.476
8.940,-54.412,-126.942,-82.689,-2.626,77.688,-180.587,360.781,-802.229,227.333,121.695,7.034,25.442
8.949,-54.411,-126.942,-82.687,-2.067,77.687,-180.587,361.117,-802.682,229.923,121.139,6.936,25.374
8.960,-54.407,-126.944,-82.688,-1.462,77.687,-180.588,361.496,-803.118,232.678,120.542,6.829,25.306
8.970,-54.406,-126.946,-82.689,-1.139,77.687,-180.588,361.681,-803.345,234.129,120.225,6.772,25.270
8.979,-54.402,-126.953,-82.692,-0.478,77.688,-180.588,362.070,-803.777,237.054,119.580,6.655,25.200
8.990,-54.399,-126.961,-82.695,0.216,77.689,-180.588,362.439,-804.214,240.116,118.904,6.531,25.126
8.999,-54.399,-126.965,-82.697,0.579,77.689,-180.589,362.607,-804.438,241.727,118.551,6.466,25.087
9.009,-54.399,-126.974,-82.696,1.292,77.691,-180.589,362.921,-804.869,244.919,117.853,6.336,25.010
9.020,-54.399,-126.982,-82.697,2.038,77.690,-180.589,363.213,-805.280,248.261,117.125,6.201,24.930
9.031,-54.399,-126.986,-82.699,2.420,77.689,-180.589,363.346,-805.475,249.968,116.753,6.131,24.889
9.039,-54.400,-126.993,-82.701,3.172,77.689,-180.590,363.578,-805.835,253.352,116.019,5.994,24.811
9.049,-54.402,-127.003,-82.703,3.923,77.689,-180.590,363.783,-806.167,256.693,115.289,5.855,24.733
9.059,-54.403,-127.010,-82.704,4.293,77.688,-180.590,363.876,-806.323,258.315,114.931,5.787,24.696
9.069,-54.404,-127.025,-82.704,5.007,77.689,-180.590,364.054,-806.603,261.424,114.243,5.654,24.626
9.079,-54.403,-127.044,-82.704,5.718,77.687,-180.590,364.231,-806.843,264.479,113.560,5.523,24.559
9.089,-54.402,-127.056,-82.705,6.071,77.686,-180.590,364.320,-806.950,265.946,113.224,5.458,24.527
9.099,-54.401,-127.080,-82.706,6.755,77.684,-180.590,364.478,-807.137,268.788,112.575,5.331,24.466
9.109,-54.400,-127.099,-82.712,7.426,77.683,-180.590,364.584,-807.279,271.604,111.937,5.207,24.407
9.119,-54.400,-127.107,-82.715,7.755,77.681,-180.590,364.616,-807.341,272.984,111.625,5.146,24.377
9.129,-54.400,-127.126,-82.718,8.370,77.677,-180.590,364.678,-807.447,275.562,111.040,5.032,24.322
9.139,-54.398,-127.142,-82.722,8.974,77.669,-180.590,364.715,-807.518,278.121,110.465,4.920,24.266
9.149,-54.397,-127.148,-82.724,9.262,77.665,-180.590,364.734,-807.538,279.363,110.190,4.866,24.240
9.159,-54.393,-127.159,-82.728,9.808,77.660,-180.590,364.784,-807.549,281.725,109.667,4.763,24.195
9.169,-54.389,-127.172,-82.729,10.313,77.659,-180.590,364.845,-807.547,283.907,109.184,4.666,24.159
9.179,-54.389,-127.175,-82.728,10.590,77.660,-180.591,364.856,-807.541,285.174,108.913,4.612,24.138
9.189,-54.390,-127.174,-82.727,10.989,77.661,-180.591,364.825,-807.527,287.077,108.519,4.532,24.106
9.200,-54.392,-127.172,-82.725,11.384,77.676,-180.591,364.842,-807.487,288.972,108.128,4.448,24.088
9.209,-54.393,-127.172,-82.725,11.573,77.694,-180.592,364.895,-807.442,289.851,107.944,4.405,24.090
9.221,-54.394,-127.171,-82.724,11.899,77.739,-180.592,365.042,-807.340,291.401,107.624,4.326,24.107
9.229,-54.393,-127.170,-82.723,12.192,77.758,-180.595,365.103,-807.265,292.804,107.335,4.264,24.105
9.239,-54.393,-127.170,-82.724,12.338,77.755,-180.599,365.085,-807.240,293.480,107.193,4.240,24.094
9.249,-54.392,-127.169,-82.724,12.566,77.748,-180.610,365.031,-807.210,294.572,106.968,4.207,24.074
9.259,-54.392,-127.166,-82.723,12.786,77.747,-180.616,364.989,-807.171,295.662,106.748,4.168,24.059
9.269,-54.393,-127.165,-82.723,12.874,77.747,-180.617,364.968,-807.156,296.106,106.659,4.151,24.052
9.280,-54.394,-127.161,-82.722,13.005,77.748,-180.617,364.939,-807.125,296.786,106.527,4.124,24.043
9.290,-54.393,-127.158,-82.723,13.154,77.748,-180.617,364.920,-807.084,297.518,106.378,4.094,24.033
9.300,-54.392,-127.157,-82.722,13.207,77.748,-180.618,364.919,-807.067,297.786,106.325,4.083,24.030
9.310,-54.392,-127.154,-82.721,13.262,77.748,-180.618,364.922,-807.044,298.113,106.266,4.071,24.027
9.320,-54.392,-127.147,-82.720,13.237,77.748,-180.618,364.917,-807.037,298.101,106.283,4.075,24.028
9.330,-54.392,-127.144,-82.720,13.215,77.748,-180.618,364.908,-807.038,298.053,106.302,4.079,24.029
9.340,-54.394,-127.141,-82.718,13.157,77.748,-180.618,364.883,-807.062,297.852,106.353,4.090,24.030
9.352,-54.396,-127.142,-82.718,13.123,77.748,-180.619,364.866,-807.085,297.667,106.388,4.097,24.031
9.361,-54.396,-127.144,-82.719,13.125,77.748,-180.619,364.867,-807.083,297.640,106.389,4.097,24.031
9.370,-54.395,-127.146,-82.720,13.129,77.748,-180.619,364.877,-807.083,297.610,106.389,4.098,24.032
9.391,-54.394,-127.148,-82.720,13.128,77.748,-180.620,364.900,-807.078,297.582,106.391,4.099,24.034
9.393,-54.394,-127.149,-82.720,13.128,77.748,-180.620,364.905,-807.078,297.565,106.392,4.099,24.034
9.410,-54.393,-127.152,-82.721,13.127,77.749,-180.621,364.915,-807.079,297.506,106.397,4.101,24.036
9.412,-54.393,-127.155,-82.722,13.127,77.749,-180.621,364.930,-807.079,297.456,106.400,4.102,24.037
9.419,-54.392,-127.157,-82.722,13.127,77.749,-180.622,364.940,-807.081,297.426,106.402,4.103,24.038
9.430,-54.390,-127.159,-82.723,13.127,77.749,-180.622,364.973,-807.070,297.385,106.405,4.103,24.040
9.440,-54.388,-127.157,-82.721,13.127,77.749,-180.622,365.005,-807.056,297.432,106.402,4.103,24.042
9.450,-54.387,-127.155,-82.719,13.127,77.749,-180.622,365.018,-807.050,297.480,106.398,4.102,24.043
9.461,-54.385,-127.153,-82.718,13.128,77.749,-180.622,365.040,-807.038,297.535,106.394,4.102,24.044
9.470,-54.385,-127.151,-82.719,13.128,77.749,-180.622,365.035,-807.032,297.554,106.393,4.101,24.044
9.480,-54.386,-127.150,-82.718,13.128,77.749,-180.622,365.019,-807.039,297.563,106.392,4.101,24.043
9.490,-54.387,-127.149,-82.718,13.128,77.749,-180.623,365.000,-807.043,297.581,106.391,4.102,24.042
9.500,-54.389,-127.148,-82.719,13.128,77.749,-180.623,364.981,-807.048,297.597,106.389,4.101,24.041
9.509,-54.389,-127.147,-82.719,13.129,77.749,-180.623,364.974,-807.048,297.613,106.388,4.101,24.040
9.520,-54.390,-127.147,-82.718,13.129,77.749,-180.623,364.967,-807.052,297.624,106.387,4.101,24.040
9.530,-54.390,-127.148,-82.719,13.129,77.749,-180.623,364.964,-807.055,297.596,106.389,4.102,24.039
9.540,-54.390,-127.149,-82.720,13.129,77.749,-180.623,364.966,-807.052,297.564,106.392,4.102,24.040
9.550,-54.389,-127.152,-82.721,13.128,77.749,-180.623,364.971,-807.055,297.514,106.396,4.103,24.040
9.560,-54.389,-127.153,-82.721,13.128,77.749,-180.624,364.984,-807.052,297.491,106.398,4.104,24.041
9.570,-54.388,-127.154,-82.721,13.128,77.749,-180.624,364.995,-807.050,297.478,106.398,4.104,24.042
9.580,-54.387,-127.155,-82.722,13.127,77.749,-180.624,365.012,-807.044,297.448,106.401,4.104,24.043
9.590,-54.385,-127.156,-82.721,13.127,77.749,-180.624,365.041,-807.035,297.443,106.401,4.104,24.045
9.600,-54.384,-127.157,-82.721,13.127,77.749,-180.624,365.053,-807.032,297.430,106.402,4.104,24.046
9.610,-54.383,-127.157,-82.721,13.127,77.749,-180.624,365.068,-807.027,297.421,106.403,4.105,24.048
9.620,-54.383,-127.156,-82.721,13.127,77.749,-180.624,365.072,-807.025,297.445,106.401,4.104,24.048
9.631,-54.384,-127.155,-82.720,13.125,77.749,-180.624,365.063,-807.027,297.457,106.401,4.104,24.047
9.639,-54.385,-127.155,-82.720,13.126,77.749,-180.624,365.047,-807.035,297.470,106.400,4.104,24.046
9.650,-54.386,-127.155,-82.721,13.125,77.749,-180.624,365.029,-807.041,297.452,106.402,4.104,24.045
9.660,-54.387,-127.155,-82.721,13.126,77.749,-180.624,365.017,-807.045,297.447,106.402,4.105,24.044
9.674,-54.388,-127.156,-82.722,13.126,77.749,-180.624,365.004,-807.051,297.423,106.404,4.105,24.043
9.680,-54.389,-127.157,-82.722,13.126,77.749,-180.624,364.989,-807.057,297.414,106.404,4.105,24.042
9.691,-54.389,-127.157,-82.722,13.125,77.749,-180.624,364.983,-807.060,297.413,106.405,4.105,24.042
9.699,-54.390,-127.157,-82.722,13.126,77.748,-180.624,364.969,-807.069,297.415,106.404,4.106,24.040
9.710,-54.390,-127.158,-82.722,13.126,77.748,-180.624,364.965,-807.073,297.390,106.406,4.106,24.039
9.719,-54.390,-127.160,-82.723,13.125,77.746,-180.624,364.965,-807.075,297.366,106.408,4.107,24.039
9.729,-54.389,-127.163,-82.723,13.125,77.745,-180.624,364.978,-807.079,297.308,106.412,4.108,24.039
9.740,-54.387,-127.167,-82.723,13.125,77.744,-180.625,365.001,-807.078,297.241,106.416,4.110,24.040
9.749,-54.387,-127.169,-82.724,13.124,77.743,-180.625,365.007,-807.079,297.202,106.419,4.111,24.040
9.763,-54.385,-127.174,-82.726,13.124,77.741,-180.626,365.021,-807.079,297.111,106.426,4.114,24.040
9.770,-54.385,-127.181,-82.727,13.124,77.738,-180.627,365.033,-807.093,296.995,106.434,4.117,24.039
9.780,-54.384,-127.185,-82.727,13.124,77.738,-180.627,365.036,-807.099,296.936,106.437,4.118,24.039
9.790,-54.384,-127.197,-82.728,13.124,77.737,-180.627,365.057,-807.124,296.741,106.450,4.121,24.039
9.800,-54.384,-127.211,-82.727,13.125,77.736,-180.627,365.077,-807.156,296.544,106.462,4.124,24.040
9.810,-54.384,-127.213,-82.728,13.125,77.736,-180.627,365.079,-807.161,296.496,106.466,4.125,24.040
9.819,-54.384,-127.218,-82.729,13.125,77.736,-180.628,365.083,-807.171,296.415,106.471,4.126,24.040
9.829,-54.385,-127.224,-82.729,13.125,77.736,-180.628,365.080,-807.188,296.332,106.476,4.128,24.040
9.839,-54.385,-127.226,-82.729,13.125,77.736,-180.629,365.078,-807.195,296.298,106.479,4.129,24.040
9.849,-54.387,-127.229,-82.729,13.125,77.736,-180.629,365.064,-807.210,296.242,106.482,4.130,24.038
9.859,-54.388,-127.233,-82.729,13.125,77.735,-180.629,365.049,-807.229,296.191,106.486,4.131,24.037
9.869,-54.388,-127.236,-82.729,13.125,77.736,-180.629,365.050,-807.237,296.139,106.489,4.131,24.037
9.879,-54.389,-127.246,-82.729,13.125,77.735,-180.629,365.053,-807.264,295.997,106.498,4.134,24.037
9.889,-54.390,-127.258,-82.728,13.125,77.735,-180.630,365.062,-807.298,295.822,106.509,4.136,24.036
9.899,-54.390,-127.266,-82.728,13.125,77.735,-180.630,365.076,-807.317,295.695,106.517,4.138,24.037
9.909,-54.390,-127.286,-82.730,13.125,77.735,-180.630,365.107,-807.356,295.373,106.539,4.143,24.039
9.919,-54.390,-127.318,-82.729,13.125,77.735,-180.630,365.158,-807.428,294.891,106.570,4.149,24.041
9.929,-54.390,-127.338,-82.730,13.125,77.735,-180.631,365.187,-807.469,294.599,106.589,4.154,24.043
9.940,-54.389,-127.386,-82.731,13.125,77.735,-180.631,365.266,-807.568,293.854,106.637,4.164,24.047
9.950,-54.389,-127.439,-82.729,13.126,77.735,-180.631,365.355,-807.688,293.074,106.687,4.174,24.051
9.959,-54.389,-127.477,-82.729,13.126,77.735,-180.632,365.415,-807.769,292.494,106.725,4.182,24.054
9.969,-54.389,-127.548,-82.730,13.126,77.735,-180.632,365.521,-807.920,291.404,106.795,4.197,24.059
9.980,-54.390,-127.615,-82.732,13.126,77.735,-180.632,365.609,-808.067,290.366,106.863,4.210,24.063
9.990,-54.390,-127.660,-82.732,13.126,77.734,-180.632,365.676,-808.162,289.678,106.908,4.220,24.066
10.000,-54.391,-127.740,-82.733,13.126,77.735,-180.632,365.778,-808.336,288.461,106.987,4.236,24.070
