hapiel/Chataigne-Fairino-control/ai_recordings/new/firefly-robotic.csv
t,j1,j2,j3,j4,j5,j6,x,y,z,rx,ry,rz
0.006,-45.129,-102.896,-70.815,-5.963,57.243,-141.009,320.841,-675.292,683.477,89.646,-39.168,12.338
0.017,-45.128,-102.896,-70.814,-5.962,57.243,-141.008,320.842,-675.291,683.479,89.645,-39.168,12.338
0.027,-45.128,-102.896,-70.814,-5.962,57.243,-141.008,320.840,-675.290,683.482,89.645,-39.168,12.338
0.037,-45.128,-102.896,-70.814,-5.963,57.243,-141.009,320.838,-675.287,683.487,89.645,-39.168,12.338
0.047,-45.128,-102.896,-70.814,-5.963,57.243,-141.009,320.841,-675.286,683.489,89.645,-39.168,12.339
0.057,-45.128,-102.895,-70.814,-5.963,57.243,-141.009,320.838,-675.283,683.494,89.644,-39.168,12.339
0.067,-45.128,-102.895,-70.814,-5.963,57.243,-141.009,320.837,-675.282,683.494,89.644,-39.168,12.339
0.077,-45.128,-102.895,-70.814,-5.962,57.243,-141.009,320.833,-675.282,683.499,89.644,-39.168,12.339
0.087,-45.128,-102.895,-70.814,-5.963,57.243,-141.009,320.831,-675.279,683.503,89.644,-39.169,12.339
0.097,-45.128,-102.895,-70.814,-5.962,57.243,-141.009,320.833,-675.278,683.505,89.643,-39.169,12.340
0.107,-45.128,-102.894,-70.814,-5.962,57.243,-141.009,320.828,-675.277,683.508,89.643,-39.169,12.339
0.117,-45.128,-102.895,-70.814,-5.962,57.243,-141.009,320.832,-675.277,683.506,89.643,-39.169,12.340
0.127,-45.128,-102.895,-70.814,-5.962,57.243,-141.009,320.830,-675.279,683.504,89.643,-39.169,12.339
0.136,-45.128,-102.895,-70.814,-5.962,57.243,-141.009,320.830,-675.279,683.503,89.643,-39.168,12.339
0.147,-45.128,-102.895,-70.814,-5.962,57.243,-141.009,320.835,-675.283,683.495,89.644,-39.168,12.339
0.157,-45.129,-102.896,-70.814,-5.962,57.243,-141.008,320.836,-675.288,683.487,89.645,-39.168,12.338
0.167,-45.128,-102.896,-70.814,-5.962,57.243,-141.008,320.839,-675.287,683.487,89.645,-39.168,12.339
0.177,-45.129,-102.896,-70.815,-5.962,57.243,-141.009,320.842,-675.293,683.474,89.646,-39.168,12.338
0.187,-45.128,-102.897,-70.815,-5.962,57.243,-141.008,320.848,-675.298,683.463,89.647,-39.167,12.337
0.197,-45.128,-102.897,-70.815,-5.963,57.243,-141.008,320.851,-675.300,683.457,89.648,-39.167,12.336
0.207,-45.128,-102.898,-70.815,-5.962,57.243,-141.008,320.853,-675.302,683.454,89.648,-39.167,12.337
0.217,-45.128,-102.898,-70.815,-5.963,57.243,-141.009,320.854,-675.302,683.453,89.648,-39.166,12.336
0.227,-45.128,-102.898,-70.815,-5.963,57.243,-141.008,320.854,-675.303,683.453,89.648,-39.167,12.336
0.236,-45.128,-102.898,-70.815,-5.963,57.243,-141.008,320.853,-675.302,683.455,89.648,-39.167,12.336
0.247,-45.129,-102.897,-70.815,-5.963,57.243,-141.009,320.848,-675.299,683.462,89.647,-39.167,12.337
0.257,-45.129,-102.897,-70.815,-5.962,57.243,-141.009,320.846,-675.297,683.469,89.646,-39.167,12.337
0.267,-45.129,-102.896,-70.814,-5.962,57.243,-141.009,320.836,-675.292,683.482,89.645,-39.168,12.338
0.277,-45.129,-102.895,-70.814,-5.963,57.243,-141.009,320.829,-675.288,683.490,89.645,-39.168,12.338
0.287,-45.129,-102.895,-70.814,-5.962,57.243,-141.009,320.824,-675.286,683.499,89.644,-39.169,12.338
0.297,-45.129,-102.895,-70.814,-5.962,57.243,-141.008,320.818,-675.283,683.506,89.643,-39.169,12.338
0.307,-45.129,-102.893,-70.814,-5.962,57.243,-141.008,320.814,-675.274,683.521,89.642,-39.170,12.340
0.316,-45.129,-102.893,-70.814,-5.962,57.243,-141.008,320.812,-675.270,683.530,89.641,-39.170,12.340
0.326,-45.129,-102.893,-70.813,-5.962,57.243,-141.008,320.809,-675.266,683.539,89.640,-39.171,12.341
0.337,-45.129,-102.892,-70.813,-5.962,57.243,-141.008,320.803,-675.265,683.543,89.640,-39.171,12.341
0.347,-45.129,-102.892,-70.813,-5.962,57.243,-141.008,320.801,-675.263,683.549,89.639,-39.171,12.341
0.356,-45.129,-102.892,-70.813,-5.962,57.243,-141.008,320.805,-675.260,683.550,89.639,-39.171,12.342
0.366,-45.129,-102.892,-70.813,-5.962,57.243,-141.008,320.806,-675.262,683.547,89.639,-39.171,12.341
0.376,-45.129,-102.892,-70.813,-5.962,57.243,-141.009,320.807,-675.263,683.546,89.639,-39.171,12.341
0.387,-45.129,-102.892,-70.813,-5.962,57.243,-141.008,320.812,-675.263,683.542,89.640,-39.171,12.341
0.397,-45.128,-102.893,-70.813,-5.963,57.243,-141.009,320.817,-675.266,683.533,89.641,-39.170,12.341
0.407,-45.128,-102.893,-70.813,-5.963,57.243,-141.008,320.818,-675.266,683.532,89.641,-39.170,12.341
0.417,-45.129,-102.893,-70.814,-5.963,57.243,-141.009,320.818,-675.270,683.525,89.642,-39.170,12.340
0.428,-45.129,-102.893,-70.813,-5.963,57.243,-141.008,320.817,-675.272,683.527,89.642,-39.170,12.340
0.437,-45.129,-102.893,-70.813,-5.964,57.243,-141.009,320.818,-675.269,683.530,89.642,-39.170,12.340
0.447,-45.129,-102.893,-70.813,-5.964,57.242,-141.008,320.810,-675.270,683.534,89.641,-39.170,12.340
0.457,-45.129,-102.893,-70.812,-5.964,57.243,-141.008,320.806,-675.268,683.543,89.641,-39.170,12.340
0.467,-45.129,-102.892,-70.812,-5.964,57.242,-141.009,320.803,-675.267,683.545,89.641,-39.170,12.340
0.477,-45.129,-102.892,-70.812,-5.964,57.242,-141.009,320.802,-675.265,683.548,89.640,-39.170,12.340
0.487,-45.129,-102.892,-70.812,-5.964,57.242,-141.009,320.795,-675.266,683.550,89.640,-39.170,12.340
0.497,-45.129,-102.892,-70.812,-5.964,57.242,-141.009,320.797,-675.264,683.551,89.640,-39.170,12.340
0.507,-45.129,-102.892,-70.812,-5.964,57.242,-141.008,320.798,-675.262,683.556,89.640,-39.171,12.340
0.516,-45.129,-102.891,-70.812,-5.964,57.242,-141.009,320.797,-675.255,683.564,89.639,-39.171,12.341
0.527,-45.128,-102.891,-70.812,-5.964,57.242,-141.009,320.801,-675.249,683.571,89.639,-39.171,12.342
0.537,-45.128,-102.889,-70.811,-5.964,57.242,-141.009,320.797,-675.235,683.600,89.636,-39.172,12.344
0.547,-45.127,-102.885,-70.810,-5.964,57.242,-141.009,320.774,-675.205,683.657,89.631,-39.175,12.348
0.557,-45.127,-102.883,-70.810,-5.965,57.242,-141.009,320.762,-675.187,683.689,89.628,-39.176,12.350
0.567,-45.127,-102.878,-70.809,-5.964,57.242,-141.008,320.731,-675.152,683.754,89.622,-39.180,12.354
0.577,-45.127,-102.875,-70.811,-5.964,57.242,-141.008,320.708,-675.137,683.774,89.620,-39.180,12.354
0.587,-45.127,-102.875,-70.811,-5.965,57.242,-141.008,320.706,-675.139,683.768,89.621,-39.180,12.354
0.597,-45.129,-102.875,-70.811,-5.965,57.242,-141.008,320.691,-675.146,683.770,89.622,-39.180,12.352
0.606,-45.129,-102.873,-70.810,-5.967,57.242,-141.009,320.676,-675.138,683.792,89.620,-39.180,12.352
0.617,-45.129,-102.871,-70.810,-5.967,57.242,-141.009,320.663,-675.123,683.822,89.618,-39.181,12.354
0.627,-45.129,-102.863,-70.808,-5.969,57.242,-141.008,320.604,-675.068,683.935,89.609,-39.186,12.360
0.637,-45.129,-102.842,-70.805,-5.972,57.242,-141.009,320.464,-674.923,684.214,89.586,-39.197,12.374
0.647,-45.129,-102.827,-70.803,-5.975,57.242,-141.009,320.367,-674.825,684.402,89.572,-39.204,12.383
0.657,-45.129,-102.802,-70.800,-5.981,57.242,-141.009,320.193,-674.654,684.727,89.547,-39.216,12.399
0.667,-45.129,-102.774,-70.801,-5.989,57.242,-141.008,320.022,-674.477,685.025,89.527,-39.227,12.412
0.677,-45.129,-102.759,-70.802,-5.995,57.242,-141.008,319.930,-674.382,685.175,89.518,-39.231,12.417
0.687,-45.129,-102.741,-70.800,-6.006,57.242,-141.008,319.821,-674.272,685.373,89.509,-39.235,12.423
0.696,-45.128,-102.727,-70.802,-6.016,57.242,-141.009,319.749,-674.184,685.492,89.506,-39.237,12.426
0.707,-45.127,-102.723,-70.802,-6.021,57.242,-141.009,319.727,-674.159,685.524,89.506,-39.236,12.426
0.717,-45.128,-102.720,-70.801,-6.027,57.242,-141.009,319.707,-674.147,685.548,89.509,-39.235,12.424
0.727,-45.129,-102.718,-70.802,-6.034,57.242,-141.009,319.696,-674.148,685.536,89.515,-39.232,12.419
0.736,-45.129,-102.718,-70.802,-6.039,57.242,-141.009,319.704,-674.155,685.507,89.522,-39.228,12.415
0.747,-45.129,-102.719,-70.803,-6.054,57.242,-141.009,319.726,-674.182,685.425,89.540,-39.219,12.403
0.757,-45.128,-102.722,-70.806,-6.073,57.241,-141.009,319.772,-674.224,685.287,89.568,-39.206,12.386
0.767,-45.128,-102.723,-70.807,-6.088,57.241,-141.009,319.803,-674.246,685.204,89.586,-39.197,12.375
0.776,-45.127,-102.726,-70.809,-6.123,57.241,-141.009,319.870,-674.303,685.016,89.630,-39.175,12.348
0.787,-45.127,-102.727,-70.810,-6.178,57.241,-141.009,319.934,-674.371,684.785,89.691,-39.145,12.308
0.797,-45.127,-102.728,-70.810,-6.216,57.241,-141.009,319.983,-674.409,684.635,89.733,-39.124,12.283
0.807,-45.127,-102.728,-70.810,-6.321,57.241,-141.009,320.098,-674.522,684.227,89.848,-39.067,12.210
0.817,-45.126,-102.728,-70.810,-6.487,57.241,-141.009,320.273,-674.693,683.597,90.028,-38.977,12.097
0.826,-45.126,-102.729,-70.810,-6.587,57.241,-141.009,320.383,-674.799,683.211,90.136,-38.923,12.030
0.837,-45.125,-102.730,-70.812,-6.806,57.241,-141.010,320.629,-675.033,682.340,90.376,-38.801,11.880
0.847,-45.125,-102.731,-70.813,-7.072,57.241,-141.010,320.913,-675.313,681.293,90.664,-38.655,11.700
0.857,-45.125,-102.732,-70.816,-7.240,57.241,-141.010,321.086,-675.491,680.617,90.847,-38.561,11.585
0.866,-45.125,-102.733,-70.823,-7.548,57.241,-141.010,321.402,-675.816,679.354,91.184,-38.387,11.375
0.877,-45.126,-102.732,-70.829,-7.945,57.241,-141.009,321.792,-676.214,677.772,91.611,-38.165,11.110
0.887,-45.126,-102.732,-70.833,-8.159,57.240,-141.009,321.995,-676.425,676.912,91.840,-38.043,10.968
0.896,-45.126,-102.730,-70.842,-8.613,57.240,-141.009,322.425,-676.856,675.090,92.325,-37.785,10.670
0.907,-45.126,-102.729,-70.845,-9.093,57.241,-141.009,322.873,-677.304,673.206,92.828,-37.513,10.363
0.917,-45.127,-102.729,-70.844,-9.353,57.241,-141.009,323.094,-677.536,672.222,93.095,-37.367,10.200
0.927,-45.126,-102.725,-70.842,-9.901,57.241,-141.009,323.561,-677.997,670.155,93.655,-37.057,9.863
0.937,-45.126,-102.724,-70.842,-10.461,57.241,-141.009,324.038,-678.472,667.988,94.226,-36.735,9.520
0.947,-45.126,-102.724,-70.841,-10.750,57.241,-141.009,324.275,-678.712,666.870,94.518,-36.568,9.345
0.956,-45.126,-102.722,-70.841,-11.349,57.241,-141.009,324.759,-679.195,664.548,95.121,-36.219,8.988
0.967,-45.126,-102.722,-70.841,-12.019,57.242,-141.009,325.290,-679.720,661.921,95.790,-35.825,8.596
0.977,-45.126,-102.722,-70.841,-12.330,57.242,-141.009,325.522,-679.961,660.695,96.099,-35.640,8.415
0.986,-45.127,-102.721,-70.841,-12.907,57.242,-141.009,325.946,-680.387,658.431,96.667,-35.297,8.085
0.997,-45.128,-102.720,-70.840,-13.562,57.242,-141.009,326.384,-680.854,655.867,97.304,-34.904,7.717
1.006,-45.128,-102.719,-70.840,-13.885,57.243,-141.009,326.613,-681.073,654.588,97.617,-34.708,7.540
1.017,-45.128,-102.718,-70.839,-14.531,57.243,-141.009,327.030,-681.493,652.053,98.237,-34.316,7.189
1.027,-45.128,-102.716,-70.839,-15.191,57.244,-141.009,327.432,-681.900,649.459,98.863,-33.913,6.838
1.037,-45.128,-102.716,-70.839,-15.513,57.244,-141.009,327.628,-682.097,648.169,99.169,-33.714,6.667
1.047,-45.129,-102.715,-70.839,-16.152,57.244,-141.008,327.993,-682.475,645.619,99.770,-33.319,6.335
1.057,-45.131,-102.716,-70.839,-16.795,57.244,-141.008,328.328,-682.845,643.045,100.368,-32.917,6.006
1.067,-45.131,-102.716,-70.840,-17.113,57.244,-141.009,328.495,-683.019,641.758,100.664,-32.716,5.845
1.077,-45.131,-102.718,-70.841,-17.726,57.244,-141.009,328.821,-683.341,639.261,101.230,-32.327,5.541
1.087,-45.131,-102.719,-70.840,-18.325,57.244,-141.009,329.113,-683.635,636.839,101.777,-31.945,5.250
1.097,-45.131,-102.719,-70.840,-18.632,57.244,-141.009,329.253,-683.777,635.604,102.055,-31.750,5.104
1.107,-45.130,-102.721,-70.842,-19.211,57.244,-141.009,329.527,-684.040,633.221,102.580,-31.375,4.830
1.118,-45.130,-102.724,-70.841,-19.762,57.244,-141.009,329.761,-684.278,630.970,103.074,-31.019,4.574
1.127,-45.131,-102.724,-70.841,-20.030,57.244,-141.009,329.863,-684.386,629.881,103.312,-30.845,4.451
1.136,-45.131,-102.726,-70.841,-20.568,57.244,-141.009,330.067,-684.594,627.680,103.789,-30.494,4.208
1.147,-45.130,-102.730,-70.842,-21.076,57.244,-141.009,330.270,-684.789,625.563,104.239,-30.159,3.981
1.157,-45.131,-102.732,-70.841,-21.327,57.244,-141.009,330.360,-684.882,624.526,104.459,-29.994,3.871
1.168,-45.130,-102.735,-70.842,-21.801,57.245,-141.009,330.528,-685.039,622.557,104.874,-29.680,3.665
1.178,-45.129,-102.738,-70.843,-22.274,57.245,-141.009,330.687,-685.184,620.591,105.286,-29.365,3.463
1.187,-45.129,-102.740,-70.843,-22.500,57.245,-141.009,330.759,-685.250,619.650,105.481,-29.214,3.368
1.197,-45.129,-102.742,-70.843,-22.918,57.246,-141.009,330.876,-685.365,617.921,105.841,-28.935,3.194
1.207,-45.129,-102.744,-70.843,-23.307,57.246,-141.009,330.974,-685.465,616.310,106.174,-28.675,3.033
1.216,-45.129,-102.745,-70.843,-23.490,57.246,-141.009,331.015,-685.509,615.554,106.330,-28.552,2.959
1.227,-45.129,-102.746,-70.843,-23.852,57.246,-141.009,331.096,-685.585,614.069,106.637,-28.309,2.813
1.237,-45.129,-102.746,-70.843,-24.190,57.246,-141.009,331.151,-685.645,612.696,106.921,-28.083,2.678
1.248,-45.129,-102.746,-70.842,-24.350,57.246,-141.009,331.175,-685.671,612.051,107.055,-27.976,2.616
1.257,-45.129,-102.745,-70.842,-24.624,57.246,-141.009,331.215,-685.702,610.954,107.283,-27.793,2.509
1.267,-45.128,-102.743,-70.841,-24.868,57.245,-141.009,331.244,-685.727,609.981,107.485,-27.629,2.415
1.277,-45.128,-102.743,-70.841,-24.964,57.245,-141.009,331.254,-685.734,609.598,107.564,-27.565,2.378
1.287,-45.128,-102.741,-70.840,-25.133,57.245,-141.009,331.265,-685.745,608.945,107.702,-27.453,2.315
1.297,-45.128,-102.739,-70.840,-25.262,57.245,-141.009,331.268,-685.746,608.449,107.807,-27.367,2.266
1.307,-45.128,-102.738,-70.840,-25.306,57.245,-141.009,331.269,-685.746,608.280,107.842,-27.337,2.250
1.317,-45.128,-102.736,-70.840,-25.352,57.245,-141.009,331.264,-685.740,608.113,107.879,-27.307,2.233
1.327,-45.128,-102.734,-70.839,-25.363,57.245,-141.009,331.256,-685.731,608.101,107.886,-27.302,2.230
1.337,-45.127,-102.733,-70.839,-25.362,57.245,-141.009,331.253,-685.723,608.117,107.885,-27.303,2.231
1.347,-45.127,-102.729,-70.839,-25.363,57.245,-141.009,331.231,-685.700,608.161,107.882,-27.305,2.232
1.357,-45.127,-102.728,-70.839,-25.363,57.245,-141.009,331.226,-685.692,608.184,107.880,-27.307,2.233
1.367,-45.127,-102.729,-70.839,-25.363,57.245,-141.009,331.226,-685.695,608.180,107.881,-27.307,2.233
1.377,-45.128,-102.731,-70.840,-25.363,57.245,-141.009,331.236,-685.709,608.139,107.884,-27.304,2.231
1.387,-45.129,-102.733,-70.840,-25.363,57.244,-141.009,331.239,-685.729,608.100,107.886,-27.302,2.229
1.396,-45.129,-102.735,-70.841,-25.363,57.245,-141.009,331.246,-685.741,608.073,107.889,-27.300,2.228
1.407,-45.129,-102.739,-70.842,-25.364,57.245,-141.009,331.264,-685.769,608.004,107.894,-27.296,2.225
1.417,-45.130,-102.746,-70.842,-25.365,57.244,-141.009,331.295,-685.812,607.914,107.900,-27.291,2.221
1.427,-45.130,-102.748,-70.843,-25.365,57.244,-141.009,331.310,-685.830,607.875,107.902,-27.288,2.220
1.437,-45.130,-102.754,-70.844,-25.366,57.244,-141.009,331.349,-685.862,607.788,107.909,-27.283,2.217
1.447,-45.130,-102.763,-70.843,-25.366,57.244,-141.009,331.399,-685.914,607.680,107.916,-27.278,2.214
1.457,-45.130,-102.767,-70.844,-25.366,57.244,-141.009,331.423,-685.937,607.625,107.920,-27.275,2.212
1.467,-45.130,-102.773,-70.845,-25.366,57.244,-141.009,331.456,-685.970,607.540,107.925,-27.270,2.210
1.477,-45.130,-102.777,-70.845,-25.366,57.244,-141.009,331.481,-685.995,607.483,107.929,-27.267,2.208
1.487,-45.130,-102.779,-70.845,-25.366,57.244,-141.009,331.494,-686.005,607.460,107.931,-27.265,2.207
1.497,-45.129,-102.781,-70.845,-25.366,57.245,-141.009,331.519,-686.013,607.427,107.933,-27.264,2.208
1.507,-45.128,-102.783,-70.846,-25.368,57.245,-141.009,331.543,-686.016,607.393,107.936,-27.261,2.207
1.517,-45.127,-102.784,-70.847,-25.369,57.246,-141.009,331.560,-686.019,607.365,107.939,-27.259,2.207
1.527,-45.126,-102.790,-70.851,-25.374,57.246,-141.009,331.609,-686.048,607.234,107.951,-27.249,2.203
1.537,-45.127,-102.800,-70.851,-25.382,57.246,-141.009,331.665,-686.112,607.063,107.967,-27.236,2.196
1.547,-45.127,-102.806,-70.852,-25.386,57.246,-141.009,331.701,-686.150,606.959,107.976,-27.228,2.192
1.557,-45.127,-102.816,-70.854,-25.400,57.247,-141.010,331.766,-686.210,606.750,107.998,-27.210,2.182
1.567,-45.126,-102.830,-70.855,-25.429,57.248,-141.010,331.861,-686.284,606.452,108.034,-27.181,2.168
1.577,-45.125,-102.838,-70.855,-25.452,57.248,-141.010,331.918,-686.335,606.249,108.060,-27.160,2.156
1.587,-45.124,-102.857,-70.857,-25.522,57.248,-141.009,332.047,-686.447,605.705,108.135,-27.099,2.123
1.596,-45.125,-102.877,-70.859,-25.617,57.248,-141.009,332.159,-686.577,605.043,108.231,-27.019,2.078
1.607,-45.126,-102.892,-70.861,-25.664,57.248,-141.009,332.239,-686.669,604.652,108.283,-26.976,2.054
1.617,-45.127,-102.928,-70.864,-25.712,57.248,-141.009,332.435,-686.893,603.965,108.355,-26.917,2.019
1.627,-45.128,-102.976,-70.870,-25.730,57.248,-141.009,332.700,-687.176,603.228,108.414,-26.869,1.992
1.637,-45.129,-103.001,-70.874,-25.729,57.248,-141.009,332.842,-687.329,602.859,108.438,-26.848,1.981
1.647,-45.130,-103.057,-70.885,-25.729,57.247,-141.010,333.154,-687.659,602.037,108.493,-26.803,1.955
1.657,-45.129,-103.120,-70.906,-25.730,57.248,-141.009,333.527,-688.026,601.017,108.562,-26.746,1.924
1.667,-45.129,-103.153,-70.920,-25.730,57.247,-141.010,333.726,-688.227,600.432,108.601,-26.712,1.906
1.677,-45.131,-103.224,-70.951,-25.731,57.248,-141.010,334.123,-688.658,599.205,108.685,-26.643,1.867
1.687,-45.133,-103.295,-70.998,-25.731,57.248,-141.010,334.532,-689.092,597.795,108.781,-26.562,1.823
1.697,-45.132,-103.332,-71.021,-25.732,57.248,-141.010,334.765,-689.312,597.064,108.831,-26.520,1.801
1.707,-45.132,-103.417,-71.071,-25.731,57.247,-141.010,335.260,-689.821,595.445,108.941,-26.428,1.752
1.717,-45.131,-103.508,-71.129,-25.730,57.247,-141.010,335.820,-690.352,593.666,109.061,-26.327,1.700
1.726,-45.128,-103.555,-71.160,-25.731,57.247,-141.010,336.119,-690.613,592.738,109.124,-26.274,1.674
1.737,-45.126,-103.652,-71.218,-25.730,57.248,-141.010,336.718,-691.167,590.869,109.251,-26.168,1.621
1.747,-45.124,-103.758,-71.277,-25.731,57.248,-141.010,337.356,-691.774,588.877,109.385,-26.055,1.564
1.757,-45.124,-103.816,-71.307,-25.730,57.248,-141.010,337.694,-692.106,587.812,109.456,-25.995,1.534
1.767,-45.123,-103.948,-71.373,-25.729,57.248,-141.010,338.449,-692.860,585.420,109.614,-25.860,1.464
1.777,-45.123,-104.100,-71.431,-25.728,57.248,-141.010,339.315,-693.715,582.839,109.783,-25.716,1.392
1.787,-45.123,-104.181,-71.465,-25.728,57.249,-141.009,339.765,-694.170,581.445,109.875,-25.638,1.352
1.797,-45.122,-104.335,-71.529,-25.727,57.248,-141.010,340.633,-695.029,578.767,110.051,-25.487,1.277
1.807,-45.122,-104.483,-71.608,-25.728,57.249,-141.009,341.455,-695.852,576.006,110.233,-25.330,1.199
1.817,-45.123,-104.554,-71.653,-25.727,57.249,-141.009,341.839,-696.252,574.608,110.325,-25.251,1.159
1.826,-45.124,-104.691,-71.765,-25.726,57.248,-141.009,342.584,-697.022,571.637,110.522,-25.080,1.073
1.837,-45.124,-104.816,-71.897,-25.725,57.248,-141.009,343.271,-697.719,568.590,110.726,-24.903,0.987
1.847,-45.124,-104.877,-71.972,-25.724,57.248,-141.009,343.616,-698.055,566.980,110.834,-24.809,0.942
1.857,-45.123,-105.001,-72.130,-25.723,57.248,-141.009,344.306,-698.731,563.645,111.057,-24.613,0.850
1.867,-45.124,-105.123,-72.308,-25.723,57.248,-141.009,344.950,-699.398,560.126,111.294,-24.405,0.750
1.877,-45.125,-105.184,-72.395,-25.723,57.248,-141.009,345.265,-699.730,558.380,111.410,-24.301,0.701
1.887,-45.126,-105.305,-72.574,-25.723,57.248,-141.009,345.881,-700.373,554.859,111.646,-24.092,0.603
1.897,-45.126,-105.442,-72.744,-25.722,57.248,-141.009,346.584,-701.079,551.231,111.885,-23.879,0.506
1.907,-45.126,-105.519,-72.828,-25.721,57.248,-141.009,346.975,-701.471,549.310,112.011,-23.766,0.456
1.917,-45.126,-105.680,-72.996,-25.720,57.248,-141.009,347.780,-702.276,545.388,112.266,-23.536,0.353
1.926,-45.125,-105.834,-73.172,-25.721,57.248,-141.009,348.540,-703.023,541.467,112.522,-23.305,0.252
1.937,-45.125,-105.902,-73.265,-25.719,57.248,-141.009,348.866,-703.354,539.560,112.646,-23.192,0.203
1.947,-45.127,-106.021,-73.467,-25.718,57.247,-141.009,349.397,-703.922,535.815,112.892,-22.968,0.104
1.957,-45.129,-106.118,-73.689,-25.718,57.247,-141.009,349.803,-704.366,532.114,113.138,-22.743,0.007
1.967,-45.129,-106.160,-73.809,-25.716,57.247,-141.008,349.973,-704.542,530.267,113.261,-22.630,-0.041
1.976,-45.124,-106.235,-74.049,-25.715,57.247,-141.008,350.342,-704.811,526.663,113.502,-22.409,-0.128
1.987,-45.120,-106.317,-74.282,-25.717,57.248,-141.008,350.713,-705.106,523.042,113.743,-22.185,-0.215
1.996,-45.118,-106.364,-74.394,-25.716,57.248,-141.008,350.925,-705.284,521.194,113.865,-22.072,-0.258
2.007,-45.117,-106.476,-74.621,-25.717,57.248,-141.009,351.369,-705.723,517.242,114.123,-21.831,-0.354
2.017,-45.122,-106.588,-74.854,-25.715,57.248,-141.009,351.738,-706.177,513.242,114.382,-21.587,-0.455
2.027,-45.124,-106.639,-74.973,-25.715,57.247,-141.009,351.894,-706.376,511.267,114.511,-21.465,-0.505
2.037,-45.125,-106.730,-75.212,-25.715,57.248,-141.009,352.180,-706.686,507.464,114.759,-21.231,-0.596
2.046,-45.126,-106.813,-75.461,-25.717,57.248,-141.009,352.413,-706.938,503.651,115.010,-20.993,-0.687
2.056,-45.125,-106.856,-75.578,-25.716,57.248,-141.009,352.552,-707.062,501.810,115.129,-20.879,-0.729
2.066,-45.126,-106.951,-75.812,-25.715,57.248,-141.009,352.832,-707.350,498.011,115.375,-20.644,-0.817
2.076,-45.125,-107.043,-76.035,-25.715,57.248,-141.009,353.108,-707.605,494.376,115.609,-20.419,-0.898
2.087,-45.125,-107.085,-76.147,-25.716,57.248,-141.009,353.216,-707.716,492.606,115.724,-20.309,-0.938
2.097,-45.127,-107.160,-76.371,-25.714,57.248,-141.009,353.364,-707.899,489.177,115.945,-20.095,-1.016
2.107,-45.128,-107.225,-76.594,-25.714,57.247,-141.008,353.456,-708.027,485.901,116.157,-19.889,-1.091
2.116,-45.129,-107.249,-76.709,-25.713,57.247,-141.008,353.461,-708.050,484.323,116.260,-19.789,-1.127
2.126,-45.129,-107.286,-76.934,-25.713,57.247,-141.008,353.443,-708.032,481.376,116.454,-19.600,-1.192
2.137,-45.126,-107.323,-77.145,-25.713,57.248,-141.008,353.473,-707.989,478.595,116.637,-19.422,-1.249
2.148,-45.124,-107.343,-77.245,-25.714,57.248,-141.008,353.499,-707.978,477.244,116.725,-19.335,-1.276
2.157,-45.121,-107.388,-77.435,-25.713,57.248,-141.008,353.551,-707.981,474.587,116.897,-19.166,-1.330
2.167,-45.123,-107.439,-77.618,-25.713,57.248,-141.009,353.575,-708.038,471.931,117.067,-18.997,-1.387
2.177,-45.124,-107.460,-77.710,-25.713,57.248,-141.009,353.564,-708.046,470.645,117.150,-18.914,-1.415
2.187,-45.127,-107.484,-77.896,-25.714,57.248,-141.009,353.449,-707.982,468.311,117.304,-18.762,-1.468
2.197,-45.127,-107.497,-78.074,-25.714,57.248,-141.009,353.323,-707.870,466.199,117.443,-18.624,-1.513
2.206,-45.128,-107.500,-78.168,-25.714,57.248,-141.009,353.234,-707.793,465.133,117.514,-18.553,-1.537
2.217,-45.125,-107.504,-78.349,-25.714,57.249,-141.009,353.104,-707.609,463.121,117.649,-18.420,-1.576
2.228,-45.123,-107.505,-78.519,-25.714,57.249,-141.009,352.955,-707.426,461.256,117.773,-18.295,-1.613
2.237,-45.123,-107.506,-78.599,-25.714,57.249,-141.009,352.880,-707.340,460.373,117.832,-18.237,-1.631
2.247,-45.120,-107.508,-78.746,-25.716,57.249,-141.009,352.767,-707.177,458.747,117.941,-18.128,-1.662
2.257,-45.123,-107.510,-78.873,-25.715,57.249,-141.009,352.598,-707.063,457.349,118.033,-18.035,-1.694
2.267,-45.124,-107.508,-78.933,-25.714,57.248,-141.009,352.513,-707.000,456.728,118.074,-17.993,-1.708
2.276,-45.125,-107.507,-79.040,-25.714,57.248,-141.009,352.383,-706.877,455.579,118.151,-17.916,-1.733
2.287,-45.123,-107.504,-79.137,-25.713,57.248,-141.009,352.289,-706.749,454.568,118.218,-17.848,-1.751
2.297,-45.122,-107.503,-79.181,-25.713,57.248,-141.009,352.251,-706.686,454.096,118.250,-17.817,-1.760
2.307,-45.120,-107.504,-79.265,-25.713,57.248,-141.008,352.178,-706.584,453.181,118.310,-17.756,-1.777
2.317,-45.121,-107.505,-79.342,-25.714,57.248,-141.009,352.087,-706.501,452.328,118.367,-17.698,-1.794
2.327,-45.121,-107.505,-79.376,-25.713,57.248,-141.009,352.041,-706.466,451.971,118.391,-17.674,-1.802
2.337,-45.125,-107.501,-79.440,-25.712,57.248,-141.009,351.896,-706.403,451.325,118.434,-17.631,-1.820
2.346,-45.128,-107.498,-79.499,-25.711,57.248,-141.009,351.781,-706.342,450.732,118.473,-17.591,-1.835
2.356,-45.129,-107.496,-79.527,-25.711,57.247,-141.009,351.730,-706.306,450.451,118.492,-17.571,-1.841
2.367,-45.128,-107.495,-79.572,-25.710,57.247,-141.009,351.691,-706.240,449.984,118.523,-17.540,-1.849
2.377,-45.127,-107.495,-79.615,-25.710,57.248,-141.008,351.648,-706.184,449.522,118.553,-17.510,-1.858
2.387,-45.127,-107.495,-79.637,-25.710,57.248,-141.009,351.622,-706.158,449.285,118.569,-17.494,-1.862
2.397,-45.127,-107.496,-79.674,-25.710,57.248,-141.009,351.580,-706.120,448.874,118.596,-17.466,-1.870
2.407,-45.130,-107.496,-79.705,-25.710,57.248,-141.009,351.514,-706.099,448.525,118.619,-17.443,-1.880
2.417,-45.129,-107.498,-79.716,-25.710,57.248,-141.009,351.513,-706.088,448.387,118.628,-17.434,-1.882
2.427,-45.128,-107.499,-79.744,-25.710,57.248,-141.008,351.494,-706.052,448.069,118.649,-17.413,-1.888
2.437,-45.125,-107.503,-79.751,-25.710,57.249,-141.008,351.550,-706.038,447.939,118.657,-17.405,-1.886
2.447,-45.124,-107.503,-79.753,-25.710,57.249,-141.009,351.558,-706.031,447.908,118.660,-17.403,-1.885
2.457,-45.122,-107.503,-79.754,-25.710,57.249,-141.008,351.579,-706.019,447.905,118.660,-17.403,-1.884
2.467,-45.121,-107.503,-79.756,-25.711,57.249,-141.008,351.590,-706.010,447.880,118.662,-17.401,-1.883
2.477,-45.122,-107.503,-79.756,-25.710,57.249,-141.009,351.581,-706.010,447.885,118.661,-17.401,-1.884
2.487,-45.121,-107.502,-79.756,-25.710,57.249,-141.008,351.582,-706.008,447.901,118.660,-17.403,-1.883
2.497,-45.121,-107.502,-79.756,-25.709,57.249,-141.008,351.582,-706.007,447.902,118.660,-17.403,-1.883
2.507,-45.121,-107.502,-79.756,-25.709,57.249,-141.008,351.584,-706.005,447.904,118.660,-17.403,-1.883
2.517,-45.122,-107.500,-79.756,-25.708,57.249,-141.009,351.568,-706.006,447.927,118.658,-17.404,-1.883
2.527,-45.123,-107.499,-79.756,-25.707,57.249,-141.009,351.550,-706.008,447.954,118.656,-17.407,-1.883
2.537,-45.123,-107.498,-79.756,-25.706,57.249,-141.009,351.546,-706.004,447.971,118.654,-17.408,-1.883
2.546,-45.125,-107.496,-79.755,-25.703,57.249,-141.008,351.527,-706.009,448.011,118.650,-17.412,-1.883
2.556,-45.125,-107.494,-79.755,-25.696,57.249,-141.008,351.516,-706.011,448.069,118.644,-17.419,-1.882
2.567,-45.126,-107.493,-79.755,-25.691,57.249,-141.008,351.507,-706.015,448.100,118.640,-17.424,-1.882
2.576,-45.126,-107.490,-79.754,-25.678,57.249,-141.008,351.503,-706.011,448.200,118.628,-17.436,-1.878
2.587,-45.126,-107.486,-79.753,-25.656,57.249,-141.008,351.506,-706.011,448.354,118.608,-17.456,-1.872
2.597,-45.126,-107.484,-79.752,-25.640,57.249,-141.007,351.511,-706.011,448.451,118.595,-17.470,-1.868
2.606,-45.124,-107.482,-79.752,-25.602,57.250,-141.007,351.543,-706.018,448.633,118.566,-17.499,-1.858
2.616,-45.122,-107.482,-79.751,-25.559,57.250,-141.007,351.596,-706.032,448.809,118.535,-17.532,-1.846
2.626,-45.122,-107.483,-79.751,-25.542,57.250,-141.007,351.613,-706.040,448.878,118.522,-17.544,-1.842
2.637,-45.121,-107.484,-79.751,-25.526,57.250,-141.006,351.637,-706.052,448.920,118.512,-17.555,-1.838
2.647,-45.120,-107.486,-79.751,-25.524,57.250,-141.006,351.654,-706.051,448.907,118.512,-17.556,-1.838
2.657,-45.120,-107.486,-79.751,-25.524,57.250,-141.006,351.655,-706.052,448.910,118.512,-17.556,-1.838
2.666,-45.120,-107.486,-79.750,-25.523,57.251,-141.005,351.661,-706.053,448.911,118.512,-17.558,-1.837
2.677,-45.120,-107.486,-79.749,-25.522,57.250,-141.005,351.666,-706.053,448.936,118.509,-17.560,-1.837
2.687,-45.119,-107.486,-79.748,-25.520,57.251,-141.004,351.672,-706.051,448.954,118.508,-17.562,-1.836
2.696,-45.119,-107.484,-79.746,-25.517,57.250,-141.004,351.678,-706.048,449.005,118.503,-17.567,-1.834
2.707,-45.119,-107.484,-79.743,-25.513,57.251,-141.004,351.678,-706.053,449.070,118.497,-17.574,-1.833
2.717,-45.120,-107.483,-79.741,-25.510,57.251,-141.004,351.676,-706.059,449.104,118.493,-17.577,-1.832
2.727,-45.120,-107.482,-79.738,-25.502,57.250,-141.004,351.671,-706.068,449.184,118.485,-17.586,-1.830
2.738,-45.121,-107.482,-79.734,-25.491,57.251,-141.003,351.675,-706.081,449.276,118.474,-17.598,-1.828
2.746,-45.121,-107.482,-79.731,-25.484,57.250,-141.003,351.680,-706.087,449.341,118.466,-17.605,-1.826
2.758,-45.121,-107.480,-79.724,-25.466,57.250,-141.002,351.689,-706.104,449.502,118.448,-17.625,-1.821
2.767,-45.122,-107.479,-79.722,-25.435,57.250,-141.001,351.693,-706.126,449.666,118.423,-17.651,-1.815
2.776,-45.124,-107.479,-79.723,-25.410,57.250,-141.001,351.685,-706.147,449.749,118.406,-17.668,-1.811
2.788,-45.127,-107.482,-79.728,-25.337,57.249,-141.000,351.697,-706.214,449.949,118.359,-17.716,-1.801
2.797,-45.127,-107.485,-79.728,-25.230,57.249,-140.997,351.761,-706.290,450.334,118.284,-17.794,-1.781
2.807,-45.126,-107.486,-79.728,-25.153,57.249,-140.996,351.817,-706.332,450.631,118.230,-17.850,-1.763
2.818,-45.123,-107.487,-79.728,-24.952,57.249,-140.996,351.973,-706.427,451.430,118.085,-17.996,-1.716
2.828,-45.121,-107.487,-79.728,-24.696,57.249,-140.996,352.134,-706.556,452.460,117.899,-18.182,-1.657
2.837,-45.120,-107.487,-79.728,-24.577,57.249,-140.996,352.218,-706.611,452.940,117.813,-18.269,-1.628
2.846,-45.119,-107.488,-79.727,-24.273,57.249,-140.996,352.393,-706.773,454.139,117.594,-18.488,-1.558
2.858,-45.120,-107.493,-79.729,-23.919,57.249,-140.995,352.580,-706.976,455.479,117.341,-18.740,-1.478
2.867,-45.121,-107.497,-79.730,-23.726,57.249,-140.996,352.678,-707.094,456.191,117.204,-18.876,-1.435
2.877,-45.123,-107.508,-79.731,-23.321,57.249,-140.995,352.895,-707.343,457.663,116.917,-19.160,-1.343
2.887,-45.123,-107.517,-79.733,-22.893,57.250,-140.996,353.123,-707.577,459.245,116.611,-19.460,-1.242
2.897,-45.123,-107.521,-79.735,-22.665,57.249,-140.996,353.237,-707.691,460.100,116.447,-19.620,-1.187
2.907,-45.124,-107.525,-79.738,-22.193,57.249,-140.996,353.446,-707.914,461.918,116.104,-19.955,-1.071
2.917,-45.125,-107.528,-79.738,-21.675,57.249,-140.996,353.643,-708.143,463.977,115.721,-20.325,-0.941
2.926,-45.126,-107.527,-79.738,-21.411,57.249,-140.997,353.733,-708.249,465.050,115.525,-20.514,-0.873
2.937,-45.130,-107.525,-79.736,-20.866,57.249,-140.997,353.884,-708.465,467.310,115.114,-20.907,-0.732
2.947,-45.133,-107.524,-79.735,-20.288,57.249,-140.997,354.027,-708.681,469.679,114.678,-21.321,-0.578
2.957,-45.136,-107.524,-79.736,-19.976,57.249,-140.997,354.099,-708.793,470.930,114.444,-21.542,-0.495
2.967,-45.138,-107.525,-79.736,-19.359,57.249,-140.997,354.251,-708.989,473.432,113.977,-21.980,-0.324
2.977,-45.136,-107.525,-79.736,-18.705,57.250,-140.997,354.445,-709.150,476.075,113.479,-22.442,-0.134
2.987,-45.135,-107.526,-79.737,-18.360,57.250,-140.998,354.541,-709.230,477.455,113.216,-22.685,-0.031
2.997,-45.133,-107.527,-79.740,-17.664,57.250,-140.998,354.714,-709.362,480.243,112.683,-23.171,0.179
3.007,-45.132,-107.527,-79.743,-16.962,57.251,-140.999,354.856,-709.475,483.072,112.141,-23.662,0.396
3.017,-45.131,-107.527,-79.744,-16.604,57.250,-140.999,354.922,-709.520,484.517,111.862,-23.912,0.510
3.027,-45.128,-107.528,-79.748,-15.849,57.250,-140.999,355.043,-709.594,487.549,111.272,-24.436,0.754
3.037,-45.126,-107.528,-79.753,-15.216,57.250,-140.999,355.123,-709.631,490.070,110.775,-24.871,0.963
3.046,-45.124,-107.529,-79.757,-14.869,57.250,-140.999,355.163,-709.644,491.437,110.503,-25.109,1.080
3.057,-45.119,-107.530,-79.763,-14.183,57.251,-140.999,355.256,-709.635,494.146,109.961,-25.577,1.318
3.068,-45.114,-107.530,-79.769,-13.518,57.251,-140.999,355.311,-709.606,496.801,109.429,-26.031,1.554
3.076,-45.113,-107.531,-79.771,-13.131,57.250,-140.999,355.311,-709.593,498.348,109.117,-26.294,1.692
3.087,-45.113,-107.532,-79.776,-12.536,57.250,-140.999,355.291,-709.565,500.706,108.636,-26.696,1.906
3.097,-45.114,-107.533,-79.783,-11.910,57.250,-140.999,355.225,-709.523,503.166,108.128,-27.116,2.135
3.107,-45.116,-107.534,-79.787,-11.604,57.250,-140.999,355.180,-709.503,504.359,107.880,-27.320,2.247
3.117,-45.118,-107.537,-79.796,-10.989,57.249,-141.000,355.081,-709.448,506.736,107.378,-27.727,2.476
3.127,-45.120,-107.541,-79.803,-10.417,57.248,-141.000,354.970,-709.390,508.936,106.908,-28.104,2.693
3.137,-45.121,-107.542,-79.806,-10.144,57.247,-140.999,354.915,-709.353,509.998,106.682,-28.284,2.798
3.147,-45.122,-107.545,-79.808,-9.609,57.246,-141.000,354.800,-709.272,512.115,106.234,-28.638,3.009
3.156,-45.124,-107.548,-79.809,-9.090,57.244,-140.999,354.669,-709.178,514.187,105.794,-28.982,3.217
3.167,-45.126,-107.549,-79.810,-8.848,57.243,-140.999,354.594,-709.137,515.136,105.590,-29.141,3.314
3.177,-45.128,-107.551,-79.817,-8.387,57.241,-140.999,354.437,-709.042,516.913,105.201,-29.440,3.500
3.186,-45.133,-107.551,-79.826,-7.954,57.239,-140.999,354.245,-708.948,518.572,104.834,-29.719,3.674
3.197,-45.135,-107.550,-79.831,-7.747,57.239,-140.999,354.151,-708.897,519.370,104.658,-29.853,3.759
3.207,-45.139,-107.550,-79.842,-7.339,57.238,-140.999,353.974,-708.788,520.909,104.312,-30.113,3.928
3.217,-45.139,-107.549,-79.857,-6.972,57.235,-140.999,353.834,-708.658,522.246,104.002,-30.343,4.082
3.227,-45.138,-107.550,-79.863,-6.797,57.234,-141.000,353.774,-708.599,522.886,103.854,-30.453,4.156
3.237,-45.138,-107.551,-79.869,-6.458,57.231,-141.000,353.651,-708.483,524.172,103.561,-30.668,4.302
3.247,-45.138,-107.553,-79.872,-6.203,57.225,-140.999,353.532,-708.402,525.162,103.338,-30.830,4.410
3.257,-45.138,-107.554,-79.873,-6.083,57.219,-141.000,353.471,-708.365,525.616,103.234,-30.904,4.458
3.267,-45.139,-107.557,-79.880,-5.843,57.201,-140.999,353.295,-708.305,526.497,103.025,-31.052,4.547
3.277,-45.143,-107.555,-79.887,-5.657,57.165,-140.999,353.002,-708.283,527.206,102.858,-31.161,4.594
3.287,-45.146,-107.555,-79.890,-5.579,57.138,-140.999,352.806,-708.295,527.505,102.786,-31.205,4.601
3.297,-45.154,-107.556,-79.895,-5.445,57.063,-140.999,352.323,-708.355,528.027,102.659,-31.276,4.587
3.307,-45.164,-107.555,-79.899,-5.375,56.963,-140.999,351.719,-708.472,528.331,102.583,-31.302,4.518
3.317,-45.171,-107.555,-79.901,-5.364,56.900,-140.999,351.339,-708.568,528.398,102.563,-31.298,4.460
3.327,-45.188,-107.555,-79.904,-5.369,56.730,-140.999,350.382,-708.821,528.432,102.543,-31.263,4.288
3.336,-45.205,-107.556,-79.906,-5.372,56.502,-140.999,349.151,-709.125,528.527,102.509,-31.222,4.066
3.347,-45.212,-107.556,-79.907,-5.373,56.368,-140.999,348.464,-709.283,528.587,102.488,-31.198,3.939
3.357,-45.232,-107.557,-79.909,-5.376,56.060,-140.999,346.849,-709.664,528.716,102.442,-31.142,3.643
3.366,-45.269,-107.561,-79.910,-5.382,55.685,-140.999,344.728,-710.201,528.856,102.387,-31.072,3.269
3.377,-45.293,-107.562,-79.910,-5.384,55.475,-140.998,343.493,-710.517,528.955,102.354,-31.035,3.058
3.387,-45.352,-107.564,-79.909,-5.384,55.011,-140.999,340.690,-711.221,529.218,102.274,-30.957,2.587
3.397,-45.412,-107.566,-79.909,-5.383,54.497,-140.999,337.642,-711.946,529.509,102.185,-30.872,2.072
3.406,-45.442,-107.567,-79.909,-5.383,54.225,-140.999,336.042,-712.312,529.660,102.138,-30.826,1.800
3.417,-45.503,-107.571,-79.909,-5.383,53.647,-140.999,332.709,-713.048,529.964,102.040,-30.729,1.227
3.426,-45.561,-107.580,-79.909,-5.383,53.035,-141.000,329.266,-713.779,530.234,101.938,-30.624,0.624
3.437,-45.588,-107.587,-79.909,-5.384,52.723,-141.000,327.556,-714.132,530.347,101.888,-30.569,0.319
3.447,-45.631,-107.608,-79.907,-5.383,52.077,-141.000,324.195,-714.805,530.508,101.786,-30.452,-0.303
3.457,-45.677,-107.629,-79.907,-5.383,51.409,-141.000,320.706,-715.457,530.681,101.681,-30.332,-0.946
3.468,-45.701,-107.634,-79.908,-5.382,51.079,-141.000,318.929,-715.749,530.823,101.624,-30.277,-1.264
3.477,-45.755,-107.640,-79.907,-5.381,50.394,-141.000,315.178,-716.324,531.211,101.501,-30.167,-1.924
3.487,-45.816,-107.642,-79.909,-5.380,49.686,-141.000,311.220,-716.876,531.653,101.370,-30.056,-2.609
3.497,-45.847,-107.643,-79.909,-5.380,49.330,-140.999,309.220,-717.134,531.886,101.303,-30.002,-2.953
3.507,-45.913,-107.642,-79.908,-5.379,48.610,-141.000,305.123,-717.633,532.404,101.165,-29.894,-3.652
3.517,-45.982,-107.640,-79.907,-5.379,47.881,-141.000,300.951,-718.090,532.951,101.022,-29.788,-4.360
3.527,-46.019,-107.640,-79.906,-5.379,47.468,-141.000,298.606,-718.325,533.255,100.942,-29.727,-4.760
3.536,-46.078,-107.639,-79.906,-5.380,46.814,-141.000,294.888,-718.655,533.745,100.814,-29.632,-5.394
3.547,-46.138,-107.638,-79.905,-5.380,46.107,-141.000,290.933,-718.947,534.278,100.674,-29.530,-6.073
3.557,-46.163,-107.638,-79.905,-5.380,45.764,-141.000,289.066,-719.053,534.526,100.606,-29.481,-6.399
3.567,-46.204,-107.638,-79.906,-5.380,45.098,-141.000,285.534,-719.197,534.993,100.476,-29.385,-7.025
3.577,-46.242,-107.640,-79.908,-5.380,44.461,-141.000,282.175,-719.294,535.436,100.350,-29.293,-7.623
3.586,-46.259,-107.640,-79.908,-5.379,44.155,-141.000,280.580,-719.319,535.659,100.289,-29.250,-7.908
3.597,-46.287,-107.640,-79.909,-5.379,43.573,-141.000,277.599,-719.321,536.091,100.172,-29.170,-8.446
3.608,-46.295,-107.639,-79.909,-5.379,43.020,-141.000,274.988,-719.202,536.534,100.059,-29.096,-8.938
3.617,-46.296,-107.637,-79.908,-5.379,42.757,-141.000,273.785,-719.115,536.765,100.003,-29.062,-9.168
3.627,-46.300,-107.635,-79.907,-5.379,42.265,-141.000,271.496,-718.958,537.186,99.900,-28.999,-9.602
3.637,-46.306,-107.634,-79.906,-5.379,41.823,-141.001,269.426,-718.814,537.547,99.809,-28.941,-9.994
3.647,-46.309,-107.633,-79.906,-5.379,41.580,-141.001,268.288,-718.731,537.741,99.758,-28.909,-10.210
3.657,-46.318,-107.634,-79.906,-5.379,41.228,-141.001,266.600,-718.622,538.010,99.686,-28.862,-10.527
3.667,-46.327,-107.635,-79.907,-5.379,40.881,-141.001,264.933,-718.508,538.271,99.614,-28.816,-10.839
3.676,-46.329,-107.635,-79.907,-5.379,40.724,-141.001,264.195,-718.450,538.384,99.583,-28.795,-10.979
3.686,-46.335,-107.636,-79.908,-5.379,40.441,-141.001,262.858,-718.341,538.582,99.525,-28.756,-11.233
3.697,-46.335,-107.637,-79.908,-5.379,40.199,-141.001,261.773,-718.218,538.774,99.475,-28.725,-11.445
3.707,-46.333,-107.637,-79.908,-5.379,40.091,-141.001,261.307,-718.155,538.860,99.452,-28.711,-11.538
3.717,-46.331,-107.636,-79.907,-5.379,39.891,-141.001,260.441,-718.031,539.032,99.409,-28.687,-11.709
3.727,-46.329,-107.634,-79.906,-5.379,39.747,-141.002,259.803,-717.937,539.179,99.377,-28.670,-11.833
3.737,-46.329,-107.633,-79.905,-5.379,39.682,-141.002,259.509,-717.894,539.252,99.362,-28.663,-11.889
3.747,-46.331,-107.632,-79.904,-5.379,39.587,-141.002,259.051,-717.843,539.362,99.341,-28.653,-11.973
3.757,-46.333,-107.631,-79.904,-5.379,39.523,-141.002,258.738,-717.811,539.418,99.327,-28.646,-12.030
3.767,-46.334,-107.631,-79.904,-5.379,39.497,-141.002,258.608,-717.797,539.448,99.321,-28.643,-12.054
3.777,-46.336,-107.630,-79.904,-5.379,39.451,-141.002,258.377,-717.778,539.490,99.311,-28.638,-12.096
3.786,-46.337,-107.630,-79.903,-5.379,39.419,-141.002,258.215,-717.765,539.524,99.304,-28.635,-12.125
3.796,-46.338,-107.630,-79.903,-5.378,39.410,-141.002,258.158,-717.759,539.539,99.301,-28.634,-12.134
3.806,-46.340,-107.628,-79.903,-5.378,39.405,-141.002,258.103,-717.760,539.568,99.298,-28.636,-12.140
3.817,-46.343,-107.628,-79.901,-5.377,39.405,-141.001,258.070,-717.767,539.590,99.297,-28.638,-12.141
3.827,-46.345,-107.628,-79.901,-5.377,39.405,-141.002,258.046,-717.776,539.590,99.297,-28.638,-12.143
3.836,-46.350,-107.628,-79.901,-5.377,39.406,-141.002,257.983,-717.799,539.594,99.297,-28.639,-12.147
3.846,-46.355,-107.627,-79.900,-5.377,39.406,-141.002,257.913,-717.823,539.603,99.296,-28.639,-12.152
3.856,-46.358,-107.627,-79.900,-5.377,39.406,-141.001,257.884,-717.833,539.612,99.296,-28.640,-12.154
3.867,-46.359,-107.627,-79.899,-5.377,39.407,-141.001,257.862,-717.838,539.625,99.295,-28.641,-12.155
3.877,-46.359,-107.626,-79.898,-5.377,39.407,-141.002,257.871,-717.834,539.638,99.294,-28.643,-12.154
3.887,-46.358,-107.626,-79.898,-5.377,39.407,-141.001,257.875,-717.833,539.635,99.294,-28.643,-12.154
3.896,-46.358,-107.627,-79.898,-5.377,39.408,-141.001,257.891,-717.832,539.628,99.295,-28.642,-12.152
3.906,-46.356,-107.627,-79.898,-5.377,39.408,-141.001,257.906,-717.827,539.627,99.295,-28.642,-12.151
3.917,-46.356,-107.627,-79.898,-5.377,39.408,-141.002,257.909,-717.825,539.630,99.295,-28.642,-12.151
3.927,-46.356,-107.626,-79.897,-5.377,39.408,-141.001,257.911,-717.821,539.649,99.294,-28.644,-12.150
3.937,-46.356,-107.625,-79.896,-5.377,39.408,-141.001,257.903,-717.818,539.669,99.293,-28.645,-12.150
3.947,-46.356,-107.625,-79.895,-5.377,39.408,-141.001,257.900,-717.814,539.691,99.291,-28.647,-12.149
3.956,-46.356,-107.624,-79.893,-5.377,39.408,-141.001,257.900,-717.810,539.722,99.289,-28.650,-12.148
3.967,-46.355,-107.622,-79.888,-5.377,39.409,-141.001,257.900,-717.800,539.791,99.285,-28.655,-12.145
3.977,-46.355,-107.621,-79.884,-5.377,39.409,-141.001,257.894,-717.793,539.843,99.282,-28.659,-12.143
3.987,-46.354,-107.616,-79.874,-5.377,39.409,-141.001,257.889,-717.767,539.996,99.273,-28.672,-12.137
3.996,-46.354,-107.608,-79.862,-5.376,39.409,-141.001,257.853,-717.723,540.223,99.259,-28.689,-12.130
4.007,-46.354,-107.601,-79.856,-5.376,39.409,-141.001,257.817,-717.689,540.368,99.250,-28.700,-12.127
4.016,-46.354,-107.583,-79.841,-5.375,39.409,-141.000,257.730,-717.600,540.737,99.229,-28.728,-12.116
4.027,-46.355,-107.563,-79.817,-5.374,39.409,-141.001,257.623,-717.504,541.219,99.200,-28.765,-12.103
4.037,-46.356,-107.551,-79.802,-5.374,39.409,-141.000,257.556,-717.448,541.508,99.183,-28.787,-12.096
4.047,-46.356,-107.523,-79.763,-5.374,39.409,-141.000,257.421,-717.308,542.237,99.140,-28.843,-12.075
4.057,-46.356,-107.481,-79.710,-5.374,39.409,-141.000,257.215,-717.095,543.279,99.079,-28.922,-12.046
4.067,-46.357,-107.455,-79.675,-5.374,39.409,-141.001,257.088,-716.968,543.935,99.040,-28.971,-12.027
4.076,-46.358,-107.392,-79.599,-5.374,39.409,-141.000,256.765,-716.648,545.469,98.949,-29.087,-11.984
4.087,-46.359,-107.315,-79.508,-5.374,39.410,-141.000,256.379,-716.260,547.300,98.841,-29.225,-11.932
4.097,-46.360,-107.272,-79.459,-5.374,39.410,-141.000,256.157,-716.039,548.309,98.781,-29.301,-11.904
4.107,-46.360,-107.179,-79.345,-5.375,39.410,-141.001,255.686,-715.561,550.557,98.648,-29.470,-11.839
4.117,-46.360,-107.076,-79.217,-5.376,39.410,-141.001,255.173,-715.013,553.080,98.497,-29.660,-11.764
4.127,-46.360,-107.022,-79.143,-5.376,39.410,-141.001,254.906,-714.726,554.461,98.414,-29.765,-11.722
4.136,-46.359,-106.916,-78.986,-5.377,39.410,-141.001,254.362,-714.146,557.310,98.241,-29.982,-11.636
4.147,-46.359,-106.806,-78.810,-5.377,39.410,-141.001,253.784,-713.542,560.375,98.054,-30.215,-11.542
4.157,-46.359,-106.750,-78.715,-5.377,39.410,-141.001,253.483,-713.225,561.992,97.954,-30.339,-11.491
4.169,-46.360,-106.632,-78.509,-5.377,39.410,-141.002,252.832,-712.558,565.452,97.739,-30.604,-11.383
4.176,-46.360,-106.515,-78.281,-5.378,39.410,-141.002,252.173,-711.867,569.133,97.508,-30.886,-11.265
4.187,-46.360,-106.458,-78.160,-5.379,39.410,-141.002,251.844,-711.524,571.014,97.389,-31.031,-11.204
4.197,-46.360,-106.347,-77.912,-5.379,39.411,-141.002,251.199,-710.844,574.797,97.148,-31.324,-11.078
4.207,-46.360,-106.230,-77.670,-5.378,39.411,-141.002,250.505,-710.111,578.604,96.904,-31.617,-10.950
4.216,-46.359,-106.169,-77.547,-5.379,39.412,-141.002,250.143,-709.721,580.552,96.779,-31.767,-10.884
4.227,-46.360,-106.034,-77.318,-5.379,39.413,-141.003,249.330,-708.875,584.431,96.531,-32.062,-10.752
4.237,-46.360,-105.893,-77.091,-5.381,39.413,-141.003,248.467,-707.972,588.364,96.278,-32.360,-10.617
4.247,-46.360,-105.822,-76.983,-5.381,39.413,-141.003,248.030,-707.516,590.278,96.154,-32.505,-10.551
4.257,-46.362,-105.693,-76.767,-5.382,39.413,-141.003,247.200,-706.669,593.952,95.914,-32.784,-10.423
4.267,-46.362,-105.574,-76.566,-5.383,39.414,-141.004,246.433,-705.875,597.347,95.691,-33.041,-10.302
4.276,-46.361,-105.519,-76.473,-5.385,39.414,-141.004,246.088,-705.495,598.922,95.588,-33.160,-10.244
4.287,-46.361,-105.418,-76.305,-5.388,39.415,-141.004,245.428,-704.802,601.776,95.400,-33.374,-10.140
4.298,-46.361,-105.325,-76.155,-5.391,39.414,-141.005,244.817,-704.162,604.350,95.230,-33.567,-10.047
4.307,-46.362,-105.279,-76.090,-5.392,39.415,-141.005,244.517,-703.850,605.529,95.152,-33.655,-10.004
4.317,-46.365,-105.189,-75.979,-5.391,39.414,-141.005,243.895,-703.252,607.694,95.008,-33.818,-9.927
4.327,-46.370,-105.095,-75.892,-5.391,39.414,-141.005,243.242,-702.655,609.658,94.879,-33.963,-9.860
4.336,-46.373,-105.047,-75.859,-5.391,39.414,-141.005,242.904,-702.357,610.553,94.820,-34.027,-9.831
4.347,-46.383,-104.952,-75.819,-5.391,39.415,-141.006,242.224,-701.805,612.069,94.723,-34.136,-9.785
4.356,-46.392,-104.866,-75.806,-5.392,39.418,-141.007,241.629,-701.320,613.207,94.653,-34.213,-9.751
4.366,-46.395,-104.826,-75.807,-5.394,39.421,-141.007,241.372,-701.101,613.662,94.626,-34.243,-9.737
4.377,-46.402,-104.752,-75.810,-5.397,39.438,-141.010,240.943,-700.705,614.483,94.579,-34.295,-9.701
4.387,-46.407,-104.692,-75.813,-5.408,39.467,-141.018,240.676,-700.390,615.123,94.548,-34.327,-9.659
4.397,-46.407,-104.666,-75.817,-5.419,39.486,-141.022,240.638,-700.261,615.340,94.542,-34.332,-9.635
4.407,-46.402,-104.629,-75.825,-5.457,39.536,-141.028,240.741,-700.087,615.571,94.553,-34.322,-9.586
4.417,-46.395,-104.618,-75.830,-5.524,39.598,-141.033,241.100,-700.090,615.429,94.603,-34.272,-9.546
4.427,-46.390,-104.620,-75.831,-5.563,39.635,-141.034,241.379,-700.135,615.263,94.637,-34.239,-9.523
4.438,-46.379,-104.625,-75.841,-5.635,39.743,-141.041,242.095,-700.258,614.852,94.711,-34.170,-9.446
4.448,-46.367,-104.633,-75.857,-5.690,39.920,-141.053,243.137,-700.425,614.366,94.786,-34.107,-9.300
4.458,-46.359,-104.637,-75.869,-5.712,40.036,-141.057,243.817,-700.507,614.088,94.826,-34.080,-9.198
4.467,-46.336,-104.643,-75.906,-5.749,40.309,-141.061,245.412,-700.661,613.437,94.912,-34.030,-8.953
4.477,-46.307,-104.646,-75.965,-5.781,40.643,-141.060,247.378,-700.808,612.594,95.016,-33.980,-8.648
4.486,-46.288,-104.649,-75.998,-5.796,40.830,-141.060,248.511,-700.885,612.099,95.074,-33.952,-8.477
4.497,-46.242,-104.655,-76.076,-5.831,41.261,-141.059,251.155,-701.022,610.964,95.209,-33.889,-8.078
4.507,-46.175,-104.659,-76.176,-5.890,41.793,-141.055,254.526,-701.113,609.525,95.389,-33.803,-7.583
4.517,-46.151,-104.658,-76.220,-5.919,42.014,-141.055,255.884,-701.150,608.908,95.468,-33.763,-7.383
4.527,-46.093,-104.656,-76.324,-5.995,42.582,-141.054,259.303,-701.232,607.411,95.666,-33.669,-6.871
4.537,-46.055,-104.652,-76.423,-6.046,43.212,-141.054,262.724,-701.353,606.032,95.849,-33.605,-6.309
4.547,-46.048,-104.651,-76.466,-6.054,43.539,-141.054,264.326,-701.447,605.438,95.926,-33.593,-6.020
4.557,-46.053,-104.650,-76.546,-6.048,44.231,-141.053,267.464,-701.688,604.371,96.061,-33.595,-5.414
4.568,-46.064,-104.649,-76.611,-6.043,44.961,-141.052,270.696,-701.916,603.426,96.192,-33.612,-4.773
4.577,-46.074,-104.647,-76.642,-6.041,45.334,-141.050,272.288,-702.026,602.981,96.256,-33.625,-4.449
4.587,-46.102,-104.645,-76.694,-6.029,46.078,-141.045,275.365,-702.256,602.196,96.372,-33.665,-3.803
4.597,-46.139,-104.645,-76.736,-6.015,46.824,-141.043,278.325,-702.490,601.512,96.479,-33.712,-3.161
4.607,-46.158,-104.645,-76.744,-6.007,47.183,-141.042,279.743,-702.589,601.291,96.521,-33.743,-2.847
4.617,-46.192,-104.643,-76.751,-5.996,47.879,-141.038,282.495,-702.718,601.007,96.594,-33.814,-2.231
4.627,-46.225,-104.637,-76.742,-5.990,48.540,-141.035,285.060,-702.782,600.934,96.649,-33.892,-1.640
4.637,-46.244,-104.632,-76.740,-5.987,48.849,-141.034,286.221,-702.807,600.901,96.675,-33.928,-1.366
4.647,-46.285,-104.624,-76.735,-5.984,49.417,-141.034,288.260,-702.882,600.829,96.724,-33.990,-0.872
4.657,-46.326,-104.619,-76.734,-5.984,49.952,-141.033,290.172,-702.954,600.701,96.776,-34.044,-0.411
4.667,-46.342,-104.618,-76.732,-5.984,50.141,-141.034,290.826,-702.988,600.662,96.793,-34.063,-0.251
4.677,-46.386,-104.617,-76.731,-5.986,50.537,-141.034,292.098,-703.115,600.527,96.835,-34.100,0.075
4.687,-46.435,-104.619,-76.732,-5.986,50.866,-141.033,293.011,-703.294,600.359,96.874,-34.129,0.331
4.697,-46.462,-104.621,-76.734,-5.987,51.007,-141.033,293.339,-703.402,600.263,96.892,-34.139,0.434
4.707,-46.513,-104.626,-76.737,-5.987,51.246,-141.033,293.834,-703.625,600.073,96.925,-34.155,0.601
4.717,-46.558,-104.638,-76.743,-5.987,51.442,-141.032,294.252,-703.867,599.787,96.961,-34.162,0.731
4.727,-46.572,-104.643,-76.747,-5.987,51.504,-141.032,294.386,-703.956,599.658,96.976,-34.162,0.769
4.736,-46.608,-104.657,-76.760,-5.987,51.607,-141.032,294.502,-704.194,599.313,97.011,-34.154,0.816
4.747,-46.628,-104.674,-76.773,-5.988,51.639,-141.031,294.500,-704.396,598.943,97.042,-34.136,0.810
4.756,-46.632,-104.686,-76.784,-5.988,51.633,-141.032,294.498,-704.496,598.684,97.061,-34.120,0.790
4.767,-46.632,-104.708,-76.802,-5.988,51.622,-141.032,294.575,-704.633,598.227,97.095,-34.093,0.760
4.776,-46.632,-104.731,-76.842,-5.987,51.615,-141.031,294.695,-704.795,597.520,97.150,-34.050,0.722
4.787,-46.631,-104.745,-76.871,-5.987,51.615,-141.030,294.795,-704.893,597.032,97.188,-34.022,0.701
4.797,-46.630,-104.786,-76.936,-5.987,51.616,-141.029,295.074,-705.153,595.838,97.282,-33.951,0.650
4.807,-46.631,-104.844,-77.021,-5.985,51.616,-141.030,295.415,-705.547,594.218,97.407,-33.854,0.579
4.817,-46.633,-104.870,-77.052,-5.985,51.616,-141.030,295.560,-705.720,593.556,97.458,-33.815,0.549
4.827,-46.639,-104.941,-77.133,-5.984,51.615,-141.030,295.904,-706.201,591.824,97.591,-33.713,0.469
4.836,-46.650,-105.023,-77.224,-5.983,51.615,-141.030,296.240,-706.773,589.838,97.742,-33.595,0.373
4.847,-46.657,-105.055,-77.263,-5.984,51.615,-141.030,296.356,-707.010,589.026,97.804,-33.547,0.333
4.857,-46.674,-105.136,-77.365,-5.982,51.615,-141.030,296.620,-707.603,586.941,97.963,-33.424,0.228
4.866,-46.686,-105.214,-77.500,-5.980,51.616,-141.030,296.950,-708.170,584.530,98.148,-33.279,0.115
4.877,-46.687,-105.240,-77.557,-5.979,51.616,-141.029,297.093,-708.343,583.603,98.220,-33.223,0.074
4.886,-46.688,-105.297,-77.716,-5.977,51.616,-141.030,297.453,-708.730,581.207,98.406,-33.075,-0.028
4.897,-46.686,-105.357,-77.912,-5.975,51.617,-141.030,297.870,-709.128,578.382,98.626,-32.902,-0.144
4.907,-46.685,-105.383,-77.991,-5.975,51.617,-141.030,298.038,-709.292,577.224,98.716,-32.830,-0.192
4.917,-46.682,-105.446,-78.193,-5.974,51.618,-141.030,298.469,-709.689,574.299,98.943,-32.648,-0.311
4.926,-46.678,-105.514,-78.398,-5.974,51.619,-141.030,298.933,-710.100,571.265,99.178,-32.459,-0.432
4.937,-46.676,-105.552,-78.496,-5.975,51.619,-141.030,299.171,-710.328,569.732,99.296,-32.364,-0.494
4.947,-46.677,-105.642,-78.687,-5.975,51.619,-141.030,299.672,-710.868,566.572,99.535,-32.169,-0.622
4.957,-46.677,-105.744,-78.867,-5.976,51.619,-141.031,300.217,-711.455,563.370,99.775,-31.972,-0.750
4.966,-46.678,-105.794,-78.960,-5.975,51.619,-141.030,300.476,-711.740,561.761,99.895,-31.874,-0.814
4.977,-46.678,-105.879,-79.148,-5.975,51.619,-141.030,300.923,-712.221,558.693,100.125,-31.684,-0.935
4.987,-46.677,-105.948,-79.367,-5.975,51.620,-141.030,301.305,-712.602,555.488,100.367,-31.482,-1.061
4.996,-46.676,-105.967,-79.452,-5.975,51.620,-141.031,301.420,-712.706,554.343,100.454,-31.409,-1.105
5.006,-46.675,-105.998,-79.666,-5.975,51.621,-141.030,301.604,-712.872,551.676,100.659,-31.238,-1.210
5.017,-46.674,-106.012,-79.898,-5.975,51.621,-141.030,301.690,-712.940,549.038,100.864,-31.065,-1.315
5.027,-46.672,-106.014,-79.983,-5.976,51.621,-141.031,301.724,-712.946,548.102,100.938,-31.003,-1.350
5.037,-46.669,-106.019,-80.175,-5.976,51.621,-141.031,301.783,-712.947,546.008,101.100,-30.865,-1.431
5.047,-46.664,-106.023,-80.345,-5.976,51.622,-141.030,301.853,-712.937,544.145,101.245,-30.742,-1.500
5.057,-46.662,-106.024,-80.429,-5.976,51.621,-141.030,301.875,-712.921,543.255,101.314,-30.683,-1.533
5.067,-46.656,-106.020,-80.583,-5.974,51.622,-141.030,301.926,-712.859,541.665,101.437,-30.578,-1.589
5.077,-46.649,-106.013,-80.727,-5.972,51.622,-141.030,301.962,-712.766,540.238,101.547,-30.483,-1.638
5.086,-46.646,-106.008,-80.796,-5.970,51.621,-141.030,301.965,-712.721,539.567,101.599,-30.438,-1.662
5.097,-46.641,-105.998,-80.920,-5.966,51.621,-141.030,301.963,-712.626,538.399,101.688,-30.361,-1.702
5.106,-46.638,-105.984,-81.028,-5.953,51.622,-141.030,301.912,-712.517,537.477,101.755,-30.304,-1.733
5.117,-46.636,-105.973,-81.082,-5.944,51.622,-141.030,301.871,-712.440,537.085,101.782,-30.280,-1.744
5.126,-46.631,-105.936,-81.196,-5.920,51.622,-141.030,301.746,-712.196,536.426,101.826,-30.242,-1.760
5.137,-46.622,-105.888,-81.311,-5.893,51.624,-141.031,301.604,-711.874,535.913,101.859,-30.213,-1.766
5.146,-46.615,-105.856,-81.368,-5.878,51.626,-141.031,301.528,-711.663,535.765,101.867,-30.206,-1.762
5.157,-46.598,-105.779,-81.490,-5.846,51.630,-141.032,301.361,-711.147,535.565,101.878,-30.197,-1.746
5.166,-46.568,-105.684,-81.611,-5.808,51.634,-141.032,301.259,-710.473,535.632,101.868,-30.206,-1.708
5.177,-46.550,-105.629,-81.671,-5.786,51.636,-141.032,301.212,-710.082,535.762,101.855,-30.218,-1.681
5.187,-46.504,-105.511,-81.792,-5.732,51.646,-141.033,301.211,-709.200,536.168,101.815,-30.255,-1.606
5.197,-46.434,-105.387,-81.921,-5.667,51.666,-141.034,301.540,-708.148,536.592,101.770,-30.301,-1.492
5.206,-46.392,-105.325,-81.985,-5.623,51.681,-141.034,301.792,-707.579,536.853,101.738,-30.333,-1.419
5.216,-46.305,-105.199,-82.123,-5.505,51.733,-141.034,302.424,-706.391,537.384,101.661,-30.415,-1.243
5.227,-46.205,-105.072,-82.271,-5.373,51.836,-141.035,303.438,-705.095,537.843,101.588,-30.509,-1.005
5.236,-46.150,-105.008,-82.349,-5.310,51.915,-141.035,304.124,-704.412,537.995,101.562,-30.555,-0.860
5.246,-46.036,-104.892,-82.502,-5.188,52.125,-141.036,305.839,-703.051,538.147,101.530,-30.646,-0.524
5.258,-45.927,-104.783,-82.668,-5.051,52.392,-141.036,307.754,-701.711,538.115,101.510,-30.744,-0.145
5.267,-45.880,-104.733,-82.751,-4.982,52.548,-141.036,308.764,-701.087,538.013,101.508,-30.792,0.057
5.277,-45.780,-104.642,-82.919,-4.851,52.928,-141.036,311.162,-699.810,537.640,101.528,-30.890,0.516
5.287,-45.700,-104.576,-83.050,-4.752,53.291,-141.036,313.389,-698.781,537.237,101.561,-30.970,0.934
5.297,-45.658,-104.544,-83.118,-4.691,53.508,-141.036,314.689,-698.229,537.009,101.578,-31.020,1.179
5.307,-45.587,-104.492,-83.242,-4.551,53.977,-141.036,317.329,-697.213,536.597,101.599,-31.140,1.697
5.317,-45.524,-104.447,-83.359,-4.421,54.483,-141.036,320.083,-696.229,536.119,101.634,-31.259,2.237
5.327,-45.491,-104.427,-83.414,-4.359,54.745,-141.036,321.527,-695.729,535.877,101.653,-31.319,2.516
5.337,-45.424,-104.386,-83.520,-4.213,55.284,-141.036,324.483,-694.680,535.511,101.671,-31.457,3.100
5.347,-45.353,-104.346,-83.616,-4.038,55.846,-141.035,327.574,-693.553,535.353,101.658,-31.624,3.728
5.357,-45.321,-104.328,-83.666,-3.955,56.131,-141.035,329.109,-693.004,535.217,101.658,-31.702,4.039
5.367,-45.262,-104.300,-83.764,-3.795,56.693,-141.034,332.104,-691.968,534.843,101.666,-31.849,4.643
5.377,-45.220,-104.280,-83.848,-3.624,57.252,-141.033,334.924,-691.035,534.577,101.655,-32.007,5.238
5.386,-45.202,-104.273,-83.884,-3.547,57.525,-141.033,336.281,-690.598,534.458,101.652,-32.081,5.526
5.396,-45.172,-104.265,-83.952,-3.402,58.051,-141.032,338.860,-689.810,534.132,101.654,-32.218,6.068
5.406,-45.159,-104.268,-84.015,-3.250,58.544,-141.031,341.147,-689.173,533.786,101.646,-32.350,6.569
5.417,-45.161,-104.270,-84.045,-3.179,58.779,-141.031,342.139,-688.920,533.600,101.645,-32.411,6.798
5.426,-45.165,-104.272,-84.108,-3.067,59.223,-141.031,344.007,-688.428,533.125,101.665,-32.509,7.218
5.437,-45.165,-104.275,-84.171,-2.981,59.632,-141.030,345.781,-687.946,532.555,101.706,-32.586,7.597
5.447,-45.166,-104.277,-84.200,-2.936,59.822,-141.030,346.588,-687.725,532.318,101.718,-32.625,7.775
5.457,-45.170,-104.279,-84.246,-2.845,60.170,-141.030,348.047,-687.318,531.997,101.727,-32.706,8.108
5.467,-45.175,-104.284,-84.279,-2.769,60.484,-141.030,349.354,-686.966,531.753,101.733,-32.779,8.407
5.476,-45.176,-104.287,-84.288,-2.746,60.627,-141.030,349.970,-686.812,531.638,101.743,-32.808,8.541
5.487,-45.178,-104.289,-84.307,-2.723,60.884,-141.030,351.082,-686.515,531.386,101.777,-32.850,8.773
5.497,-45.181,-104.287,-84.324,-2.725,61.101,-141.029,351.987,-686.265,531.110,101.823,-32.875,8.957
5.507,-45.183,-104.288,-84.326,-2.725,61.192,-141.029,352.370,-686.175,531.028,101.839,-32.887,9.036
5.516,-45.187,-104.286,-84.326,-2.725,61.357,-141.029,353.036,-685.992,530.980,101.860,-32.915,9.182
5.527,-45.190,-104.283,-84.319,-2.725,61.469,-141.028,353.486,-685.860,531.042,101.866,-32.939,9.286
5.537,-45.191,-104.282,-84.319,-2.725,61.505,-141.028,353.624,-685.818,531.049,101.869,-32.946,9.318
5.547,-45.191,-104.280,-84.319,-2.724,61.546,-141.028,353.793,-685.754,531.061,101.872,-32.954,9.357
5.557,-45.190,-104.277,-84.318,-2.723,61.561,-141.028,353.853,-685.720,531.098,101.870,-32.959,9.373
5.567,-45.190,-104.276,-84.319,-2.723,61.564,-141.028,353.872,-685.708,531.105,101.869,-32.960,9.377
5.577,-45.187,-104.276,-84.319,-2.722,61.569,-141.028,353.923,-685.686,531.096,101.870,-32.961,9.384
5.587,-45.188,-104.276,-84.320,-2.722,61.570,-141.028,353.911,-685.685,531.107,101.869,-32.962,9.385
5.597,-45.188,-104.274,-84.320,-2.720,61.570,-141.028,353.905,-685.679,531.130,101.867,-32.963,9.386
5.607,-45.187,-104.268,-84.320,-2.719,61.572,-141.028,353.897,-685.641,531.210,101.860,-32.968,9.393
5.617,-45.188,-104.261,-84.319,-2.716,61.574,-141.027,353.865,-685.607,531.322,101.849,-32.975,9.400
5.627,-45.188,-104.257,-84.319,-2.714,61.576,-141.027,353.853,-685.581,531.385,101.843,-32.979,9.405
5.637,-45.186,-104.247,-84.319,-2.704,61.580,-141.027,353.835,-685.517,531.545,101.825,-32.991,9.420
5.647,-45.185,-104.235,-84.317,-2.683,61.588,-141.027,353.815,-685.431,531.809,101.792,-33.013,9.448
5.657,-45.185,-104.226,-84.317,-2.665,61.594,-141.027,353.794,-685.370,532.000,101.767,-33.029,9.468
5.667,-45.185,-104.202,-84.316,-2.615,61.606,-141.026,353.705,-685.217,532.517,101.696,-33.075,9.517
5.677,-45.186,-104.174,-84.316,-2.525,61.618,-141.026,353.570,-685.025,533.260,101.581,-33.146,9.591
5.687,-45.186,-104.155,-84.315,-2.441,61.625,-141.026,353.464,-684.888,533.852,101.482,-33.206,9.652
5.697,-45.188,-104.119,-84.317,-2.264,61.640,-141.027,353.246,-684.615,535.038,101.276,-33.330,9.777
5.706,-45.188,-104.078,-84.315,-2.036,61.665,-141.027,353.044,-684.273,536.528,101.014,-33.489,9.947
5.717,-45.188,-104.055,-84.314,-1.904,61.683,-141.027,352.943,-684.069,537.377,100.862,-33.580,10.048
5.727,-45.189,-104.006,-84.312,-1.613,61.723,-141.027,352.715,-683.627,539.234,100.529,-33.780,10.272
5.737,-45.190,-103.946,-84.311,-1.274,61.756,-141.028,352.368,-683.105,541.429,100.134,-34.011,10.524
5.747,-45.191,-103.910,-84.311,-1.094,61.766,-141.028,352.122,-682.822,542.631,99.920,-34.133,10.652
5.757,-45.193,-103.836,-84.312,-0.691,61.770,-141.029,351.511,-682.221,545.256,99.443,-34.400,10.923
5.767,-45.198,-103.756,-84.311,-0.244,61.769,-141.029,350.779,-681.581,548.143,98.910,-34.692,11.219
5.777,-45.201,-103.710,-84.312,-0.011,61.769,-141.029,350.365,-681.221,549.694,98.628,-34.845,11.377
5.787,-45.207,-103.598,-84.313,0.498,61.769,-141.029,349.396,-680.353,553.226,97.995,-35.185,11.734
5.797,-45.211,-103.498,-84.313,0.948,61.769,-141.029,348.531,-679.556,556.370,97.428,-35.484,12.058
5.807,-45.215,-103.445,-84.312,1.198,61.769,-141.029,348.047,-679.127,558.088,97.114,-35.648,12.238
5.817,-45.224,-103.339,-84.311,1.724,61.770,-141.029,347.005,-678.250,561.620,96.454,-35.987,12.615
5.827,-45.236,-103.230,-84.310,2.249,61.770,-141.029,345.905,-677.348,565.167,95.787,-36.323,12.997
5.837,-45.241,-103.174,-84.310,2.509,61.770,-141.030,345.348,-676.884,566.938,95.454,-36.488,13.189
5.846,-45.254,-103.066,-84.310,3.034,61.770,-141.029,344.210,-675.962,570.451,94.781,-36.817,13.578
5.858,-45.270,-102.960,-84.312,3.563,61.769,-141.029,343.008,-675.046,573.940,94.100,-37.144,13.971
5.866,-45.280,-102.908,-84.312,3.815,61.769,-141.030,342.396,-674.608,575.615,93.772,-37.298,14.159
5.877,-45.302,-102.810,-84.313,4.305,61.769,-141.030,341.187,-673.768,578.836,93.134,-37.595,14.526
5.886,-45.320,-102.729,-84.312,4.783,61.769,-141.030,340.099,-672.989,581.807,92.520,-37.875,14.883
5.896,-45.327,-102.690,-84.312,5.017,61.769,-141.030,339.593,-672.601,583.234,92.220,-38.010,15.061
5.906,-45.340,-102.620,-84.313,5.446,61.769,-141.030,338.649,-671.883,585.834,91.668,-38.254,15.388
5.917,-45.348,-102.560,-84.313,5.847,61.769,-141.031,337.826,-671.202,588.205,91.154,-38.479,15.698
5.927,-45.348,-102.534,-84.313,6.030,61.768,-141.031,337.509,-670.875,589.262,90.920,-38.579,15.844
5.937,-45.347,-102.491,-84.313,6.372,61.768,-141.031,336.934,-670.283,591.170,90.488,-38.764,16.115
5.946,-45.345,-102.459,-84.312,6.681,61.768,-141.031,336.461,-669.773,592.815,90.102,-38.926,16.359
5.956,-45.344,-102.445,-84.313,6.818,61.768,-141.031,336.260,-669.540,593.530,89.932,-38.997,16.467
5.966,-45.343,-102.434,-84.313,7.053,61.768,-141.031,335.962,-669.230,594.597,89.653,-39.113,16.643
5.977,-45.345,-102.437,-84.313,7.224,61.768,-141.031,335.777,-669.075,595.241,89.462,-39.192,16.762
5.987,-45.346,-102.439,-84.315,7.292,61.767,-141.031,335.704,-669.019,595.466,89.388,-39.222,16.807
5.997,-45.347,-102.448,-84.316,7.407,61.766,-141.031,335.612,-668.954,595.811,89.268,-39.271,16.881
6.007,-45.347,-102.458,-84.317,7.476,61.766,-141.031,335.591,-668.940,595.951,89.201,-39.298,16.923
6.016,-45.347,-102.462,-84.317,7.488,61.766,-141.031,335.605,-668.948,595.948,89.193,-39.302,16.928
6.026,-45.348,-102.465,-84.317,7.482,61.766,-141.030,335.613,-668.979,595.886,89.202,-39.298,16.921
6.038,-45.350,-102.465,-84.316,7.480,61.766,-141.030,335.601,-668.991,595.882,89.204,-39.298,16.918
6.046,-45.351,-102.464,-84.315,7.478,61.766,-141.030,335.583,-668.995,595.894,89.205,-39.298,16.917
6.057,-45.358,-102.462,-84.312,7.440,61.766,-141.030,335.519,-669.062,595.814,89.241,-39.283,16.886
6.067,-45.377,-102.457,-84.307,7.389,61.766,-141.029,335.328,-669.197,595.722,89.288,-39.264,16.838
6.077,-45.395,-102.454,-84.303,7.384,61.766,-141.029,335.100,-669.287,595.785,89.286,-39.265,16.821
6.088,-45.457,-102.443,-84.289,7.402,61.766,-141.029,334.297,-669.559,596.137,89.238,-39.285,16.790
6.097,-45.547,-102.426,-84.268,7.418,61.766,-141.029,333.115,-669.960,596.643,89.176,-39.311,16.739
6.106,-45.601,-102.414,-84.254,7.418,61.765,-141.028,332.419,-670.199,596.940,89.146,-39.323,16.704
6.116,-45.716,-102.376,-84.218,7.418,61.765,-141.028,330.831,-670.631,597.802,89.061,-39.358,16.642
6.127,-45.855,-102.323,-84.177,7.419,61.764,-141.028,328.879,-671.107,598.915,88.951,-39.402,16.571
6.137,-45.930,-102.290,-84.151,7.419,61.764,-141.028,327.801,-671.330,599.600,88.884,-39.430,16.539
6.146,-46.093,-102.207,-84.101,7.419,61.765,-141.028,325.418,-671.751,601.163,88.732,-39.491,16.474
6.158,-46.264,-102.100,-84.046,7.418,61.766,-141.028,322.780,-672.067,603.083,88.546,-39.565,16.422
6.167,-46.347,-102.038,-84.018,7.418,61.766,-141.028,321.452,-672.147,604.153,88.443,-39.606,16.406
6.177,-46.504,-101.902,-83.962,7.416,61.766,-141.029,318.815,-672.196,606.431,88.223,-39.692,16.389
6.187,-46.655,-101.756,-83.898,7.415,61.766,-141.029,316.181,-672.129,608.910,87.982,-39.786,16.391
6.197,-46.743,-101.666,-83.863,7.413,61.766,-141.029,314.630,-672.049,610.404,87.837,-39.842,16.397
6.207,-46.876,-101.523,-83.806,7.412,61.767,-141.029,312.230,-671.880,612.763,87.607,-39.931,16.412
6.217,-47.015,-101.359,-83.746,7.409,61.768,-141.030,309.634,-671.609,615.413,87.349,-40.030,16.438
6.227,-47.081,-101.275,-83.715,7.408,61.767,-141.030,308.365,-671.424,616.775,87.216,-40.081,16.458
6.236,-47.204,-101.107,-83.652,7.407,61.767,-141.031,305.929,-671.015,619.497,86.947,-40.182,16.509
6.248,-47.329,-100.942,-83.603,7.406,61.767,-141.031,303.484,-670.621,622.053,86.695,-40.277,16.546
6.257,-47.393,-100.861,-83.577,7.405,61.768,-141.031,302.263,-670.433,623.312,86.571,-40.323,16.563
6.267,-47.520,-100.700,-83.532,7.404,61.768,-141.031,299.819,-670.060,625.758,86.328,-40.413,16.594
6.278,-47.647,-100.539,-83.493,7.404,61.769,-141.031,297.380,-669.678,628.130,86.092,-40.500,16.620
6.287,-47.710,-100.460,-83.476,7.404,61.768,-141.031,296.181,-669.488,629.277,85.977,-40.542,16.632
6.297,-47.820,-100.306,-83.452,7.405,61.768,-141.031,293.982,-669.058,631.402,85.766,-40.619,16.659
6.307,-47.912,-100.165,-83.437,7.405,61.768,-141.031,292.079,-668.619,633.262,85.580,-40.686,16.687
6.317,-47.954,-100.094,-83.443,7.405,61.767,-141.030,291.185,-668.386,634.049,85.503,-40.714,16.695
6.327,-48.032,-99.955,-83.453,7.406,61.767,-141.030,289.479,-667.895,635.629,85.347,-40.770,16.719
6.337,-48.096,-99.819,-83.459,7.405,61.766,-141.030,287.955,-667.345,637.201,85.192,-40.825,16.756
6.347,-48.123,-99.757,-83.457,7.406,61.766,-141.030,287.271,-667.081,637.965,85.116,-40.852,16.778
6.357,-48.164,-99.643,-83.456,7.405,61.766,-141.031,286.134,-666.543,639.346,84.978,-40.901,16.827
6.367,-48.185,-99.537,-83.459,7.407,61.764,-141.030,285.262,-665.966,640.585,84.854,-40.945,16.885
6.377,-48.191,-99.487,-83.459,7.407,61.764,-141.030,284.900,-665.675,641.183,84.794,-40.966,16.918
6.386,-48.208,-99.399,-83.459,7.406,61.763,-141.030,284.188,-665.183,642.235,84.688,-41.003,16.970
6.396,-48.223,-99.325,-83.458,7.407,61.764,-141.030,283.580,-664.773,643.128,84.598,-41.035,17.015
6.406,-48.232,-99.292,-83.459,7.407,61.763,-141.030,283.284,-664.597,643.523,84.558,-41.049,17.032
6.417,-48.242,-99.228,-83.460,7.407,61.761,-141.030,282.780,-664.233,644.271,84.483,-41.075,17.069
6.427,-48.255,-99.172,-83.460,7.408,61.759,-141.030,282.291,-663.929,644.943,84.415,-41.099,17.099
6.437,-48.266,-99.148,-83.460,7.408,61.758,-141.030,282.028,-663.820,645.231,84.385,-41.109,17.107
6.447,-48.286,-99.120,-83.462,7.408,61.756,-141.030,281.621,-663.748,645.536,84.355,-41.120,17.105
6.457,-48.302,-99.113,-83.463,7.408,61.756,-141.030,281.389,-663.776,645.619,84.346,-41.123,17.094
6.467,-48.307,-99.113,-83.462,7.408,61.755,-141.030,281.337,-663.800,645.621,84.345,-41.123,17.089
6.477,-48.309,-99.115,-83.463,7.408,61.753,-141.030,281.314,-663.828,645.587,84.349,-41.122,17.082
6.487,-48.310,-99.119,-83.467,7.408,61.751,-141.029,281.320,-663.867,645.494,84.359,-41.119,17.072
6.497,-48.311,-99.122,-83.469,7.408,61.749,-141.029,281.321,-663.894,645.442,84.365,-41.117,17.066
6.506,-48.311,-99.127,-83.471,7.407,61.748,-141.029,281.349,-663.930,645.359,84.374,-41.115,17.059
6.517,-48.310,-99.131,-83.472,7.407,61.745,-141.029,281.368,-663.962,645.291,84.382,-41.112,17.051
6.526,-48.311,-99.134,-83.472,7.407,61.742,-141.029,281.366,-663.980,645.264,84.384,-41.112,17.047
6.537,-48.312,-99.141,-83.472,7.406,61.737,-141.029,281.370,-664.040,645.173,84.394,-41.109,17.034
6.547,-48.317,-99.150,-83.471,7.406,61.731,-141.028,281.343,-664.133,645.065,84.406,-41.106,17.015
6.557,-48.321,-99.154,-83.471,7.406,61.728,-141.029,281.305,-664.182,645.015,84.411,-41.104,17.005
6.567,-48.333,-99.160,-83.473,7.405,61.720,-141.028,281.168,-664.285,644.933,84.420,-41.102,16.979
6.577,-48.351,-99.165,-83.472,7.404,61.704,-141.029,280.918,-664.426,644.863,84.428,-41.100,16.939
6.587,-48.359,-99.169,-83.474,7.403,61.695,-141.029,280.807,-664.508,644.796,84.436,-41.099,16.917
6.597,-48.378,-99.186,-83.475,7.403,61.689,-141.028,280.659,-664.717,644.577,84.459,-41.091,16.877
6.607,-48.402,-99.211,-83.476,7.402,61.688,-141.028,280.531,-665.002,644.265,84.491,-41.081,16.831
6.617,-48.413,-99.227,-83.476,7.402,61.687,-141.028,280.483,-665.166,644.071,84.511,-41.074,16.806
6.627,-48.440,-99.258,-83.475,7.400,61.687,-141.028,280.362,-665.498,643.707,84.549,-41.061,16.755
6.637,-48.491,-99.288,-83.476,7.397,61.686,-141.028,279.942,-665.947,643.339,84.588,-41.047,16.677
6.647,-48.514,-99.301,-83.472,7.398,61.687,-141.028,279.744,-666.141,643.223,84.599,-41.043,16.647
6.656,-48.582,-99.322,-83.469,7.398,61.687,-141.028,279.068,-666.609,643.011,84.620,-41.036,16.566
6.666,-48.680,-99.333,-83.466,7.399,61.688,-141.027,277.994,-667.155,642.906,84.630,-41.033,16.462
6.676,-48.745,-99.335,-83.463,7.399,61.689,-141.027,277.246,-667.477,642.924,84.627,-41.034,16.399
6.687,-48.911,-99.334,-83.461,7.399,61.689,-141.027,275.309,-668.265,642.960,84.623,-41.035,16.236
6.696,-49.125,-99.334,-83.460,7.399,61.688,-141.018,272.810,-669.291,642.958,84.622,-41.045,16.023
6.707,-49.249,-99.334,-83.461,7.400,61.688,-141.010,271.363,-669.878,642.957,84.622,-41.052,15.900
6.717,-49.517,-99.334,-83.461,7.400,61.688,-141.004,268.234,-671.137,642.958,84.620,-41.059,15.634
6.727,-49.808,-99.336,-83.462,7.401,61.689,-141.005,264.833,-672.505,642.922,84.624,-41.057,15.340
6.737,-49.966,-99.338,-83.465,7.401,61.689,-141.005,262.984,-673.252,642.871,84.629,-41.055,15.178
6.747,-50.302,-99.344,-83.467,7.400,61.689,-141.005,259.075,-674.823,642.775,84.639,-41.051,14.837
6.757,-50.658,-99.350,-83.467,7.401,61.690,-141.005,254.917,-676.459,642.703,84.646,-41.049,14.477
6.767,-50.843,-99.351,-83.467,7.400,61.691,-141.005,252.740,-677.292,642.681,84.649,-41.047,14.291
6.776,-51.204,-99.350,-83.465,7.400,61.691,-141.005,248.461,-678.855,642.721,84.645,-41.049,13.933
6.787,-51.563,-99.345,-83.463,7.401,61.692,-141.005,244.176,-680.366,642.796,84.636,-41.052,13.581
6.797,-51.740,-99.343,-83.463,7.402,61.692,-141.005,242.063,-681.100,642.830,84.632,-41.053,13.407
6.807,-52.088,-99.339,-83.462,7.402,61.693,-141.005,237.907,-682.523,642.896,84.625,-41.056,13.065
6.817,-52.441,-99.335,-83.463,7.403,61.694,-141.005,233.677,-683.954,642.930,84.621,-41.057,12.715
6.826,-52.611,-99.335,-83.463,7.404,61.694,-141.005,231.645,-684.642,642.937,84.620,-41.057,12.546
6.836,-52.944,-99.337,-83.464,7.404,61.696,-141.005,227.679,-685.993,642.895,84.624,-41.055,12.211
6.847,-53.262,-99.338,-83.467,7.404,61.697,-141.005,223.881,-687.250,642.859,84.628,-41.054,11.892
6.857,-53.418,-99.339,-83.466,7.404,61.697,-141.005,222.017,-687.862,642.854,84.629,-41.054,11.736
6.866,-53.728,-99.340,-83.469,7.404,61.698,-141.005,218.300,-689.065,642.813,84.633,-41.052,11.423
6.877,-54.034,-99.342,-83.470,7.402,61.698,-141.005,214.631,-690.241,642.767,84.639,-41.050,11.114
6.887,-54.179,-99.343,-83.471,7.402,61.698,-141.005,212.895,-690.788,642.751,84.641,-41.049,10.968
6.897,-54.456,-99.344,-83.472,7.401,61.701,-141.006,209.569,-691.821,642.714,84.645,-41.047,10.690
6.906,-54.716,-99.348,-83.474,7.399,61.703,-141.006,206.459,-692.801,642.633,84.656,-41.043,10.425
6.917,-54.835,-99.351,-83.476,7.398,61.705,-141.007,205.049,-693.251,642.579,84.662,-41.040,10.305
6.927,-55.061,-99.359,-83.479,7.397,61.716,-141.008,202.407,-694.107,642.450,84.676,-41.033,10.080
6.937,-55.272,-99.371,-83.483,7.391,61.731,-141.009,199.978,-694.942,642.254,84.701,-41.022,9.867
6.947,-55.363,-99.380,-83.483,7.389,61.738,-141.009,198.965,-695.322,642.131,84.715,-41.016,9.775
6.957,-55.512,-99.409,-83.484,7.382,61.749,-141.010,197.354,-696.055,641.754,84.758,-40.999,9.608
6.966,-55.631,-99.451,-83.482,7.376,61.756,-141.012,196.150,-696.773,641.240,84.815,-40.977,9.459
6.977,-55.689,-99.475,-83.484,7.372,61.762,-141.013,195.598,-697.148,640.923,84.850,-40.963,9.384
6.987,-55.764,-99.508,-83.486,7.366,61.778,-141.016,194.920,-697.648,640.490,84.898,-40.942,9.292
6.996,-55.827,-99.547,-83.487,7.360,61.805,-141.017,194.481,-698.143,639.985,84.953,-40.919,9.220
7.007,-55.848,-99.568,-83.487,7.358,61.819,-141.018,194.386,-698.361,639.741,84.979,-40.909,9.196
7.016,-55.876,-99.603,-83.487,7.358,61.842,-141.018,194.323,-698.705,639.312,85.021,-40.892,9.163
7.027,-55.879,-99.630,-83.488,7.357,61.853,-141.018,194.480,-698.907,638.978,85.055,-40.879,9.150
7.037,-55.874,-99.641,-83.487,7.357,61.855,-141.018,194.603,-698.965,638.860,85.067,-40.874,9.149
7.047,-55.866,-99.661,-83.489,7.359,61.857,-141.018,194.803,-699.082,638.606,85.091,-40.865,9.143
7.056,-55.858,-99.688,-83.488,7.359,61.864,-141.019,195.067,-699.242,638.292,85.122,-40.854,9.139
7.066,-55.852,-99.698,-83.489,7.358,61.874,-141.019,195.232,-699.300,638.152,85.136,-40.848,9.144
7.077,-55.837,-99.720,-83.486,7.359,61.948,-141.019,195.853,-699.369,637.940,85.155,-40.835,9.221
7.086,-55.812,-99.739,-83.488,7.359,62.110,-141.019,196.995,-699.358,637.714,85.174,-40.816,9.395
7.097,-55.797,-99.747,-83.493,7.359,62.228,-141.019,197.770,-699.320,637.587,85.184,-40.803,9.522
7.107,-55.763,-99.764,-83.502,7.359,62.542,-141.019,199.697,-699.197,637.336,85.203,-40.772,9.856
7.117,-55.725,-99.774,-83.524,7.359,62.945,-141.019,202.077,-698.974,637.040,85.226,-40.733,10.282
7.126,-55.706,-99.777,-83.537,7.359,63.181,-141.019,203.408,-698.826,636.899,85.236,-40.711,10.529
7.137,-55.663,-99.778,-83.563,7.359,63.710,-141.019,206.366,-698.428,636.685,85.249,-40.666,11.091
7.147,-55.625,-99.774,-83.596,7.361,64.313,-141.019,209.580,-697.948,636.473,85.260,-40.617,11.724
7.157,-55.606,-99.774,-83.613,7.362,64.637,-141.018,211.297,-697.696,636.342,85.268,-40.590,12.061
7.166,-55.582,-99.772,-83.651,7.363,65.344,-141.017,214.818,-697.173,636.055,85.287,-40.533,12.778
7.176,-55.579,-99.771,-83.683,7.364,66.096,-141.017,218.271,-696.649,635.827,85.298,-40.474,13.523
7.187,-55.582,-99.768,-83.706,7.365,66.487,-141.017,220.009,-696.367,635.664,85.310,-40.443,13.902
7.197,-55.587,-99.767,-83.742,7.365,67.290,-141.016,223.608,-695.766,635.390,85.328,-40.381,14.688
7.207,-55.594,-99.764,-83.774,7.365,68.103,-141.016,227.188,-695.109,635.164,85.341,-40.319,15.483
7.217,-55.599,-99.764,-83.786,7.365,68.520,-141.016,229.014,-694.754,635.088,85.344,-40.289,15.892
7.226,-55.606,-99.768,-83.802,7.365,69.350,-141.016,232.690,-694.025,634.963,85.346,-40.231,16.713
7.236,-55.607,-99.767,-83.821,7.365,70.183,-141.016,236.404,-693.189,634.851,85.348,-40.173,17.540
7.247,-55.609,-99.767,-83.830,7.365,70.596,-141.016,238.240,-692.761,634.799,85.349,-40.144,17.951
7.257,-55.614,-99.767,-83.844,7.365,71.407,-141.015,241.793,-691.885,634.728,85.347,-40.090,18.756
7.267,-55.626,-99.767,-83.850,7.366,72.194,-141.015,245.150,-691.006,634.740,85.336,-40.039,19.537
7.277,-55.635,-99.767,-83.853,7.366,72.636,-141.014,246.989,-690.503,634.751,85.330,-40.011,19.972
7.286,-55.658,-99.769,-83.853,7.366,73.298,-141.014,249.642,-689.774,634.784,85.320,-39.969,20.616
7.296,-55.684,-99.770,-83.854,7.365,73.971,-141.014,252.294,-689.006,634.819,85.309,-39.926,21.269
7.307,-55.701,-99.771,-83.854,7.365,74.283,-141.014,253.461,-688.661,634.841,85.305,-39.906,21.566
7.317,-55.756,-99.774,-83.856,7.364,74.903,-141.013,255.532,-688.071,634.825,85.301,-39.866,22.132
7.327,-55.809,-99.778,-83.858,7.362,75.366,-141.013,256.943,-687.680,634.776,85.304,-39.834,22.539
7.336,-55.839,-99.781,-83.860,7.362,75.598,-141.013,257.609,-687.500,634.738,85.306,-39.819,22.739
7.346,-55.896,-99.791,-83.863,7.361,76.010,-141.013,258.768,-687.220,634.614,85.317,-39.790,23.087
7.357,-55.940,-99.804,-83.866,7.362,76.357,-141.013,259.806,-687.000,634.443,85.331,-39.765,23.380
7.367,-55.958,-99.811,-83.868,7.362,76.506,-141.013,260.267,-686.910,634.349,85.340,-39.754,23.505
7.377,-55.992,-99.822,-83.871,7.363,76.762,-141.013,261.034,-686.748,634.202,85.352,-39.736,23.719
7.387,-56.015,-99.825,-83.874,7.363,76.965,-141.013,261.646,-686.562,634.152,85.356,-39.722,23.896
7.397,-56.025,-99.824,-83.876,7.364,77.046,-141.012,261.874,-686.479,634.148,85.356,-39.717,23.967
7.407,-56.044,-99.823,-83.877,7.364,77.167,-141.012,262.168,-686.373,634.147,85.355,-39.710,24.070
7.417,-56.070,-99.822,-83.879,7.365,77.255,-141.012,262.223,-686.343,634.167,85.352,-39.705,24.133
7.427,-56.083,-99.821,-83.878,7.366,77.284,-141.012,262.188,-686.350,634.187,85.349,-39.703,24.151
7.437,-56.121,-99.821,-83.877,7.365,77.336,-141.012,261.956,-686.442,634.202,85.347,-39.700,24.166
7.448,-56.158,-99.821,-83.877,7.365,77.353,-141.012,261.591,-686.583,634.199,85.348,-39.699,24.146
7.457,-56.176,-99.821,-83.877,7.365,77.349,-141.012,261.355,-686.672,634.204,85.347,-39.699,24.124
7.467,-56.213,-99.821,-83.876,7.364,77.341,-141.012,260.881,-686.849,634.210,85.347,-39.700,24.080
7.477,-56.244,-99.820,-83.876,7.364,77.341,-141.012,260.496,-686.989,634.223,85.346,-39.700,24.049
7.487,-56.260,-99.820,-83.876,7.365,77.341,-141.012,260.308,-687.062,634.220,85.346,-39.700,24.033
7.496,-56.288,-99.819,-83.875,7.365,77.342,-141.012,259.974,-687.180,634.246,85.342,-39.700,24.008
7.507,-56.315,-99.819,-83.874,7.366,77.342,-141.012,259.646,-687.296,634.266,85.340,-39.701,23.983
7.517,-56.331,-99.818,-83.873,7.366,77.342,-141.012,259.451,-687.358,634.291,85.337,-39.701,23.969
7.527,-56.373,-99.817,-83.870,7.366,77.342,-141.012,258.938,-687.536,634.337,85.331,-39.702,23.930
7.537,-56.430,-99.814,-83.867,7.368,77.342,-141.012,258.230,-687.771,634.409,85.323,-39.703,23.878
7.546,-56.474,-99.813,-83.865,7.368,77.342,-141.012,257.705,-687.958,634.443,85.319,-39.703,23.837
7.557,-56.594,-99.811,-83.861,7.368,77.342,-141.012,256.244,-688.481,634.514,85.311,-39.705,23.721
7.567,-56.758,-99.811,-83.858,7.369,77.342,-141.012,254.267,-689.203,634.560,85.305,-39.706,23.561
7.576,-56.852,-99.811,-83.857,7.368,77.341,-141.012,253.138,-689.622,634.564,85.305,-39.706,23.467
7.587,-57.058,-99.812,-83.859,7.368,77.341,-141.011,250.658,-690.541,634.528,85.309,-39.705,23.258
7.597,-57.292,-99.815,-83.861,7.368,77.341,-141.011,247.855,-691.574,634.477,85.314,-39.705,23.021
7.607,-57.443,-99.816,-83.862,7.367,77.341,-141.011,246.037,-692.238,634.443,85.319,-39.704,22.867
7.617,-57.692,-99.817,-83.863,7.368,77.342,-141.011,243.029,-693.308,634.427,85.320,-39.704,22.618
7.627,-57.970,-99.817,-83.863,7.368,77.343,-141.012,239.670,-694.475,634.428,85.320,-39.704,22.341
7.637,-58.113,-99.816,-83.863,7.368,77.343,-141.012,237.941,-695.065,634.434,85.320,-39.703,22.199
7.648,-58.402,-99.814,-83.862,7.368,77.344,-141.012,234.416,-696.245,634.466,85.316,-39.703,21.912
7.656,-58.679,-99.813,-83.860,7.368,77.344,-141.012,231.050,-697.359,634.493,85.313,-39.704,21.638
7.667,-58.819,-99.813,-83.861,7.368,77.344,-141.012,229.341,-697.920,634.495,85.313,-39.704,21.498
7.677,-59.102,-99.812,-83.860,7.367,77.345,-141.012,225.888,-699.039,634.505,85.312,-39.704,21.216
7.687,-59.380,-99.811,-83.860,7.368,77.345,-141.012,222.490,-700.120,634.517,85.310,-39.704,20.939
7.697,-59.517,-99.811,-83.861,7.368,77.345,-141.012,220.824,-700.647,634.511,85.311,-39.704,20.802
7.707,-59.793,-99.812,-83.862,7.367,77.348,-141.012,217.465,-701.707,634.483,85.315,-39.704,20.527
7.717,-60.050,-99.812,-83.864,7.368,77.349,-141.013,214.315,-702.678,634.468,85.316,-39.703,20.270
7.726,-60.193,-99.814,-83.865,7.367,77.351,-141.013,212.578,-703.219,634.441,85.319,-39.702,20.127
7.736,-60.411,-99.816,-83.869,7.367,77.353,-141.014,209.926,-704.041,634.365,85.328,-39.700,19.906
7.746,-60.629,-99.816,-83.873,7.367,77.357,-141.014,207.268,-704.836,634.317,85.333,-39.698,19.688
7.757,-60.727,-99.816,-83.874,7.368,77.359,-141.015,206.069,-705.188,634.303,85.335,-39.698,19.591
7.767,-60.900,-99.817,-83.875,7.366,77.366,-141.015,203.965,-705.810,634.279,85.338,-39.697,19.422
7.777,-61.054,-99.816,-83.876,7.366,77.380,-141.016,202.134,-706.330,634.283,85.338,-39.695,19.283
7.786,-61.121,-99.816,-83.876,7.366,77.391,-141.016,201.348,-706.555,634.285,85.338,-39.694,19.226
7.796,-61.235,-99.817,-83.878,7.366,77.420,-141.017,200.083,-706.926,634.256,85.341,-39.691,19.139
7.808,-61.313,-99.816,-83.881,7.366,77.457,-141.017,199.281,-707.159,634.220,85.345,-39.688,19.095
7.817,-61.343,-99.816,-83.883,7.366,77.478,-141.017,199.009,-707.236,634.204,85.347,-39.686,19.086
7.826,-61.380,-99.816,-83.887,7.366,77.530,-141.018,198.779,-707.307,634.170,85.351,-39.681,19.097
7.837,-61.398,-99.816,-83.891,7.366,77.614,-141.020,198.940,-707.274,634.123,85.355,-39.673,19.161
7.847,-61.398,-99.815,-83.893,7.366,77.678,-141.021,199.218,-707.197,634.117,85.356,-39.668,19.224
7.857,-61.394,-99.814,-83.895,7.367,77.858,-141.022,200.064,-706.957,634.125,85.353,-39.655,19.410
7.867,-61.391,-99.814,-83.898,7.368,78.095,-141.022,201.140,-706.663,634.116,85.353,-39.640,19.648
7.877,-61.390,-99.814,-83.899,7.368,78.232,-141.023,201.760,-706.492,634.109,85.353,-39.631,19.786
7.887,-61.387,-99.814,-83.904,7.368,78.551,-141.023,203.207,-706.086,634.082,85.354,-39.610,20.107
7.897,-61.385,-99.814,-83.913,7.368,78.923,-141.023,204.880,-705.614,633.998,85.362,-39.585,20.475
7.907,-61.385,-99.813,-83.922,7.368,79.134,-141.023,205.816,-705.347,633.916,85.370,-39.570,20.680
7.917,-61.384,-99.812,-83.951,7.368,79.586,-141.023,207.834,-704.767,633.637,85.400,-39.539,21.114
7.927,-61.383,-99.816,-83.962,7.368,80.076,-141.023,210.021,-704.140,633.482,85.416,-39.506,21.595
7.936,-61.383,-99.817,-83.966,7.368,80.334,-141.023,211.154,-703.789,633.452,85.418,-39.490,21.851
7.947,-61.383,-99.816,-83.977,7.368,80.868,-141.023,213.483,-703.039,633.367,85.427,-39.456,22.378
7.956,-61.385,-99.817,-84.002,7.367,81.431,-141.023,215.933,-702.257,633.096,85.456,-39.418,22.919
7.967,-61.387,-99.816,-84.020,7.367,81.718,-141.023,217.164,-701.854,632.914,85.477,-39.399,23.191
7.977,-61.390,-99.817,-84.050,7.367,82.302,-141.023,219.679,-701.016,632.587,85.513,-39.360,23.748
7.986,-61.395,-99.816,-84.097,7.367,82.902,-141.022,222.223,-700.140,632.091,85.568,-39.321,24.306
7.997,-61.398,-99.818,-84.120,7.367,83.199,-141.022,223.490,-699.710,631.831,85.597,-39.302,24.582
8.007,-61.405,-99.820,-84.166,7.368,83.784,-141.022,225.950,-698.850,631.302,85.656,-39.264,25.121
8.017,-61.418,-99.820,-84.213,7.369,84.366,-141.021,228.308,-697.972,630.797,85.712,-39.228,25.654
8.027,-61.427,-99.822,-84.233,7.368,84.655,-141.021,229.446,-697.552,630.553,85.740,-39.210,25.915
8.037,-61.450,-99.826,-84.273,7.368,85.207,-141.021,231.558,-696.760,630.058,85.796,-39.177,26.409
8.046,-61.477,-99.834,-84.303,7.367,85.731,-141.020,233.485,-696.032,629.632,85.844,-39.147,26.873
8.057,-61.491,-99.839,-84.317,7.368,85.982,-141.020,234.404,-695.690,629.419,85.867,-39.133,27.095
8.067,-61.519,-99.846,-84.346,7.368,86.458,-141.019,236.122,-695.020,629.001,85.914,-39.106,27.513
8.077,-61.535,-99.850,-84.358,7.367,86.893,-141.019,237.772,-694.321,628.817,85.936,-39.082,27.917
8.087,-61.546,-99.849,-84.368,7.367,87.090,-141.019,238.468,-693.995,628.727,85.947,-39.071,28.097
8.097,-61.570,-99.848,-84.375,7.366,87.451,-141.018,239.688,-693.413,628.653,85.956,-39.052,28.427
8.107,-61.590,-99.849,-84.377,7.366,87.764,-141.018,240.752,-692.901,628.628,85.959,-39.035,28.718
8.117,-61.598,-99.848,-84.377,7.367,87.904,-141.018,241.235,-692.656,628.648,85.957,-39.027,28.851
8.128,-61.619,-99.846,-84.375,7.367,88.152,-141.017,242.005,-692.242,628.699,85.952,-39.014,29.081
8.137,-61.654,-99.846,-84.375,7.367,88.353,-141.017,242.410,-691.991,628.711,85.951,-39.004,29.247
8.147,-61.681,-99.846,-84.374,7.367,88.441,-141.017,242.452,-691.928,628.720,85.950,-38.999,29.308
8.157,-61.750,-99.843,-84.372,7.368,88.588,-141.017,242.217,-691.907,628.783,85.943,-38.991,29.391
8.167,-61.833,-99.840,-84.369,7.368,88.684,-141.017,241.599,-692.038,628.855,85.936,-38.985,29.409
8.177,-61.879,-99.838,-84.369,7.368,88.713,-141.017,241.157,-692.158,628.887,85.933,-38.983,29.394
8.187,-61.986,-99.836,-84.368,7.369,88.753,-141.017,240.016,-692.517,628.915,85.929,-38.981,29.329
8.197,-62.110,-99.836,-84.368,7.370,88.786,-141.017,238.653,-692.965,628.922,85.928,-38.979,29.238
8.208,-62.181,-99.835,-84.368,7.370,88.805,-141.017,237.868,-693.219,628.934,85.927,-38.978,29.187
8.216,-62.339,-99.833,-84.367,7.370,88.853,-141.018,236.152,-693.754,628.984,85.921,-38.975,29.081
8.227,-62.511,-99.827,-84.365,7.370,88.915,-141.018,234.299,-694.294,629.080,85.911,-38.970,28.977
8.237,-62.623,-99.821,-84.364,7.371,88.953,-141.019,233.077,-694.632,629.168,85.902,-38.968,28.908
8.246,-62.813,-99.808,-84.360,7.371,89.010,-141.019,230.955,-695.186,629.373,85.881,-38.964,28.789
8.257,-63.026,-99.790,-84.359,7.371,89.058,-141.019,228.495,-695.810,629.619,85.856,-38.961,28.639
8.267,-63.133,-99.784,-84.358,7.371,89.075,-141.019,227.237,-696.160,629.699,85.847,-38.960,28.554
8.276,-63.356,-99.777,-84.356,7.371,89.094,-141.019,224.579,-696.939,629.823,85.834,-38.958,28.358
8.287,-63.578,-99.769,-84.354,7.372,89.100,-141.019,221.868,-697.731,629.948,85.821,-38.957,28.150
8.297,-63.689,-99.765,-84.353,7.371,89.101,-141.020,220.512,-698.126,630.001,85.816,-38.957,28.044
8.307,-63.904,-99.760,-84.354,7.371,89.103,-141.020,217.882,-698.906,630.057,85.810,-38.956,27.835
8.317,-64.123,-99.758,-84.355,7.372,89.104,-141.020,215.208,-699.720,630.071,85.809,-38.956,27.618
8.327,-64.234,-99.758,-84.355,7.372,89.103,-141.019,213.840,-700.139,630.068,85.809,-38.957,27.506
8.337,-64.448,-99.760,-84.356,7.371,89.104,-141.020,211.238,-700.943,630.043,85.812,-38.956,27.291
8.347,-64.645,-99.761,-84.357,7.371,89.107,-141.019,208.846,-701.668,630.017,85.815,-38.957,27.095
8.356,-64.742,-99.762,-84.356,7.371,89.109,-141.019,207.663,-702.026,630.007,85.816,-38.956,26.999
8.367,-64.932,-99.764,-84.357,7.371,89.110,-141.019,205.342,-702.728,629.977,85.819,-38.956,26.807
8.377,-65.112,-99.765,-84.357,7.370,89.110,-141.019,203.150,-703.377,629.954,85.822,-38.957,26.627
8.387,-65.196,-99.765,-84.357,7.370,89.111,-141.019,202.119,-703.676,629.951,85.822,-38.957,26.543
8.397,-65.349,-99.767,-84.358,7.370,89.113,-141.019,200.260,-704.219,629.926,85.825,-38.956,26.391
8.406,-65.485,-99.770,-84.359,7.370,89.118,-141.020,198.611,-704.711,629.869,85.831,-38.956,26.255
8.417,-65.550,-99.771,-84.360,7.370,89.122,-141.020,197.842,-704.943,629.837,85.835,-38.956,26.193
8.427,-65.668,-99.775,-84.360,7.370,89.136,-141.020,196.451,-705.353,629.796,85.839,-38.955,26.085
8.437,-65.765,-99.777,-84.361,7.370,89.159,-141.020,195.378,-705.661,629.751,85.844,-38.954,26.009
8.447,-65.805,-99.778,-84.362,7.370,89.177,-141.020,194.962,-705.777,629.729,85.846,-38.953,25.985
8.457,-65.871,-99.778,-84.362,7.370,89.235,-141.020,194.389,-705.900,629.728,85.847,-38.950,25.977
8.467,-65.914,-99.778,-84.362,7.369,89.333,-141.020,194.273,-705.876,629.729,85.847,-38.944,26.031
8.477,-65.927,-99.778,-84.363,7.369,89.398,-141.020,194.396,-705.805,629.725,85.848,-38.940,26.082
8.487,-65.931,-99.777,-84.364,7.370,89.543,-141.020,194.962,-705.563,629.722,85.849,-38.932,26.223
8.497,-65.924,-99.776,-84.364,7.370,89.705,-141.021,195.728,-705.249,629.737,85.847,-38.922,26.392
8.507,-65.921,-99.776,-84.364,7.370,89.800,-141.021,196.170,-705.069,629.737,85.848,-38.917,26.490
8.516,-65.912,-99.777,-84.364,7.369,90.017,-141.021,197.202,-704.660,629.724,85.850,-38.905,26.714
8.527,-65.899,-99.777,-84.366,7.369,90.254,-141.021,198.369,-704.193,629.702,85.854,-38.891,26.962
8.537,-65.891,-99.778,-84.366,7.370,90.386,-141.021,199.025,-703.930,629.695,85.855,-38.884,27.101
8.547,-65.869,-99.779,-84.368,7.370,90.666,-141.021,200.475,-703.360,629.651,85.861,-38.868,27.398
8.557,-65.839,-99.781,-84.372,7.370,90.975,-141.021,202.156,-702.698,629.594,85.868,-38.851,27.733
8.567,-65.818,-99.783,-84.372,7.370,91.142,-141.021,203.120,-702.325,629.568,85.872,-38.842,27.918
8.577,-65.769,-99.785,-84.372,7.370,91.493,-141.021,205.193,-701.506,629.538,85.876,-38.822,28.314
8.587,-65.720,-99.786,-84.373,7.370,91.879,-141.021,207.409,-700.599,629.516,85.881,-38.801,28.746
8.597,-65.698,-99.788,-84.372,7.370,92.081,-141.021,208.518,-700.140,629.499,85.884,-38.790,28.967
8.607,-65.660,-99.791,-84.373,7.368,92.495,-141.021,210.722,-699.209,629.449,85.892,-38.767,29.415
8.617,-65.630,-99.794,-84.374,7.368,92.924,-141.021,212.871,-698.266,629.398,85.900,-38.744,29.868
8.627,-65.621,-99.795,-84.374,7.368,93.143,-141.021,213.882,-697.803,629.375,85.904,-38.732,30.092
8.637,-65.622,-99.800,-84.373,7.368,93.591,-141.021,215.727,-696.925,629.315,85.913,-38.708,30.533
8.647,-65.629,-99.805,-84.374,7.367,94.045,-141.021,217.523,-696.048,629.230,85.925,-38.683,30.972
8.656,-65.633,-99.807,-84.375,7.368,94.269,-141.021,218.395,-695.609,629.192,85.930,-38.671,31.188
8.667,-65.642,-99.810,-84.375,7.368,94.715,-141.021,220.114,-694.717,629.147,85.938,-38.647,31.620
8.677,-65.653,-99.812,-84.375,7.367,95.157,-141.021,221.770,-693.819,629.123,85.944,-38.623,32.046
8.687,-65.660,-99.813,-84.375,7.368,95.376,-141.021,222.573,-693.373,629.112,85.947,-38.611,32.256
8.697,-65.671,-99.813,-84.374,7.368,95.816,-141.021,224.209,-692.445,629.113,85.950,-38.587,32.682
8.707,-65.678,-99.811,-84.373,7.369,96.242,-141.020,225.834,-691.499,629.152,85.948,-38.563,33.102
8.717,-65.683,-99.809,-84.372,7.370,96.451,-141.020,226.603,-691.036,629.177,85.947,-38.551,33.307
8.727,-65.706,-99.808,-84.370,7.370,96.860,-141.020,227.955,-690.181,629.202,85.947,-38.529,33.692
8.736,-65.756,-99.806,-84.369,7.371,97.260,-141.019,228.931,-689.448,629.226,85.948,-38.506,34.041
8.747,-65.790,-99.805,-84.368,7.371,97.448,-141.020,229.266,-689.139,629.242,85.948,-38.496,34.195
8.756,-65.874,-99.803,-84.367,7.372,97.812,-141.019,229.676,-688.606,629.280,85.947,-38.476,34.474
8.767,-65.972,-99.802,-84.367,7.373,98.146,-141.019,229.807,-688.203,629.296,85.947,-38.457,34.709
8.777,-66.025,-99.800,-84.367,7.373,98.301,-141.019,229.781,-688.036,629.308,85.948,-38.448,34.811
8.786,-66.137,-99.799,-84.367,7.375,98.589,-141.018,229.562,-687.791,629.318,85.949,-38.432,34.986
8.797,-66.269,-99.799,-84.367,7.374,98.850,-141.018,229.005,-687.697,629.305,85.953,-38.419,35.112
8.806,-66.338,-99.799,-84.367,7.375,98.966,-141.018,228.633,-687.691,629.313,85.953,-38.412,35.159
8.816,-66.477,-99.797,-84.366,7.375,99.180,-141.018,227.788,-687.719,629.338,85.953,-38.400,35.233
8.827,-66.624,-99.793,-84.366,7.375,99.365,-141.018,226.739,-687.831,629.376,85.951,-38.389,35.272
8.836,-66.703,-99.792,-84.366,7.375,99.440,-141.018,226.080,-687.948,629.396,85.950,-38.384,35.269
8.846,-66.870,-99.789,-84.366,7.375,99.571,-141.018,224.587,-688.270,629.422,85.949,-38.377,35.234
8.857,-67.058,-99.790,-84.366,7.374,99.679,-141.018,222.744,-688.757,629.406,85.952,-38.371,35.151
8.867,-67.162,-99.791,-84.366,7.374,99.722,-141.017,221.668,-689.059,629.399,85.953,-38.369,35.089
8.877,-67.395,-99.792,-84.366,7.374,99.774,-141.017,219.065,-689.843,629.382,85.956,-38.366,34.906
8.886,-67.595,-99.793,-84.366,7.373,99.779,-141.017,216.690,-690.598,629.357,85.959,-38.367,34.710
8.897,-67.708,-99.794,-84.367,7.374,99.776,-141.017,215.318,-691.043,629.337,85.961,-38.367,34.593
8.907,-67.946,-99.797,-84.367,7.374,99.777,-141.017,212.454,-691.955,629.294,85.965,-38.368,34.353
8.916,-68.188,-99.801,-84.368,7.373,99.778,-141.018,209.550,-692.874,629.235,85.972,-38.369,34.108
8.927,-68.306,-99.803,-84.368,7.373,99.778,-141.018,208.132,-693.323,629.201,85.975,-38.369,33.988
8.936,-68.532,-99.807,-84.369,7.372,99.780,-141.018,205.412,-694.167,629.147,85.981,-38.370,33.760
8.946,-68.761,-99.808,-84.369,7.372,99.781,-141.019,202.640,-694.991,629.127,85.983,-38.370,33.530
8.957,-68.873,-99.809,-84.370,7.372,99.781,-141.019,201.290,-695.389,629.114,85.985,-38.370,33.418
8.966,-69.080,-99.810,-84.370,7.371,99.782,-141.019,198.785,-696.122,629.086,85.988,-38.370,33.210
8.977,-69.276,-99.811,-84.370,7.371,99.785,-141.019,196.416,-696.795,629.079,85.989,-38.370,33.016
8.987,-69.370,-99.811,-84.370,7.372,99.786,-141.019,195.276,-697.113,629.085,85.988,-38.369,32.924
8.997,-69.546,-99.810,-84.370,7.372,99.787,-141.020,193.136,-697.699,629.101,85.986,-38.369,32.750
9.007,-69.704,-99.808,-84.370,7.373,99.788,-141.020,191.204,-698.215,629.127,85.983,-38.368,32.595
9.017,-69.775,-99.807,-84.369,7.372,99.789,-141.020,190.345,-698.443,629.141,85.982,-38.367,32.526
9.027,-69.904,-99.807,-84.369,7.373,99.790,-141.020,188.775,-698.860,629.148,85.981,-38.367,32.399
9.037,-70.021,-99.807,-84.370,7.373,99.797,-141.020,187.382,-699.235,629.128,85.983,-38.367,32.287
9.047,-70.071,-99.807,-84.370,7.373,99.803,-141.020,186.787,-699.387,629.128,85.983,-38.367,32.243
9.056,-70.154,-99.806,-84.370,7.373,99.825,-141.021,185.867,-699.598,629.144,85.981,-38.365,32.183
9.067,-70.202,-99.806,-84.370,7.373,99.866,-141.021,185.442,-699.660,629.149,85.981,-38.362,32.176
9.077,-70.216,-99.806,-84.371,7.374,99.897,-141.021,185.386,-699.639,629.146,85.981,-38.361,32.192
9.086,-70.233,-99.805,-84.371,7.374,99.990,-141.020,185.562,-699.486,629.145,85.983,-38.356,32.268
9.097,-70.230,-99.806,-84.370,7.374,100.128,-141.020,186.161,-699.174,629.140,85.985,-38.348,32.408
9.107,-70.226,-99.806,-84.371,7.374,100.209,-141.020,186.537,-698.984,629.125,85.987,-38.344,32.491
9.116,-70.215,-99.806,-84.371,7.375,100.383,-141.021,187.364,-698.568,629.116,85.990,-38.334,32.674
9.126,-70.206,-99.806,-84.371,7.374,100.590,-141.021,188.308,-698.078,629.101,85.994,-38.323,32.887
9.136,-70.203,-99.807,-84.372,7.373,100.705,-141.021,188.806,-697.817,629.079,85.998,-38.317,33.002
9.147,-70.198,-99.809,-84.374,7.373,100.945,-141.021,189.834,-697.283,629.009,86.008,-38.305,33.240
9.157,-70.191,-99.813,-84.378,7.373,101.214,-141.021,191.008,-696.681,628.915,86.022,-38.292,33.508
9.167,-70.186,-99.815,-84.379,7.372,101.351,-141.021,191.623,-696.368,628.872,86.028,-38.286,33.646
9.178,-70.172,-99.821,-84.381,7.372,101.641,-141.021,192.956,-695.710,628.756,86.044,-38.272,33.939
9.188,-70.151,-99.826,-84.381,7.372,101.947,-141.021,194.448,-694.965,628.673,86.056,-38.257,34.259
9.198,-70.135,-99.827,-84.381,7.372,102.103,-141.022,195.257,-694.559,628.648,86.061,-38.249,34.427
9.207,-70.095,-99.832,-84.381,7.372,102.438,-141.021,197.067,-693.669,628.583,86.071,-38.232,34.794
9.216,-70.059,-99.838,-84.381,7.372,102.785,-141.022,198.888,-692.770,628.480,86.086,-38.215,35.168
9.227,-70.045,-99.842,-84.381,7.372,102.963,-141.021,199.766,-692.319,628.426,86.094,-38.207,35.356
9.237,-70.022,-99.848,-84.381,7.372,103.324,-141.021,201.463,-691.417,628.331,86.108,-38.190,35.730
9.248,-70.011,-99.853,-84.381,7.372,103.691,-141.021,203.041,-690.513,628.251,86.120,-38.172,36.100
9.256,-70.008,-99.853,-84.382,7.372,103.876,-141.021,203.789,-690.051,628.231,86.125,-38.162,36.284
9.267,-70.012,-99.853,-84.382,7.373,104.252,-141.021,205.195,-689.125,628.217,86.132,-38.143,36.652
9.277,-70.016,-99.853,-84.382,7.372,104.624,-141.020,206.571,-688.207,628.196,86.139,-38.124,37.014
9.287,-70.017,-99.853,-84.382,7.373,104.806,-141.020,207.262,-687.747,628.183,86.143,-38.114,37.193
9.297,-70.016,-99.852,-84.381,7.373,105.160,-141.020,208.622,-686.835,628.181,86.148,-38.095,37.544
9.306,-70.017,-99.850,-84.380,7.373,105.492,-141.020,209.871,-685.969,628.194,86.152,-38.077,37.873
9.316,-70.017,-99.850,-84.380,7.373,105.655,-141.019,210.484,-685.546,628.191,86.155,-38.069,38.033
9.327,-70.018,-99.849,-84.380,7.373,105.970,-141.019,211.665,-684.721,628.181,86.160,-38.052,38.344
9.336,-70.020,-99.848,-84.379,7.373,106.266,-141.019,212.747,-683.947,628.180,86.165,-38.037,38.634
9.348,-70.022,-99.848,-84.379,7.373,106.407,-141.019,213.255,-683.580,628.172,86.168,-38.030,38.771
9.357,-70.026,-99.849,-84.380,7.373,106.688,-141.018,214.271,-682.861,628.121,86.178,-38.016,39.042
9.367,-70.028,-99.850,-84.381,7.373,106.900,-141.018,215.039,-682.308,628.099,86.183,-38.006,39.249
9.376,-70.028,-99.850,-84.380,7.373,107.004,-141.018,215.418,-682.035,628.092,86.186,-38.001,39.350
9.386,-70.030,-99.850,-84.380,7.373,107.189,-141.018,216.089,-681.542,628.079,86.190,-37.991,39.531
9.398,-70.033,-99.851,-84.381,7.373,107.346,-141.018,216.643,-681.133,628.057,86.195,-37.983,39.682
9.407,-70.035,-99.851,-84.381,7.373,107.408,-141.017,216.844,-680.977,628.052,86.197,-37.981,39.740
9.417,-70.042,-99.852,-84.380,7.372,107.504,-141.018,217.117,-680.751,628.039,86.200,-37.975,39.827
9.427,-70.056,-99.853,-84.381,7.372,107.584,-141.018,217.253,-680.600,628.004,86.205,-37.972,39.889
9.437,-70.064,-99.854,-84.381,7.372,107.622,-141.018,217.305,-680.537,627.982,86.207,-37.971,39.918
9.447,-70.082,-99.857,-84.381,7.372,107.683,-141.018,217.329,-680.455,627.950,86.212,-37.969,39.959
9.456,-70.100,-99.860,-84.382,7.371,107.705,-141.018,217.206,-680.493,627.897,86.218,-37.969,39.959
9.466,-70.109,-99.862,-84.382,7.371,107.701,-141.017,217.091,-680.556,627.868,86.220,-37.970,39.945
9.477,-70.126,-99.868,-84.383,7.370,107.690,-141.017,216.865,-680.703,627.779,86.229,-37.974,39.911
9.487,-70.138,-99.875,-84.383,7.370,107.680,-141.017,216.702,-680.831,627.693,86.238,-37.977,39.883
9.497,-70.144,-99.878,-84.383,7.370,107.675,-141.017,216.620,-680.894,627.651,86.242,-37.978,39.870
9.507,-70.157,-99.883,-84.384,7.370,107.670,-141.017,216.463,-680.993,627.584,86.248,-37.980,39.848
9.517,-70.169,-99.886,-84.384,7.370,107.670,-141.017,216.333,-681.066,627.537,86.253,-37.982,39.834
9.527,-70.174,-99.888,-84.384,7.370,107.670,-141.017,216.270,-681.101,627.514,86.255,-37.982,39.827
9.537,-70.188,-99.894,-84.384,7.371,107.670,-141.017,216.128,-681.194,627.452,86.260,-37.984,39.810
9.548,-70.208,-99.907,-84.383,7.371,107.669,-141.017,215.917,-681.374,627.305,86.274,-37.988,39.780
9.557,-70.223,-99.913,-84.383,7.371,107.669,-141.017,215.767,-681.480,627.222,86.282,-37.990,39.761
9.567,-70.252,-99.920,-84.385,7.371,107.668,-141.017,215.436,-681.652,627.110,86.293,-37.994,39.724
9.576,-70.280,-99.923,-84.387,7.370,107.667,-141.017,215.102,-681.794,627.047,86.300,-37.996,39.690
9.587,-70.295,-99.926,-84.388,7.370,107.666,-141.017,214.932,-681.871,627.004,86.304,-37.997,39.671
9.597,-70.323,-99.933,-84.391,7.368,107.661,-141.017,214.598,-682.053,626.873,86.318,-38.001,39.630
9.607,-70.344,-99.940,-84.396,7.368,107.653,-141.016,214.349,-682.212,626.728,86.333,-38.007,39.593
9.617,-70.352,-99.943,-84.400,7.367,107.647,-141.016,214.238,-682.289,626.646,86.342,-38.010,39.573
9.627,-70.362,-99.949,-84.418,7.366,107.630,-141.016,214.081,-682.441,626.367,86.371,-38.019,39.528
9.637,-70.368,-99.960,-84.449,7.365,107.611,-141.015,213.987,-682.642,625.875,86.423,-38.036,39.471
9.647,-70.372,-99.972,-84.465,7.363,107.600,-141.015,213.931,-682.802,625.547,86.457,-38.046,39.434
9.656,-70.386,-99.993,-84.495,7.363,107.582,-141.015,213.775,-683.106,624.943,86.519,-38.065,39.365
9.666,-70.411,-100.023,-84.526,7.362,107.561,-141.015,213.497,-683.529,624.213,86.593,-38.087,39.273
9.677,-70.425,-100.044,-84.539,7.361,107.551,-141.015,213.354,-683.784,623.815,86.633,-38.098,39.224
9.686,-70.453,-100.095,-84.567,7.360,107.534,-141.015,213.111,-684.375,622.857,86.729,-38.126,39.120
9.697,-70.488,-100.161,-84.600,7.360,107.526,-141.015,212.868,-685.083,621.662,86.848,-38.160,39.004
9.706,-70.502,-100.202,-84.612,7.358,107.525,-141.015,212.809,-685.481,621.001,86.913,-38.178,38.948
9.717,-70.536,-100.291,-84.644,7.358,107.524,-141.015,212.664,-686.347,619.523,87.059,-38.218,38.823
9.727,-70.577,-100.399,-84.676,7.357,107.524,-141.015,212.481,-687.383,617.813,87.228,-38.265,38.677
9.736,-70.603,-100.462,-84.689,7.357,107.524,-141.015,212.350,-687.986,616.875,87.320,-38.290,38.595
9.746,-70.662,-100.595,-84.718,7.358,107.525,-141.015,212.018,-689.268,614.885,87.513,-38.342,38.417
9.757,-70.725,-100.742,-84.743,7.359,107.526,-141.016,211.675,-690.667,612.759,87.720,-38.398,38.227
9.767,-70.761,-100.829,-84.763,7.360,107.526,-141.016,211.479,-691.497,611.436,87.848,-38.432,38.110
9.777,-70.819,-100.981,-84.798,7.361,107.527,-141.016,211.203,-692.914,609.130,88.073,-38.492,37.914
9.786,-70.879,-101.153,-84.844,7.361,107.527,-141.016,210.948,-694.498,606.448,88.336,-38.561,37.690
9.797,-70.906,-101.241,-84.865,7.361,107.528,-141.016,210.874,-695.283,605.093,88.469,-38.596,37.582
9.807,-70.959,-101.399,-84.913,7.361,107.529,-141.016,210.657,-696.724,602.558,88.718,-38.661,37.373
9.817,-71.020,-101.544,-84.962,7.360,107.528,-141.016,210.311,-698.093,600.154,88.956,-38.722,37.163
9.826,-71.052,-101.617,-84.989,7.359,107.528,-141.016,210.115,-698.780,598.926,89.078,-38.754,37.055
9.836,-71.117,-101.757,-85.055,7.360,107.529,-141.016,209.699,-700.118,596.409,89.328,-38.817,36.834
9.846,-71.175,-101.903,-85.130,7.361,107.530,-141.016,209.393,-701.475,593.692,89.598,-38.885,36.608
9.857,-71.201,-101.979,-85.170,7.362,107.532,-141.016,209.277,-702.160,592.272,89.740,-38.920,36.494
9.867,-71.247,-102.134,-85.252,7.362,107.532,-141.016,209.118,-703.530,589.373,90.030,-38.992,36.265
9.877,-71.281,-102.291,-85.328,7.361,107.533,-141.016,209.110,-704.849,586.515,90.316,-39.061,36.053
9.887,-71.295,-102.373,-85.362,7.361,107.533,-141.015,209.149,-705.525,585.074,90.459,-39.096,35.948
9.897,-71.323,-102.548,-85.429,7.362,107.534,-141.015,209.264,-706.935,582.072,90.757,-39.168,35.735
9.908,-71.342,-102.727,-85.489,7.363,107.535,-141.016,209.476,-708.327,579.111,91.049,-39.237,35.531
9.916,-71.345,-102.809,-85.521,7.363,107.535,-141.016,209.641,-708.947,577.687,91.191,-39.270,35.438
