hapiel/Chataigne-Fairino-control/ai_recordings/new/spiral-robotic.csv
t,j1,j2,j3,j4,j5,j6,x,y,z,rx,ry,rz
0.006,-45.130,-102.896,-70.810,-6.004,57.236,-141.012,320.830,-675.340,683.370,89.685,-39.145,12.305
0.016,-45.126,-102.898,-70.811,-6.004,57.236,-141.012,320.894,-675.332,683.337,89.689,-39.143,12.307
0.025,-45.123,-102.900,-70.812,-6.004,57.237,-141.012,320.933,-675.331,683.311,89.691,-39.142,12.308
0.036,-45.123,-102.900,-70.812,-6.004,57.236,-141.012,320.948,-675.332,683.296,89.692,-39.141,12.308
0.045,-45.121,-102.902,-70.812,-6.004,57.237,-141.012,320.975,-675.332,683.283,89.694,-39.141,12.309
0.056,-45.121,-102.902,-70.812,-6.004,57.237,-141.012,320.976,-675.333,683.280,89.694,-39.141,12.308
0.066,-45.121,-102.902,-70.812,-6.004,57.237,-141.012,320.972,-675.333,683.284,89.694,-39.141,12.308
0.075,-45.122,-102.901,-70.812,-6.004,57.237,-141.012,320.961,-675.333,683.292,89.693,-39.141,12.308
0.086,-45.124,-102.901,-70.812,-6.004,57.237,-141.011,320.936,-675.339,683.298,89.692,-39.142,12.307
0.096,-45.124,-102.900,-70.812,-6.004,57.237,-141.012,320.927,-675.340,683.304,89.692,-39.142,12.307
0.105,-45.126,-102.900,-70.812,-6.004,57.237,-141.011,320.901,-675.345,683.313,89.691,-39.143,12.305
0.115,-45.128,-102.899,-70.812,-6.004,57.237,-141.012,320.874,-675.353,683.318,89.690,-39.142,12.304
0.125,-45.129,-102.899,-70.811,-6.004,57.237,-141.011,320.860,-675.356,683.324,89.690,-39.143,12.303
0.136,-45.130,-102.898,-70.811,-6.004,57.237,-141.011,320.841,-675.352,683.343,89.688,-39.144,12.303
0.146,-45.130,-102.897,-70.811,-6.004,57.237,-141.012,320.834,-675.348,683.353,89.687,-39.144,12.304
0.155,-45.130,-102.897,-70.811,-6.004,57.237,-141.012,320.838,-675.346,683.355,89.687,-39.144,12.304
0.166,-45.129,-102.897,-70.811,-6.004,57.237,-141.012,320.843,-675.341,683.358,89.687,-39.144,12.305
0.176,-45.128,-102.897,-70.811,-6.003,57.237,-141.011,320.862,-675.338,683.352,89.687,-39.144,12.306
0.186,-45.127,-102.898,-70.811,-6.004,57.237,-141.011,320.871,-675.338,683.344,89.688,-39.144,12.306
0.195,-45.126,-102.898,-70.811,-6.004,57.237,-141.012,320.888,-675.337,683.335,89.689,-39.143,12.306
0.206,-45.125,-102.899,-70.811,-6.004,57.237,-141.011,320.904,-675.336,683.325,89.690,-39.143,12.307
0.216,-45.125,-102.899,-70.811,-6.004,57.237,-141.011,320.914,-675.333,683.322,89.690,-39.143,12.307
0.226,-45.124,-102.900,-70.812,-6.004,57.237,-141.012,320.926,-675.333,683.313,89.691,-39.142,12.308
0.236,-45.124,-102.900,-70.811,-6.004,57.237,-141.012,320.927,-675.332,683.316,89.690,-39.142,12.308
0.245,-45.124,-102.900,-70.812,-6.004,57.237,-141.012,320.927,-675.332,683.313,89.691,-39.142,12.308
0.255,-45.124,-102.900,-70.811,-6.004,57.237,-141.011,320.924,-675.335,683.314,89.691,-39.143,12.308
0.266,-45.125,-102.899,-70.812,-6.004,57.237,-141.012,320.908,-675.339,683.316,89.690,-39.142,12.307
0.276,-45.126,-102.899,-70.811,-6.004,57.237,-141.011,320.899,-675.344,683.317,89.690,-39.143,12.306
0.285,-45.128,-102.899,-70.811,-6.003,57.237,-141.012,320.879,-675.349,683.326,89.689,-39.143,12.305
0.296,-45.129,-102.899,-70.811,-6.004,57.237,-141.012,320.864,-675.353,683.327,89.689,-39.143,12.304
0.306,-45.129,-102.898,-70.811,-6.004,57.237,-141.012,320.854,-675.353,683.333,89.689,-39.143,12.303
0.316,-45.130,-102.898,-70.811,-6.004,57.237,-141.012,320.841,-675.353,683.342,89.688,-39.144,12.303
0.326,-45.130,-102.897,-70.811,-6.004,57.236,-141.012,320.836,-675.350,683.351,89.687,-39.144,12.303
0.335,-45.130,-102.897,-70.811,-6.004,57.237,-141.012,320.836,-675.346,683.357,89.687,-39.144,12.304
0.345,-45.130,-102.896,-70.810,-6.003,57.237,-141.012,320.836,-675.342,683.365,89.686,-39.145,12.305
0.355,-45.129,-102.897,-70.811,-6.003,57.237,-141.012,320.848,-675.338,683.361,89.686,-39.145,12.306
0.365,-45.128,-102.897,-70.811,-6.003,57.237,-141.012,320.854,-675.337,683.359,89.686,-39.145,12.306
0.376,-45.127,-102.897,-70.811,-6.003,57.237,-141.012,320.867,-675.332,683.358,89.686,-39.145,12.307
0.385,-45.126,-102.898,-70.811,-6.003,57.237,-141.012,320.883,-675.331,683.346,89.687,-39.144,12.307
0.395,-45.126,-102.898,-70.811,-6.003,57.237,-141.012,320.894,-675.330,683.340,89.688,-39.144,12.308
0.405,-45.125,-102.898,-70.811,-6.003,57.237,-141.012,320.903,-675.330,683.333,89.689,-39.143,12.308
0.416,-45.125,-102.898,-70.811,-6.003,57.237,-141.012,320.911,-675.328,683.332,89.689,-39.143,12.308
0.425,-45.125,-102.899,-70.812,-6.003,57.237,-141.011,320.912,-675.332,683.324,89.690,-39.143,12.308
0.435,-45.125,-102.899,-70.812,-6.004,57.237,-141.012,320.913,-675.333,683.319,89.690,-39.143,12.307
0.445,-45.125,-102.899,-70.812,-6.003,57.237,-141.012,320.911,-675.336,683.319,89.690,-39.143,12.307
0.455,-45.125,-102.899,-70.812,-6.003,57.237,-141.012,320.908,-675.338,683.318,89.690,-39.143,12.307
0.465,-45.126,-102.900,-70.812,-6.003,57.237,-141.012,320.901,-675.344,683.313,89.691,-39.142,12.306
0.476,-45.127,-102.900,-70.812,-6.003,57.237,-141.012,320.891,-675.349,683.313,89.691,-39.142,12.305
0.485,-45.127,-102.900,-70.812,-6.003,57.237,-141.012,320.891,-675.351,683.311,89.691,-39.142,12.305
0.495,-45.128,-102.900,-70.812,-6.003,57.237,-141.012,320.880,-675.354,683.314,89.690,-39.143,12.304
0.505,-45.128,-102.900,-70.812,-6.003,57.237,-141.012,320.877,-675.356,683.313,89.691,-39.142,12.304
0.515,-45.129,-102.900,-70.812,-6.004,57.237,-141.012,320.872,-675.359,683.312,89.691,-39.142,12.303
0.525,-45.129,-102.899,-70.812,-6.003,57.237,-141.012,320.869,-675.356,683.319,89.690,-39.143,12.303
0.536,-45.129,-102.899,-70.811,-6.003,57.237,-141.012,320.867,-675.354,683.324,89.689,-39.143,12.304
0.545,-45.129,-102.899,-70.812,-6.003,57.236,-141.011,320.868,-675.356,683.319,89.690,-39.143,12.303
0.556,-45.128,-102.899,-70.812,-6.003,57.236,-141.011,320.872,-675.353,683.320,89.690,-39.144,12.304
0.565,-45.128,-102.899,-70.812,-6.003,57.237,-141.011,320.874,-675.351,683.322,89.690,-39.144,12.304
0.575,-45.128,-102.899,-70.811,-6.003,57.237,-141.011,320.873,-675.350,683.326,89.689,-39.144,12.304
0.585,-45.128,-102.899,-70.811,-6.003,57.237,-141.012,320.874,-675.349,683.327,89.689,-39.143,12.305
0.595,-45.127,-102.899,-70.812,-6.003,57.236,-141.011,320.879,-675.345,683.328,89.689,-39.143,12.305
0.605,-45.127,-102.899,-70.812,-6.003,57.236,-141.011,320.879,-675.346,683.326,89.689,-39.143,12.305
0.616,-45.127,-102.898,-70.812,-6.003,57.236,-141.011,320.879,-675.343,683.329,89.689,-39.143,12.305
0.625,-45.127,-102.899,-70.812,-6.003,57.236,-141.011,320.884,-675.346,683.320,89.690,-39.143,12.305
0.635,-45.127,-102.899,-70.812,-6.003,57.236,-141.011,320.888,-675.347,683.314,89.690,-39.143,12.305
0.645,-45.127,-102.900,-70.812,-6.003,57.236,-141.011,320.886,-675.351,683.312,89.691,-39.143,12.304
0.655,-45.127,-102.900,-70.812,-6.003,57.236,-141.011,320.887,-675.355,683.305,89.691,-39.142,12.303
0.665,-45.127,-102.900,-70.812,-6.003,57.236,-141.011,320.884,-675.354,683.310,89.691,-39.143,12.304
0.675,-45.128,-102.900,-70.812,-6.003,57.236,-141.011,320.881,-675.355,683.308,89.691,-39.143,12.303
0.685,-45.128,-102.900,-70.812,-6.003,57.236,-141.011,320.876,-675.356,683.309,89.691,-39.142,12.302
0.695,-45.128,-102.900,-70.812,-6.003,57.235,-141.012,320.876,-675.357,683.307,89.691,-39.142,12.302
0.706,-45.128,-102.900,-70.812,-6.003,57.235,-141.011,320.867,-675.362,683.307,89.691,-39.143,12.301
0.715,-45.129,-102.900,-70.812,-6.003,57.234,-141.011,320.867,-675.366,683.296,89.692,-39.142,12.300
0.726,-45.129,-102.900,-70.813,-6.003,57.234,-141.012,320.863,-675.368,683.294,89.692,-39.141,12.299
0.735,-45.129,-102.900,-70.813,-6.003,57.233,-141.012,320.862,-675.370,683.292,89.693,-39.141,12.298
0.745,-45.129,-102.900,-70.813,-6.003,57.233,-141.011,320.856,-675.372,683.293,89.692,-39.142,12.298
0.755,-45.129,-102.900,-70.813,-6.003,57.233,-141.012,320.853,-675.371,683.295,89.692,-39.141,12.298
0.765,-45.129,-102.900,-70.812,-6.003,57.232,-141.012,320.851,-675.367,683.302,89.691,-39.141,12.298
0.776,-45.129,-102.899,-70.812,-6.003,57.232,-141.012,320.843,-675.362,683.314,89.690,-39.142,12.298
0.785,-45.129,-102.899,-70.812,-6.003,57.231,-141.012,320.842,-675.360,683.319,89.690,-39.142,12.298
0.795,-45.129,-102.898,-70.812,-6.003,57.231,-141.012,320.830,-675.359,683.330,89.689,-39.143,12.298
0.805,-45.129,-102.898,-70.812,-6.003,57.229,-141.012,320.817,-675.357,683.337,89.688,-39.143,12.296
0.816,-45.129,-102.898,-70.812,-6.003,57.228,-141.012,320.807,-675.358,683.340,89.688,-39.143,12.295
0.825,-45.130,-102.898,-70.812,-6.002,57.225,-141.012,320.787,-675.363,683.341,89.687,-39.143,12.292
0.835,-45.131,-102.898,-70.812,-6.002,57.221,-141.012,320.759,-675.375,683.336,89.688,-39.143,12.287
0.845,-45.132,-102.898,-70.812,-6.002,57.219,-141.012,320.740,-675.379,683.339,89.688,-39.143,12.284
0.855,-45.134,-102.897,-70.812,-6.002,57.212,-141.012,320.681,-675.395,683.343,89.687,-39.143,12.275
0.865,-45.137,-102.897,-70.812,-6.002,57.203,-141.013,320.596,-675.420,683.347,89.687,-39.143,12.262
0.876,-45.140,-102.897,-70.811,-6.002,57.195,-141.014,320.533,-675.435,683.357,89.686,-39.143,12.254
0.885,-45.146,-102.896,-70.811,-6.002,57.168,-141.013,320.327,-675.493,683.365,89.685,-39.144,12.220
0.896,-45.153,-102.896,-70.811,-6.001,57.123,-141.014,320.048,-675.562,683.374,89.684,-39.144,12.170
0.905,-45.156,-102.896,-70.811,-6.001,57.095,-141.014,319.883,-675.603,683.374,89.684,-39.144,12.138
0.916,-45.167,-102.896,-70.810,-6.000,57.021,-141.014,319.465,-675.714,683.378,89.683,-39.145,12.062
0.925,-45.184,-102.896,-70.810,-6.000,56.938,-141.014,318.838,-675.892,683.382,89.683,-39.146,11.954
0.935,-45.195,-102.896,-70.810,-6.000,56.879,-141.014,318.443,-676.000,683.385,89.683,-39.146,11.884
0.945,-45.217,-102.896,-70.810,-6.000,56.724,-141.014,317.490,-676.251,683.379,89.683,-39.147,11.707
0.956,-45.240,-102.896,-70.810,-6.000,56.530,-141.014,316.338,-676.535,683.378,89.684,-39.147,11.489
0.965,-45.253,-102.896,-70.810,-6.000,56.425,-141.015,315.707,-676.692,683.375,89.685,-39.147,11.371
0.976,-45.288,-102.897,-70.811,-6.000,56.186,-141.015,314.224,-677.077,683.352,89.687,-39.147,11.095
0.985,-45.327,-102.898,-70.811,-6.000,55.915,-141.015,312.535,-677.508,683.332,89.690,-39.147,10.783
0.996,-45.345,-102.898,-70.811,-6.000,55.763,-141.015,311.642,-677.719,683.324,89.691,-39.148,10.613
1.006,-45.383,-102.899,-70.812,-6.001,55.433,-141.016,309.700,-678.167,683.305,89.694,-39.147,10.243
1.016,-45.417,-102.900,-70.812,-6.001,55.035,-141.016,307.502,-678.627,683.285,89.697,-39.148,9.810
1.026,-45.430,-102.900,-70.813,-6.001,54.874,-141.016,306.614,-678.809,683.272,89.699,-39.149,9.634
1.036,-45.458,-102.901,-70.814,-6.002,54.467,-141.016,304.442,-679.225,683.247,89.702,-39.149,9.197
1.046,-45.481,-102.902,-70.814,-6.001,54.028,-141.016,302.166,-679.620,683.233,89.704,-39.150,8.733
1.056,-45.489,-102.901,-70.814,-6.001,53.799,-141.016,301.029,-679.792,683.228,89.705,-39.151,8.495
1.066,-45.500,-102.901,-70.814,-6.001,53.310,-141.016,298.670,-680.112,683.229,89.706,-39.153,7.995
1.075,-45.512,-102.900,-70.813,-6.001,52.800,-141.016,296.199,-680.423,683.238,89.707,-39.156,7.473
1.086,-45.518,-102.900,-70.813,-6.001,52.535,-141.016,294.908,-680.577,683.245,89.707,-39.158,7.202
1.095,-45.530,-102.899,-70.813,-6.000,51.976,-141.016,292.205,-680.884,683.244,89.708,-39.161,6.630
1.106,-45.546,-102.899,-70.813,-6.000,51.392,-141.016,289.342,-681.194,683.236,89.710,-39.163,6.028
1.116,-45.553,-102.899,-70.813,-6.000,51.098,-141.016,287.915,-681.331,683.236,89.711,-39.164,5.727
1.126,-45.558,-102.898,-70.812,-6.001,50.486,-141.017,285.044,-681.549,683.236,89.713,-39.167,5.108
1.135,-45.560,-102.898,-70.813,-6.000,49.840,-141.016,282.059,-681.732,683.226,89.715,-39.170,4.459
1.146,-45.560,-102.898,-70.812,-6.000,49.513,-141.016,280.557,-681.804,683.229,89.716,-39.171,4.132
1.156,-45.559,-102.897,-70.812,-6.000,48.846,-141.016,277.511,-681.918,683.233,89.717,-39.175,3.466
1.166,-45.556,-102.897,-70.812,-5.999,48.154,-141.016,274.360,-681.995,683.234,89.719,-39.179,2.775
1.176,-45.556,-102.896,-70.811,-5.999,47.801,-141.016,272.738,-682.024,683.239,89.719,-39.180,2.422
1.185,-45.556,-102.894,-70.810,-5.999,47.092,-141.016,269.472,-682.046,683.259,89.720,-39.186,1.713
1.195,-45.556,-102.894,-70.810,-5.998,46.355,-141.015,266.076,-682.040,683.258,89.722,-39.190,0.974
1.205,-45.557,-102.894,-70.810,-5.997,45.984,-141.015,264.370,-682.023,683.251,89.723,-39.192,0.602
1.215,-45.556,-102.893,-70.810,-5.998,45.174,-141.015,260.657,-681.936,683.243,89.726,-39.195,-0.210
1.226,-45.555,-102.894,-70.810,-5.997,44.473,-141.015,257.453,-681.825,683.227,89.730,-39.198,-0.912
1.235,-45.555,-102.894,-70.811,-5.997,44.089,-141.015,255.697,-681.751,683.211,89.732,-39.199,-1.297
1.245,-45.553,-102.894,-70.811,-5.997,43.314,-141.015,252.158,-681.554,683.195,89.736,-39.202,-2.073
1.256,-45.554,-102.894,-70.811,-5.996,42.520,-141.015,248.514,-681.309,683.188,89.739,-39.205,-2.869
1.265,-45.555,-102.895,-70.811,-5.996,42.124,-141.015,246.696,-681.172,683.175,89.742,-39.206,-3.268
1.276,-45.555,-102.895,-70.811,-5.996,41.321,-141.015,243.019,-680.854,683.152,89.746,-39.208,-4.074
1.286,-45.557,-102.896,-70.811,-5.996,40.511,-141.015,239.310,-680.484,683.129,89.751,-39.211,-4.888
1.296,-45.557,-102.896,-70.811,-5.995,40.106,-141.015,237.457,-680.275,683.122,89.752,-39.212,-5.295
1.306,-45.557,-102.897,-70.811,-5.996,39.281,-141.016,233.703,-679.814,683.096,89.758,-39.214,-6.123
1.315,-45.558,-102.897,-70.811,-5.995,38.455,-141.015,229.945,-679.296,683.076,89.762,-39.217,-6.952
1.325,-45.558,-102.897,-70.811,-5.995,37.976,-141.015,227.763,-678.969,683.067,89.764,-39.219,-7.434
1.335,-45.558,-102.897,-70.811,-5.995,37.219,-141.015,224.332,-678.415,683.050,89.768,-39.221,-8.193
1.345,-45.560,-102.898,-70.812,-5.995,36.398,-141.015,220.609,-677.772,683.024,89.774,-39.223,-9.018
1.356,-45.560,-102.898,-70.812,-5.994,35.983,-141.015,218.727,-677.421,683.019,89.775,-39.224,-9.436
1.366,-45.561,-102.897,-70.812,-5.994,35.153,-141.016,214.979,-676.680,683.006,89.779,-39.227,-10.269
1.376,-45.561,-102.897,-70.812,-5.994,34.330,-141.015,211.273,-675.890,682.996,89.784,-39.230,-11.095
1.385,-45.561,-102.896,-70.811,-5.994,33.914,-141.015,209.408,-675.468,682.994,89.785,-39.232,-11.512
1.395,-45.561,-102.895,-70.811,-5.993,33.088,-141.014,205.706,-674.586,682.995,89.788,-39.237,-12.340
1.405,-45.560,-102.895,-70.811,-5.993,32.269,-141.015,202.067,-673.659,682.992,89.792,-39.241,-13.160
1.415,-45.560,-102.894,-70.811,-5.993,31.854,-141.014,200.220,-673.169,682.990,89.794,-39.243,-13.576
1.426,-45.561,-102.893,-70.810,-5.992,30.970,-141.014,196.291,-672.085,682.990,89.797,-39.247,-14.463
1.435,-45.561,-102.892,-70.810,-5.992,30.216,-141.015,192.961,-671.115,682.984,89.801,-39.250,-15.219
1.445,-45.561,-102.891,-70.810,-5.992,29.811,-141.015,191.174,-670.573,682.982,89.803,-39.252,-15.625
1.455,-45.562,-102.890,-70.810,-5.992,29.018,-141.015,187.684,-669.479,682.980,89.807,-39.255,-16.421
1.466,-45.561,-102.889,-70.810,-5.991,28.216,-141.014,184.183,-668.325,682.971,89.811,-39.258,-17.226
1.476,-45.561,-102.890,-70.810,-5.991,27.821,-141.014,182.467,-667.743,682.956,89.814,-39.259,-17.623
1.485,-45.561,-102.890,-70.810,-5.991,27.040,-141.014,179.085,-666.555,682.938,89.818,-39.261,-18.407
1.495,-45.561,-102.891,-70.811,-5.991,26.264,-141.015,175.745,-665.333,682.910,89.824,-39.261,-19.186
1.506,-45.561,-102.891,-70.811,-5.990,25.884,-141.014,174.113,-664.717,682.897,89.826,-39.262,-19.568
1.516,-45.562,-102.891,-70.811,-5.991,25.136,-141.014,170.913,-663.476,682.872,89.832,-39.264,-20.320
1.525,-45.562,-102.892,-70.811,-5.991,24.392,-141.014,167.755,-662.201,682.846,89.837,-39.264,-21.067
1.536,-45.561,-102.893,-70.812,-5.991,24.030,-141.014,166.229,-661.564,682.831,89.839,-39.265,-21.430
1.546,-45.560,-102.894,-70.812,-5.991,23.317,-141.014,163.244,-660.283,682.800,89.845,-39.265,-22.145
1.556,-45.559,-102.895,-70.812,-5.991,22.629,-141.013,160.380,-659.015,682.767,89.850,-39.265,-22.834
1.566,-45.558,-102.896,-70.812,-5.991,22.299,-141.013,159.013,-658.393,682.749,89.853,-39.265,-23.166
1.576,-45.556,-102.897,-70.813,-5.991,21.665,-141.013,156.401,-657.177,682.716,89.858,-39.264,-23.801
1.585,-45.555,-102.899,-70.813,-5.991,21.051,-141.013,153.879,-655.974,682.683,89.862,-39.263,-24.417
1.596,-45.554,-102.899,-70.814,-5.991,20.759,-141.013,152.680,-655.388,682.674,89.864,-39.264,-24.710
1.606,-45.552,-102.900,-70.814,-5.991,20.204,-141.014,150.426,-654.260,682.652,89.868,-39.264,-25.265
1.615,-45.550,-102.900,-70.814,-5.991,19.681,-141.013,148.310,-653.169,682.639,89.872,-39.265,-25.788
1.626,-45.549,-102.900,-70.814,-5.991,19.396,-141.013,147.161,-652.567,682.634,89.873,-39.265,-26.072
1.635,-45.547,-102.900,-70.814,-5.991,18.975,-141.013,145.468,-651.666,682.625,89.876,-39.266,-26.493
1.646,-45.545,-102.899,-70.814,-5.991,18.556,-141.013,143.783,-650.757,682.620,89.878,-39.268,-26.913
1.655,-45.545,-102.899,-70.813,-5.991,18.358,-141.013,142.988,-650.323,682.619,89.879,-39.268,-27.111
1.665,-45.543,-102.899,-70.813,-5.991,17.991,-141.013,141.524,-649.511,682.613,89.882,-39.269,-27.477
1.676,-45.542,-102.899,-70.813,-5.991,17.661,-141.013,140.214,-648.774,682.605,89.884,-39.270,-27.807
1.685,-45.542,-102.899,-70.813,-5.991,17.510,-141.013,139.609,-648.432,682.605,89.885,-39.270,-27.959
1.696,-45.541,-102.898,-70.813,-5.986,17.240,-141.013,138.528,-647.814,682.609,89.884,-39.276,-28.228
1.705,-45.542,-102.898,-70.813,-5.968,17.009,-141.013,137.579,-647.272,682.626,89.879,-39.293,-28.456
1.715,-45.542,-102.898,-70.813,-5.961,16.907,-141.013,137.167,-647.033,682.632,89.877,-39.300,-28.557
1.726,-45.543,-102.898,-70.813,-5.960,16.733,-141.013,136.460,-646.634,682.630,89.878,-39.301,-28.733
1.736,-45.543,-102.898,-70.813,-5.960,16.582,-141.013,135.858,-646.289,682.623,89.879,-39.301,-28.885
1.746,-45.543,-102.899,-70.813,-5.960,16.520,-141.013,135.615,-646.146,682.620,89.880,-39.301,-28.947
1.756,-45.543,-102.899,-70.814,-5.960,16.427,-141.013,135.247,-645.936,682.610,89.881,-39.300,-29.041
1.765,-45.544,-102.899,-70.814,-5.960,16.369,-141.013,135.014,-645.803,682.609,89.881,-39.301,-29.100
1.776,-45.543,-102.900,-70.814,-5.960,16.345,-141.013,134.925,-645.749,682.603,89.881,-39.301,-29.124
1.785,-45.544,-102.900,-70.814,-5.960,16.297,-141.013,134.738,-645.641,682.599,89.882,-39.300,-29.171
1.795,-45.544,-102.900,-70.814,-5.961,16.259,-141.012,134.591,-645.556,682.591,89.882,-39.299,-29.210
1.806,-45.544,-102.901,-70.814,-5.960,16.245,-141.013,134.539,-645.527,682.582,89.883,-39.299,-29.225
1.815,-45.543,-102.902,-70.814,-5.960,16.231,-141.013,134.499,-645.501,682.570,89.883,-39.297,-29.238
1.826,-45.543,-102.903,-70.815,-5.961,16.232,-141.012,134.513,-645.511,682.555,89.884,-39.296,-29.238
1.836,-45.542,-102.904,-70.815,-5.961,16.232,-141.013,134.518,-645.513,682.552,89.884,-39.295,-29.237
1.845,-45.542,-102.904,-70.815,-5.961,16.232,-141.013,134.531,-645.519,682.541,89.885,-39.294,-29.237
1.856,-45.542,-102.905,-70.815,-5.961,16.232,-141.013,134.541,-645.523,682.532,89.885,-39.293,-29.237
1.865,-45.542,-102.905,-70.815,-5.961,16.232,-141.013,134.540,-645.525,682.532,89.885,-39.293,-29.237
1.876,-45.541,-102.905,-70.815,-5.961,16.232,-141.012,134.544,-645.524,682.532,89.885,-39.294,-29.236
1.885,-45.542,-102.906,-70.815,-5.961,16.232,-141.013,134.543,-645.525,682.532,89.885,-39.293,-29.237
1.895,-45.542,-102.906,-70.815,-5.961,16.233,-141.013,134.545,-645.526,682.532,89.885,-39.293,-29.236
1.906,-45.542,-102.905,-70.815,-5.961,16.233,-141.012,134.542,-645.524,682.535,89.885,-39.294,-29.236
1.916,-45.542,-102.905,-70.815,-5.961,16.233,-141.012,134.539,-645.525,682.535,89.885,-39.294,-29.236
1.926,-45.542,-102.905,-70.815,-5.961,16.233,-141.012,134.539,-645.525,682.535,89.885,-39.294,-29.236
1.935,-45.542,-102.905,-70.815,-5.961,16.233,-141.012,134.530,-645.524,682.539,89.885,-39.295,-29.237
1.946,-45.543,-102.905,-70.815,-5.960,16.233,-141.012,134.525,-645.524,682.541,89.884,-39.295,-29.237
1.956,-45.543,-102.905,-70.815,-5.961,16.233,-141.012,134.524,-645.523,682.541,89.885,-39.295,-29.237
1.966,-45.543,-102.904,-70.814,-5.960,16.233,-141.012,134.520,-645.520,682.549,89.884,-39.296,-29.237
1.975,-45.543,-102.904,-70.814,-5.960,16.233,-141.012,134.515,-645.519,682.553,89.884,-39.297,-29.237
1.986,-45.543,-102.904,-70.814,-5.961,16.233,-141.013,134.516,-645.517,682.554,89.884,-39.296,-29.237
1.995,-45.543,-102.904,-70.814,-5.961,16.233,-141.012,134.514,-645.518,682.554,89.884,-39.296,-29.237
2.006,-45.543,-102.904,-70.814,-5.961,16.233,-141.012,134.513,-645.517,682.556,89.884,-39.296,-29.237
2.015,-45.543,-102.904,-70.814,-5.961,16.233,-141.012,134.516,-645.520,682.551,89.884,-39.296,-29.237
2.025,-45.543,-102.904,-70.814,-5.961,16.233,-141.012,134.518,-645.519,682.550,89.884,-39.296,-29.237
2.035,-45.543,-102.904,-70.814,-5.961,16.233,-141.012,134.519,-645.521,682.547,89.884,-39.296,-29.237
2.046,-45.543,-102.905,-70.814,-5.960,16.233,-141.012,134.522,-645.521,682.547,89.884,-39.296,-29.237
2.055,-45.543,-102.905,-70.814,-5.961,16.233,-141.012,134.523,-645.522,682.545,89.884,-39.295,-29.237
2.066,-45.543,-102.905,-70.815,-5.960,16.233,-141.012,134.523,-645.523,682.542,89.884,-39.295,-29.237
2.075,-45.543,-102.904,-70.814,-5.961,16.233,-141.012,134.517,-645.521,682.548,89.884,-39.295,-29.237
2.085,-45.543,-102.904,-70.814,-5.961,16.233,-141.012,134.515,-645.521,682.548,89.884,-39.296,-29.238
2.095,-45.544,-102.904,-70.814,-5.960,16.232,-141.012,134.508,-645.520,682.552,89.884,-39.297,-29.238
2.105,-45.544,-102.904,-70.814,-5.960,16.232,-141.012,134.503,-645.520,682.553,89.884,-39.297,-29.238
2.116,-45.545,-102.904,-70.814,-5.960,16.232,-141.012,134.494,-645.520,682.555,89.884,-39.297,-29.239
2.125,-45.546,-102.904,-70.814,-5.960,16.232,-141.012,134.478,-645.519,682.560,89.884,-39.297,-29.240
2.135,-45.547,-102.904,-70.814,-5.960,16.232,-141.012,134.466,-645.521,682.560,89.884,-39.297,-29.241
2.145,-45.549,-102.903,-70.814,-5.960,16.232,-141.012,134.441,-645.520,682.570,89.883,-39.298,-29.243
2.155,-45.550,-102.902,-70.813,-5.960,16.231,-141.012,134.415,-645.518,682.578,89.883,-39.299,-29.245
2.166,-45.552,-102.902,-70.813,-5.960,16.231,-141.012,134.397,-645.518,682.586,89.883,-39.300,-29.246
2.176,-45.555,-102.901,-70.812,-5.960,16.231,-141.013,134.351,-645.518,682.597,89.882,-39.301,-29.250
2.186,-45.559,-102.900,-70.812,-5.960,16.231,-141.013,134.296,-645.522,682.607,89.882,-39.302,-29.254
2.196,-45.562,-102.900,-70.812,-5.960,16.230,-141.013,134.265,-645.524,682.613,89.881,-39.302,-29.256
2.206,-45.565,-102.900,-70.811,-5.960,16.230,-141.013,134.217,-645.529,682.621,89.881,-39.303,-29.260
2.216,-45.572,-102.899,-70.811,-5.960,16.229,-141.013,134.131,-645.536,682.631,89.881,-39.304,-29.268
2.226,-45.580,-102.898,-70.811,-5.960,16.229,-141.013,134.046,-645.551,682.636,89.880,-39.305,-29.275
2.236,-45.605,-102.898,-70.811,-5.960,16.229,-141.012,133.761,-645.610,682.636,89.881,-39.305,-29.300
2.246,-45.642,-102.899,-70.810,-5.960,16.229,-141.012,133.345,-645.698,682.635,89.881,-39.306,-29.337
2.256,-45.666,-102.899,-70.811,-5.961,16.229,-141.012,133.075,-645.756,682.630,89.881,-39.304,-29.362
2.265,-45.731,-102.899,-70.811,-5.960,16.230,-141.012,132.343,-645.912,682.625,89.881,-39.304,-29.427
2.276,-45.812,-102.900,-70.811,-5.961,16.230,-141.011,131.437,-646.106,682.614,89.882,-39.304,-29.508
2.285,-45.856,-102.901,-70.811,-5.961,16.230,-141.009,130.946,-646.210,682.608,89.882,-39.305,-29.552
2.296,-45.950,-102.901,-70.812,-5.962,16.230,-141.004,129.896,-646.432,682.598,89.882,-39.308,-29.646
2.306,-46.053,-102.902,-70.812,-5.962,16.231,-141.004,128.743,-646.668,682.593,89.883,-39.308,-29.748
2.316,-46.109,-102.902,-70.812,-5.962,16.231,-141.004,128.112,-646.795,682.591,89.883,-39.308,-29.804
2.326,-46.236,-102.902,-70.812,-5.962,16.231,-141.004,126.675,-647.081,682.588,89.883,-39.307,-29.931
2.336,-46.367,-102.902,-70.811,-5.962,16.231,-141.004,125.197,-647.367,682.592,89.883,-39.308,-30.062
2.345,-46.435,-102.902,-70.812,-5.962,16.231,-141.004,124.434,-647.512,682.593,89.883,-39.308,-30.129
2.355,-46.580,-102.902,-70.811,-5.962,16.231,-141.004,122.786,-647.825,682.596,89.882,-39.309,-30.275
2.366,-46.747,-102.902,-70.811,-5.962,16.231,-141.004,120.907,-648.180,682.597,89.883,-39.308,-30.441
2.376,-46.837,-102.902,-70.811,-5.962,16.231,-141.004,119.886,-648.369,682.597,89.882,-39.309,-30.531
2.385,-47.029,-102.902,-70.811,-5.962,16.232,-141.003,117.707,-648.768,682.600,89.882,-39.309,-30.723
2.395,-47.237,-102.901,-70.811,-5.962,16.231,-141.004,115.354,-649.186,682.605,89.882,-39.309,-30.931
2.405,-47.344,-102.901,-70.810,-5.962,16.232,-141.004,114.137,-649.397,682.613,89.882,-39.310,-31.038
2.415,-47.573,-102.901,-70.811,-5.962,16.231,-141.004,111.540,-649.848,682.610,89.882,-39.310,-31.267
2.425,-47.821,-102.901,-70.811,-5.962,16.231,-141.003,108.725,-650.329,682.606,89.882,-39.310,-31.515
2.435,-47.970,-102.901,-70.810,-5.962,16.231,-141.003,107.030,-650.610,682.608,89.882,-39.310,-31.665
2.445,-48.204,-102.901,-70.811,-5.962,16.232,-141.003,104.375,-651.038,682.612,89.882,-39.311,-31.898
2.455,-48.469,-102.900,-70.810,-5.962,16.232,-141.003,101.362,-651.507,682.621,89.881,-39.312,-32.162
2.465,-48.603,-102.899,-70.810,-5.962,16.232,-141.003,99.834,-651.738,682.630,89.881,-39.313,-32.296
2.476,-48.871,-102.898,-70.810,-5.961,16.231,-141.003,96.775,-652.190,682.640,89.881,-39.314,-32.564
2.486,-49.152,-102.898,-70.810,-5.962,16.232,-141.003,93.576,-652.653,682.646,89.881,-39.314,-32.844
2.496,-49.326,-102.898,-70.810,-5.961,16.231,-141.003,91.589,-652.932,682.648,89.880,-39.315,-33.019
2.506,-49.595,-102.897,-70.810,-5.962,16.232,-141.003,88.522,-653.353,682.653,89.880,-39.315,-33.287
2.515,-49.900,-102.897,-70.810,-5.961,16.231,-141.003,85.033,-653.816,682.650,89.880,-39.315,-33.593
2.526,-50.055,-102.898,-70.810,-5.961,16.232,-141.003,83.271,-654.045,682.650,89.880,-39.315,-33.748
2.536,-50.375,-102.897,-70.809,-5.961,16.231,-141.002,79.617,-654.494,682.658,89.880,-39.317,-34.067
2.545,-50.734,-102.898,-70.810,-5.962,16.232,-141.002,75.523,-654.993,682.639,89.881,-39.314,-34.427
2.555,-50.877,-102.899,-70.810,-5.961,16.232,-141.002,73.892,-655.181,682.638,89.881,-39.314,-34.569
2.566,-51.214,-102.898,-70.809,-5.962,16.232,-141.002,70.029,-655.601,682.648,89.880,-39.316,-34.906
2.575,-51.559,-102.899,-70.810,-5.961,16.232,-141.002,66.082,-656.016,682.636,89.881,-39.315,-35.252
2.585,-51.729,-102.899,-70.810,-5.962,16.232,-141.002,64.145,-656.210,682.635,89.881,-39.315,-35.421
2.595,-52.078,-102.899,-70.809,-5.961,16.232,-141.002,60.144,-656.588,682.639,89.881,-39.315,-35.770
2.605,-52.442,-102.900,-70.810,-5.962,16.233,-141.002,55.977,-656.964,682.626,89.881,-39.314,-36.134
2.615,-52.623,-102.900,-70.810,-5.962,16.232,-141.002,53.900,-657.144,682.618,89.882,-39.313,-36.316
2.625,-52.988,-102.900,-70.811,-5.961,16.233,-141.002,49.724,-657.475,682.613,89.882,-39.312,-36.680
2.636,-53.352,-102.900,-70.810,-5.962,16.233,-141.002,45.531,-657.772,682.625,89.881,-39.314,-37.045
2.646,-53.537,-102.900,-70.810,-5.961,16.233,-141.002,43.411,-657.915,682.626,89.881,-39.314,-37.229
2.656,-53.918,-102.900,-70.811,-5.961,16.233,-141.002,39.042,-658.196,682.610,89.882,-39.312,-37.610
2.665,-54.298,-102.900,-70.810,-5.962,16.233,-141.002,34.679,-658.439,682.620,89.881,-39.313,-37.990
2.675,-54.488,-102.900,-70.810,-5.961,16.233,-141.002,32.485,-658.550,682.621,89.881,-39.314,-38.180
2.685,-54.868,-102.899,-70.810,-5.961,16.233,-141.001,28.112,-658.743,682.630,89.881,-39.315,-38.560
2.696,-55.252,-102.898,-70.810,-5.961,16.233,-141.001,23.696,-658.910,682.643,89.881,-39.316,-38.943
2.705,-55.475,-102.898,-70.810,-5.961,16.233,-141.001,21.130,-658.999,682.638,89.881,-39.316,-39.166
2.715,-55.828,-102.898,-70.809,-5.962,16.234,-141.001,17.073,-659.117,682.645,89.880,-39.316,-39.519
2.725,-56.215,-102.899,-70.811,-5.962,16.234,-141.001,12.621,-659.224,682.627,89.881,-39.314,-39.907
2.736,-56.405,-102.899,-70.811,-5.962,16.234,-141.001,10.439,-659.261,682.630,89.881,-39.314,-40.096
2.746,-56.791,-102.899,-70.810,-5.961,16.234,-141.001,5.997,-659.318,682.629,89.881,-39.315,-40.482
2.755,-57.168,-102.900,-70.811,-5.962,16.234,-141.001,1.661,-659.348,682.620,89.882,-39.314,-40.859
2.765,-57.360,-102.900,-70.811,-5.962,16.234,-141.001,-0.546,-659.351,682.621,89.882,-39.314,-41.051
2.776,-57.744,-102.900,-70.811,-5.962,16.234,-141.001,-4.962,-659.332,682.619,89.882,-39.314,-41.435
2.785,-58.122,-102.900,-70.810,-5.962,16.234,-141.001,-9.315,-659.287,682.621,89.881,-39.314,-41.813
2.795,-58.317,-102.900,-70.811,-5.962,16.234,-141.001,-11.560,-659.255,682.613,89.882,-39.312,-42.009
2.806,-58.699,-102.900,-70.810,-5.962,16.234,-141.002,-15.946,-659.164,682.617,89.882,-39.312,-42.390
2.816,-59.113,-102.900,-70.812,-5.962,16.235,-141.002,-20.707,-659.036,682.604,89.882,-39.311,-42.804
2.826,-59.271,-102.901,-70.812,-5.962,16.235,-141.002,-22.529,-658.978,682.603,89.882,-39.311,-42.962
2.836,-59.652,-102.901,-70.812,-5.963,16.236,-141.002,-26.898,-658.823,682.597,89.883,-39.309,-43.342
2.845,-60.036,-102.902,-70.812,-5.962,16.236,-141.002,-31.316,-658.633,682.589,89.883,-39.309,-43.726
2.856,-60.225,-102.902,-70.811,-5.963,16.236,-141.002,-33.479,-658.525,682.596,89.883,-39.310,-43.914
2.866,-60.603,-102.901,-70.812,-5.962,16.237,-141.002,-37.831,-658.286,682.601,89.883,-39.310,-44.292
2.876,-60.972,-102.899,-70.810,-5.962,16.237,-141.002,-42.078,-658.012,682.633,89.881,-39.313,-44.660
2.886,-61.161,-102.899,-70.810,-5.963,16.238,-141.002,-44.248,-657.870,682.636,89.881,-39.313,-44.848
2.895,-61.542,-102.899,-70.810,-5.962,16.238,-141.002,-48.618,-657.558,682.637,89.881,-39.314,-45.229
2.905,-61.915,-102.899,-70.810,-5.963,16.238,-141.002,-52.896,-657.231,682.636,89.881,-39.313,-45.602
2.915,-62.103,-102.899,-70.811,-5.963,16.238,-141.002,-55.056,-657.054,682.631,89.881,-39.313,-45.790
2.925,-62.471,-102.899,-70.810,-5.963,16.238,-141.002,-59.277,-656.688,682.634,89.881,-39.313,-46.158
2.935,-62.843,-102.899,-70.811,-5.963,16.239,-141.002,-63.529,-656.295,682.623,89.882,-39.312,-46.529
2.945,-63.029,-102.899,-70.810,-5.963,16.238,-141.002,-65.660,-656.084,682.627,89.882,-39.313,-46.715
2.955,-63.427,-102.898,-70.810,-5.963,16.239,-141.001,-70.226,-655.606,682.638,89.881,-39.314,-47.113
2.968,-63.765,-102.898,-70.810,-5.962,16.239,-141.002,-74.088,-655.180,682.641,89.881,-39.315,-47.451
2.979,-64.162,-102.898,-70.809,-5.963,16.240,-141.002,-78.630,-654.644,682.654,89.881,-39.316,-47.847
2.988,-64.505,-102.898,-70.809,-5.962,16.239,-141.002,-82.543,-654.161,682.650,89.880,-39.316,-48.190
2.998,-64.688,-102.898,-70.809,-5.963,16.239,-141.002,-84.630,-653.900,682.650,89.881,-39.316,-48.373
3.008,-65.063,-102.898,-70.811,-5.963,16.240,-141.002,-88.906,-653.338,682.632,89.881,-39.313,-48.748
3.018,-65.431,-102.899,-70.810,-5.963,16.240,-141.002,-93.099,-652.761,682.629,89.882,-39.313,-49.116
3.028,-65.616,-102.900,-70.811,-5.963,16.241,-141.002,-95.198,-652.467,682.619,89.882,-39.311,-49.300
3.039,-65.990,-102.900,-70.811,-5.964,16.242,-141.002,-99.449,-651.840,682.611,89.883,-39.310,-49.674
3.048,-66.347,-102.900,-70.810,-5.964,16.243,-141.002,-103.513,-651.207,682.620,89.882,-39.311,-50.030
3.058,-66.558,-102.900,-70.810,-5.964,16.244,-141.002,-105.900,-650.826,682.619,89.882,-39.311,-50.239
3.068,-66.880,-102.899,-70.810,-5.964,16.247,-141.002,-109.550,-650.224,682.631,89.882,-39.312,-50.558
3.078,-67.230,-102.900,-70.810,-5.964,16.247,-141.002,-113.526,-649.544,682.625,89.882,-39.311,-50.909
3.089,-67.407,-102.900,-70.811,-5.964,16.246,-141.002,-115.527,-649.194,682.617,89.882,-39.311,-51.086
3.099,-67.746,-102.900,-70.810,-5.964,16.247,-141.002,-119.361,-648.504,682.618,89.882,-39.311,-51.424
3.109,-68.080,-102.901,-70.812,-5.964,16.247,-141.002,-123.135,-647.809,682.595,89.883,-39.308,-51.759
3.118,-68.273,-102.901,-70.812,-5.964,16.248,-141.002,-125.315,-647.395,682.595,89.883,-39.308,-51.951
3.128,-68.570,-102.902,-70.812,-5.964,16.248,-141.002,-128.674,-646.739,682.587,89.884,-39.307,-52.249
3.138,-68.901,-102.902,-70.812,-5.965,16.250,-141.002,-132.395,-645.995,682.587,89.884,-39.307,-52.578
3.148,-69.060,-102.902,-70.812,-5.965,16.250,-141.002,-134.196,-645.622,682.592,89.884,-39.307,-52.737
3.159,-69.368,-102.901,-70.812,-5.965,16.252,-141.002,-137.655,-644.896,682.596,89.883,-39.308,-53.042
3.169,-69.673,-102.901,-70.811,-5.965,16.252,-141.002,-141.093,-644.151,682.602,89.883,-39.308,-53.348
3.178,-69.821,-102.901,-70.810,-5.965,16.252,-141.002,-142.755,-643.782,682.608,89.883,-39.309,-53.495
3.188,-70.116,-102.902,-70.812,-5.965,16.252,-141.002,-146.057,-643.050,682.591,89.884,-39.307,-53.790
3.199,-70.418,-102.902,-70.812,-5.965,16.253,-141.002,-149.441,-642.279,682.586,89.884,-39.307,-54.091
3.208,-70.559,-102.902,-70.812,-5.965,16.253,-141.002,-151.027,-641.907,682.584,89.884,-39.306,-54.233
3.219,-70.834,-102.902,-70.812,-5.965,16.253,-141.002,-154.104,-641.173,682.585,89.884,-39.307,-54.508
3.229,-71.112,-102.902,-70.812,-5.965,16.253,-141.002,-157.215,-640.416,682.593,89.884,-39.307,-54.785
3.238,-71.246,-102.901,-70.812,-5.965,16.253,-141.002,-158.716,-640.044,682.591,89.884,-39.307,-54.920
3.248,-71.508,-102.901,-70.812,-5.965,16.253,-141.002,-161.640,-639.308,682.595,89.883,-39.307,-55.181
3.258,-71.774,-102.901,-70.812,-5.965,16.255,-141.002,-164.601,-638.556,682.600,89.883,-39.307,-55.446
3.269,-71.901,-102.900,-70.812,-5.965,16.255,-141.002,-166.020,-638.187,682.603,89.883,-39.308,-55.572
3.278,-72.141,-102.900,-70.811,-5.965,16.256,-141.002,-168.688,-637.482,682.617,89.883,-39.310,-55.811
3.289,-72.382,-102.899,-70.812,-5.965,16.257,-141.002,-171.366,-636.768,682.616,89.883,-39.309,-56.051
3.299,-72.501,-102.899,-70.812,-5.965,16.259,-141.002,-172.688,-636.418,682.613,89.883,-39.309,-56.169
3.309,-72.738,-102.899,-70.812,-5.965,16.260,-141.002,-175.316,-635.701,682.616,89.883,-39.309,-56.404
3.318,-72.963,-102.899,-70.812,-5.965,16.262,-141.002,-177.807,-635.015,682.614,89.883,-39.309,-56.628
3.329,-73.079,-102.899,-70.811,-5.965,16.263,-141.002,-179.083,-634.659,682.618,89.883,-39.309,-56.742
3.339,-73.311,-102.899,-70.811,-5.965,16.268,-141.002,-181.648,-633.943,682.623,89.882,-39.309,-56.969
3.349,-73.534,-102.899,-70.812,-5.965,16.271,-141.002,-184.100,-633.247,682.619,89.883,-39.309,-57.189
3.359,-73.641,-102.899,-70.811,-5.965,16.273,-141.002,-185.284,-632.908,682.619,89.883,-39.309,-57.294
3.369,-73.859,-102.900,-70.812,-5.966,16.278,-141.002,-187.675,-632.228,682.608,89.883,-39.307,-57.507
3.379,-74.071,-102.901,-70.812,-5.967,16.284,-141.002,-189.991,-631.566,682.595,89.884,-39.306,-57.713
3.389,-74.173,-102.901,-70.813,-5.967,16.288,-141.002,-191.104,-631.245,682.586,89.884,-39.305,-57.812
3.399,-74.361,-102.901,-70.813,-5.967,16.297,-141.002,-193.154,-630.652,682.584,89.884,-39.304,-57.991
3.408,-74.547,-102.902,-70.813,-5.968,16.309,-141.002,-195.177,-630.072,682.577,89.885,-39.302,-58.166
3.418,-74.643,-102.902,-70.813,-5.969,16.316,-141.001,-196.212,-629.776,682.577,89.885,-39.303,-58.254
3.429,-74.836,-102.902,-70.814,-5.970,16.333,-141.002,-198.287,-629.190,682.563,89.886,-39.300,-58.431
3.439,-75.013,-102.902,-70.813,-5.971,16.351,-141.001,-200.187,-628.642,682.571,89.886,-39.300,-58.590
3.449,-75.096,-102.902,-70.813,-5.972,16.360,-141.001,-201.078,-628.388,682.572,89.886,-39.299,-58.663
3.459,-75.260,-102.902,-70.813,-5.972,16.382,-141.002,-202.828,-627.895,682.574,89.886,-39.298,-58.806
3.468,-75.420,-102.901,-70.812,-5.973,16.406,-141.002,-204.527,-627.414,682.585,89.886,-39.299,-58.942
3.479,-75.495,-102.900,-70.812,-5.974,16.419,-141.002,-205.325,-627.192,682.592,89.885,-39.299,-59.004
3.489,-75.637,-102.900,-70.812,-5.976,16.455,-141.002,-206.792,-626.821,682.600,89.886,-39.298,-59.110
3.499,-75.758,-102.898,-70.812,-5.976,16.516,-141.001,-207.983,-626.613,682.620,89.884,-39.300,-59.169
3.509,-75.813,-102.897,-70.812,-5.976,16.563,-141.002,-208.486,-626.587,682.632,89.884,-39.301,-59.177
3.519,-75.920,-102.895,-70.811,-5.976,16.700,-141.002,-209.342,-626.726,682.665,89.882,-39.304,-59.144
3.529,-76.025,-102.891,-70.811,-5.977,16.888,-141.001,-210.078,-627.054,682.707,89.879,-39.307,-59.061
3.539,-76.075,-102.889,-70.810,-5.977,16.993,-141.001,-210.389,-627.273,682.730,89.878,-39.308,-59.004
3.549,-76.164,-102.884,-70.810,-5.978,17.235,-141.002,-210.826,-627.864,682.788,89.874,-39.312,-58.849
3.559,-76.244,-102.878,-70.810,-5.978,17.518,-141.001,-211.071,-628.640,682.850,89.870,-39.317,-58.644
3.569,-76.282,-102.875,-70.810,-5.978,17.675,-141.001,-211.126,-629.098,682.885,89.868,-39.320,-58.523
3.579,-76.348,-102.868,-70.810,-5.979,18.023,-141.001,-211.058,-630.177,682.958,89.863,-39.325,-58.237
3.589,-76.403,-102.862,-70.810,-5.979,18.404,-141.001,-210.797,-631.419,683.030,89.857,-39.330,-57.910
3.599,-76.428,-102.858,-70.810,-5.979,18.607,-141.001,-210.600,-632.094,683.074,89.854,-39.333,-57.729
3.609,-76.470,-102.850,-70.810,-5.980,19.032,-141.001,-210.073,-633.534,683.168,89.848,-39.340,-57.342
3.619,-76.498,-102.847,-70.809,-5.982,19.483,-141.002,-209.305,-635.166,683.218,89.843,-39.340,-56.916
3.629,-76.513,-102.847,-70.809,-5.982,19.726,-141.001,-208.882,-636.060,683.221,89.842,-39.339,-56.687
3.639,-76.555,-102.848,-70.809,-5.983,20.227,-141.001,-208.120,-637.871,683.213,89.840,-39.335,-56.227
3.649,-76.609,-102.851,-70.810,-5.984,20.756,-141.001,-207.410,-639.741,683.201,89.837,-39.331,-55.751
3.659,-76.646,-102.853,-70.811,-5.986,21.080,-141.001,-207.062,-640.716,683.180,89.837,-39.326,-55.505
3.669,-76.702,-102.855,-70.812,-5.987,21.611,-141.001,-206.281,-642.742,683.150,89.836,-39.320,-54.988
3.678,-76.756,-102.857,-70.812,-5.987,22.219,-141.001,-205.325,-644.881,683.143,89.832,-39.316,-54.432
3.688,-76.780,-102.858,-70.813,-5.987,22.529,-141.001,-204.787,-645.981,683.139,89.831,-39.314,-54.144
3.699,-76.820,-102.862,-70.813,-5.987,23.174,-141.001,-203.535,-648.303,683.118,89.828,-39.309,-53.537
3.708,-76.842,-102.865,-70.813,-5.987,23.845,-141.002,-201.993,-650.764,683.106,89.825,-39.305,-52.886
3.718,-76.846,-102.865,-70.812,-5.988,24.188,-141.001,-201.121,-652.018,683.119,89.822,-39.304,-52.547
3.729,-76.845,-102.865,-70.812,-5.988,24.885,-141.002,-199.208,-654.598,683.137,89.818,-39.302,-51.845
3.739,-76.846,-102.864,-70.812,-5.989,25.618,-141.002,-197.180,-657.274,683.160,89.813,-39.300,-51.109
3.749,-76.847,-102.863,-70.812,-5.989,25.992,-141.001,-196.146,-658.621,683.176,89.810,-39.300,-50.735
3.758,-76.849,-102.863,-70.812,-5.989,26.757,-141.001,-193.998,-661.370,683.193,89.805,-39.298,-49.970
3.769,-76.853,-102.864,-70.813,-5.990,27.617,-141.001,-191.541,-664.435,683.200,89.800,-39.294,-49.109
3.779,-76.855,-102.864,-70.813,-5.990,27.945,-141.001,-190.613,-665.582,683.207,89.799,-39.293,-48.784
3.789,-76.864,-102.865,-70.813,-5.990,28.775,-141.001,-188.245,-668.469,683.217,89.794,-39.290,-47.959
3.798,-76.878,-102.864,-70.813,-5.991,29.619,-141.001,-185.867,-671.338,683.243,89.788,-39.288,-47.126
3.808,-76.886,-102.864,-70.812,-5.991,30.045,-141.001,-184.663,-672.770,683.259,89.785,-39.287,-46.705
3.819,-76.908,-102.864,-70.812,-5.991,30.916,-141.001,-182.217,-675.654,683.287,89.779,-39.285,-45.852
3.829,-76.935,-102.864,-70.812,-5.990,31.799,-141.001,-179.764,-678.527,683.302,89.773,-39.282,-44.992
3.839,-76.947,-102.865,-70.812,-5.990,32.247,-141.001,-178.483,-679.975,683.304,89.771,-39.280,-44.556
3.849,-76.972,-102.865,-70.813,-5.991,33.167,-141.001,-175.816,-682.920,683.311,89.766,-39.275,-43.658
3.858,-77.007,-102.867,-70.813,-5.991,34.105,-141.001,-173.167,-685.848,683.317,89.761,-39.272,-42.752
3.869,-77.023,-102.867,-70.813,-5.991,34.581,-141.001,-171.779,-687.320,683.324,89.759,-39.270,-42.289
3.878,-77.056,-102.867,-70.813,-5.992,35.538,-141.001,-168.975,-690.233,683.340,89.754,-39.265,-41.363
3.889,-77.090,-102.867,-70.812,-5.992,36.519,-141.000,-166.054,-693.162,683.368,89.747,-39.263,-40.411
3.899,-77.109,-102.867,-70.813,-5.992,36.998,-141.001,-164.639,-694.567,683.375,89.745,-39.261,-39.950
3.909,-77.147,-102.868,-70.813,-5.992,37.992,-141.001,-161.652,-697.449,683.388,89.740,-39.257,-38.992
3.919,-77.186,-102.868,-70.813,-5.991,38.987,-141.001,-158.617,-700.275,683.408,89.733,-39.254,-38.031
3.929,-77.202,-102.868,-70.813,-5.991,39.492,-141.001,-157.018,-701.693,683.420,89.730,-39.252,-37.540
3.939,-77.239,-102.868,-70.812,-5.991,40.495,-141.001,-153.865,-704.456,683.447,89.724,-39.249,-36.570
3.949,-77.282,-102.868,-70.812,-5.992,41.497,-141.002,-150.742,-707.145,683.464,89.719,-39.244,-35.607
3.959,-77.307,-102.868,-70.812,-5.991,42.004,-141.002,-149.186,-708.474,683.472,89.716,-39.242,-35.124
3.969,-77.366,-102.869,-70.813,-5.990,43.022,-141.001,-146.133,-711.077,683.488,89.711,-39.239,-34.161
3.979,-77.426,-102.869,-70.813,-5.991,44.047,-141.002,-143.038,-713.635,683.497,89.706,-39.233,-33.194
3.989,-77.456,-102.869,-70.813,-5.991,44.559,-141.002,-141.463,-714.886,683.515,89.703,-39.232,-32.709
3.999,-77.515,-102.868,-70.812,-5.991,45.597,-141.002,-138.240,-717.373,683.543,89.697,-39.227,-31.727
4.008,-77.569,-102.867,-70.812,-5.990,46.624,-141.002,-134.953,-719.782,683.576,89.690,-39.224,-30.750
4.018,-77.595,-102.867,-70.812,-5.990,47.144,-141.002,-133.247,-720.979,683.595,89.687,-39.223,-30.253
4.029,-77.646,-102.867,-70.811,-5.990,48.174,-141.002,-129.849,-723.307,683.623,89.681,-39.219,-29.270
4.039,-77.695,-102.866,-70.811,-5.990,49.211,-141.002,-126.356,-725.585,683.655,89.674,-39.216,-28.278
4.048,-77.722,-102.865,-70.811,-5.990,49.724,-141.002,-124.643,-726.682,683.668,89.671,-39.214,-27.790
4.059,-77.775,-102.865,-70.811,-5.990,50.755,-141.002,-121.170,-728.841,683.693,89.666,-39.210,-26.809
4.068,-77.830,-102.865,-70.811,-5.989,51.775,-141.002,-117.725,-730.910,683.710,89.661,-39.205,-25.841
4.079,-77.858,-102.865,-70.811,-5.990,52.287,-141.002,-115.990,-731.923,683.714,89.659,-39.202,-25.356
4.089,-77.916,-102.866,-70.811,-5.989,53.292,-141.002,-112.595,-733.858,683.726,89.654,-39.198,-24.406
4.099,-77.965,-102.866,-70.811,-5.989,54.291,-141.002,-109.076,-735.728,683.746,89.649,-39.193,-23.453
4.109,-77.988,-102.866,-70.811,-5.989,54.777,-141.002,-107.346,-736.617,683.754,89.647,-39.191,-22.988
4.118,-78.034,-102.866,-70.811,-5.989,55.734,-141.002,-103.928,-738.319,683.768,89.643,-39.186,-22.075
4.128,-78.086,-102.867,-70.811,-5.988,56.678,-141.002,-100.610,-739.932,683.773,89.640,-39.181,-21.181
4.138,-78.113,-102.867,-70.811,-5.988,57.144,-141.002,-98.979,-740.708,683.773,89.639,-39.178,-20.741
4.149,-78.161,-102.868,-70.812,-5.989,58.069,-141.002,-95.659,-742.210,683.767,89.637,-39.173,-19.864
4.158,-78.204,-102.869,-70.812,-5.988,58.960,-141.002,-92.387,-743.608,683.768,89.634,-39.168,-19.013
4.168,-78.222,-102.869,-70.812,-5.988,59.401,-141.002,-90.726,-744.283,683.769,89.633,-39.166,-18.590
4.179,-78.254,-102.870,-70.812,-5.988,60.323,-141.002,-87.429,-745.551,683.782,89.629,-39.162,-17.765
4.189,-78.270,-102.869,-70.812,-5.988,61.093,-141.002,-84.006,-746.769,683.794,89.627,-39.157,-16.941
4.198,-78.274,-102.869,-70.812,-5.987,61.506,-141.001,-82.267,-747.350,683.808,89.624,-39.156,-16.531
4.209,-78.282,-102.869,-70.812,-5.987,62.301,-141.002,-78.885,-748.441,683.823,89.620,-39.152,-15.742
4.218,-78.290,-102.869,-70.812,-5.987,63.078,-141.001,-75.576,-749.461,683.837,89.617,-39.149,-14.971
4.228,-78.293,-102.869,-70.812,-5.987,63.455,-141.002,-73.961,-749.943,683.837,89.616,-39.146,-14.597
4.239,-78.301,-102.869,-70.812,-5.987,64.176,-141.002,-70.874,-750.831,683.843,89.614,-39.142,-13.882
4.249,-78.311,-102.869,-70.812,-5.987,64.880,-141.002,-67.890,-751.657,683.846,89.613,-39.138,-13.188
4.258,-78.318,-102.869,-70.813,-5.987,65.219,-141.002,-66.472,-752.042,683.843,89.612,-39.137,-12.855
4.268,-78.333,-102.870,-70.813,-5.987,65.866,-141.002,-63.785,-752.747,683.848,89.610,-39.133,-12.222
4.278,-78.338,-102.870,-70.813,-5.987,66.485,-141.002,-61.076,-753.401,683.855,89.608,-39.129,-11.606
4.288,-78.337,-102.870,-70.813,-5.986,66.780,-141.002,-59.740,-753.705,683.859,89.607,-39.128,-11.309
4.299,-78.337,-102.870,-70.813,-5.986,67.349,-141.002,-57.195,-754.276,683.856,89.607,-39.124,-10.740
4.308,-78.336,-102.871,-70.813,-5.986,67.886,-141.002,-54.767,-754.798,683.843,89.607,-39.121,-10.202
4.318,-78.335,-102.872,-70.814,-5.986,68.142,-141.002,-53.603,-755.043,683.832,89.608,-39.119,-9.946
4.329,-78.335,-102.874,-70.815,-5.986,68.630,-141.002,-51.400,-755.499,683.799,89.610,-39.116,-9.459
4.339,-78.335,-102.877,-70.815,-5.986,69.080,-141.002,-49.368,-755.909,683.762,89.613,-39.112,-9.011
4.349,-78.336,-102.879,-70.816,-5.986,69.285,-141.002,-48.446,-756.096,683.736,89.615,-39.110,-8.808
4.358,-78.339,-102.885,-70.816,-5.986,69.686,-141.002,-46.663,-756.475,683.653,89.622,-39.106,-8.415
4.368,-78.340,-102.891,-70.818,-5.986,70.056,-141.002,-44.987,-756.822,683.560,89.631,-39.101,-8.051
4.379,-78.341,-102.893,-70.818,-5.987,70.232,-141.002,-44.201,-756.976,683.527,89.634,-39.099,-7.879
4.389,-78.345,-102.899,-70.819,-5.987,70.561,-141.002,-42.745,-757.270,683.446,89.641,-39.096,-7.557
4.399,-78.351,-102.907,-70.820,-5.986,70.858,-141.002,-41.466,-757.550,683.343,89.651,-39.092,-7.273
4.408,-78.356,-102.911,-70.820,-5.987,70.992,-141.002,-40.915,-757.681,683.282,89.657,-39.089,-7.148
4.418,-78.377,-102.919,-70.822,-5.987,71.243,-141.002,-40.042,-757.910,683.166,89.668,-39.085,-6.925
4.428,-78.410,-102.928,-70.825,-5.987,71.466,-141.002,-39.442,-758.126,683.018,89.682,-39.081,-6.743
4.438,-78.427,-102.934,-70.826,-5.987,71.569,-141.002,-39.190,-758.243,682.920,89.692,-39.077,-6.664
4.448,-78.459,-102.950,-70.830,-5.987,71.756,-141.002,-38.725,-758.489,682.689,89.714,-39.071,-6.522
4.459,-78.487,-102.970,-70.831,-5.987,71.915,-141.002,-38.341,-758.766,682.413,89.740,-39.064,-6.408
4.468,-78.496,-102.980,-70.832,-5.987,71.993,-141.002,-38.089,-758.896,682.284,89.752,-39.060,-6.347
4.479,-78.504,-102.997,-70.835,-5.986,72.148,-141.002,-37.452,-759.150,682.028,89.777,-39.053,-6.216
4.488,-78.501,-103.016,-70.837,-5.987,72.251,-141.002,-36.901,-759.396,681.764,89.803,-39.047,-6.125
4.498,-78.500,-103.029,-70.837,-5.986,72.303,-141.002,-36.628,-759.548,681.595,89.818,-39.043,-6.083
4.508,-78.498,-103.050,-70.838,-5.985,72.410,-141.002,-36.078,-759.814,681.307,89.846,-39.036,-5.991
4.518,-78.499,-103.064,-70.843,-5.985,72.512,-141.002,-35.593,-760.005,681.086,89.867,-39.030,-5.902
4.529,-78.499,-103.072,-70.847,-5.985,72.555,-141.002,-35.389,-760.112,680.941,89.881,-39.027,-5.870
4.539,-78.503,-103.090,-70.859,-5.985,72.609,-141.002,-35.150,-760.336,680.573,89.918,-39.018,-5.842
4.549,-78.505,-103.103,-70.883,-5.984,72.628,-141.002,-35.053,-760.516,680.132,89.964,-39.007,-5.854
4.559,-78.505,-103.106,-70.903,-5.984,72.629,-141.002,-35.038,-760.583,679.877,89.991,-39.000,-5.870
4.569,-78.503,-103.112,-70.936,-5.985,72.629,-141.002,-34.996,-760.712,679.427,90.040,-38.988,-5.900
4.578,-78.504,-103.117,-70.979,-5.983,72.628,-141.003,-34.973,-760.854,678.879,90.098,-38.974,-5.937
4.589,-78.504,-103.121,-71.000,-5.984,72.628,-141.002,-34.962,-760.928,678.602,90.128,-38.967,-5.956
4.598,-78.504,-103.134,-71.039,-5.984,72.628,-141.002,-34.928,-761.132,677.994,90.192,-38.951,-5.997
4.609,-78.506,-103.147,-71.083,-5.983,72.627,-141.002,-34.903,-761.341,677.334,90.261,-38.934,-6.043
4.618,-78.506,-103.155,-71.105,-5.983,72.627,-141.002,-34.885,-761.464,676.984,90.298,-38.925,-6.066
4.629,-78.507,-103.170,-71.151,-5.984,72.627,-141.003,-34.856,-761.700,676.263,90.374,-38.906,-6.116
4.639,-78.506,-103.188,-71.195,-5.984,72.626,-141.003,-34.796,-761.951,675.545,90.449,-38.887,-6.163
4.648,-78.506,-103.195,-71.222,-5.983,72.625,-141.002,-34.767,-762.075,675.150,90.491,-38.877,-6.189
4.659,-78.505,-103.208,-71.272,-5.984,72.625,-141.002,-34.715,-762.300,674.420,90.568,-38.858,-6.238
4.668,-78.506,-103.218,-71.336,-5.982,72.625,-141.002,-34.672,-762.521,673.572,90.658,-38.836,-6.294
4.679,-78.505,-103.225,-71.367,-5.982,72.625,-141.002,-34.640,-762.642,673.147,90.703,-38.825,-6.321
4.689,-78.505,-103.240,-71.438,-5.982,72.625,-141.002,-34.587,-762.921,672.158,90.808,-38.798,-6.387
4.698,-78.505,-103.256,-71.522,-5.982,72.626,-141.002,-34.514,-763.235,671.005,90.930,-38.767,-6.463
4.708,-78.504,-103.265,-71.568,-5.982,72.626,-141.002,-34.474,-763.408,670.376,90.996,-38.750,-6.504
4.719,-78.504,-103.279,-71.669,-5.982,72.627,-141.002,-34.399,-763.737,669.057,91.137,-38.715,-6.591
4.729,-78.504,-103.287,-71.791,-5.982,72.627,-141.002,-34.329,-764.047,667.580,91.296,-38.674,-6.689
4.738,-78.504,-103.290,-71.857,-5.982,72.627,-141.002,-34.296,-764.208,666.796,91.380,-38.653,-6.742
4.748,-78.505,-103.300,-72.007,-5.981,72.628,-141.002,-34.229,-764.578,664.990,91.573,-38.603,-6.862
4.759,-78.505,-103.310,-72.184,-5.981,72.628,-141.002,-34.143,-765.001,662.870,91.799,-38.544,-7.004
4.769,-78.505,-103.315,-72.281,-5.980,72.628,-141.002,-34.104,-765.228,661.704,91.923,-38.511,-7.081
4.779,-78.505,-103.327,-72.477,-5.982,72.628,-141.002,-34.008,-765.689,659.345,92.176,-38.444,-7.238
4.788,-78.506,-103.342,-72.677,-5.981,72.628,-141.002,-33.918,-766.178,656.900,92.434,-38.376,-7.400
4.799,-78.506,-103.353,-72.774,-5.981,72.628,-141.002,-33.861,-766.449,655.659,92.565,-38.340,-7.481
4.809,-78.506,-103.389,-72.974,-5.980,72.628,-141.002,-33.731,-767.101,652.947,92.848,-38.264,-7.656
4.819,-78.505,-103.427,-73.189,-5.978,72.628,-141.002,-33.579,-767.795,650.025,93.150,-38.181,-7.843
4.829,-78.505,-103.443,-73.306,-5.978,72.628,-141.002,-33.510,-768.126,648.494,93.310,-38.137,-7.941
4.839,-78.503,-103.467,-73.555,-5.978,72.629,-141.002,-33.358,-768.735,645.365,93.637,-38.046,-8.140
4.849,-78.503,-103.477,-73.830,-5.979,72.630,-141.002,-33.248,-769.243,642.126,93.978,-37.949,-8.349
4.859,-78.502,-103.480,-73.971,-5.979,72.630,-141.001,-33.195,-769.480,640.493,94.150,-37.901,-8.454
4.869,-78.502,-103.488,-74.248,-5.979,72.630,-141.002,-33.096,-769.947,637.264,94.487,-37.803,-8.661
4.879,-78.501,-103.501,-74.525,-5.978,72.630,-141.001,-32.975,-770.446,633.951,94.832,-37.703,-8.870
4.888,-78.500,-103.506,-74.669,-5.977,72.630,-141.002,-32.911,-770.683,632.267,95.006,-37.651,-8.975
4.898,-78.496,-103.508,-74.974,-5.978,72.632,-141.002,-32.775,-771.109,628.765,95.371,-37.543,-9.194
4.908,-78.493,-103.509,-75.299,-5.978,72.632,-141.002,-32.636,-771.526,625.073,95.755,-37.427,-9.422
4.918,-78.493,-103.509,-75.464,-5.978,72.633,-141.002,-32.590,-771.726,623.199,95.949,-37.368,-9.539
4.928,-78.493,-103.515,-75.784,-5.979,72.634,-141.002,-32.507,-772.145,619.479,96.333,-37.250,-9.772
4.938,-78.494,-103.519,-76.104,-5.979,72.636,-141.002,-32.433,-772.527,615.801,96.710,-37.132,-9.999
4.949,-78.493,-103.520,-76.268,-5.978,72.637,-141.002,-32.378,-772.706,613.924,96.902,-37.072,-10.112
4.959,-78.492,-103.521,-76.612,-5.979,72.641,-141.002,-32.276,-773.064,609.993,97.305,-36.944,-10.350
4.968,-78.490,-103.521,-76.971,-5.978,72.647,-141.001,-32.155,-773.401,605.909,97.721,-36.811,-10.592
4.979,-78.489,-103.522,-77.144,-5.979,72.651,-141.001,-32.092,-773.564,603.925,97.923,-36.745,-10.708
4.989,-78.487,-103.528,-77.485,-5.979,72.663,-141.001,-31.936,-773.901,599.960,98.324,-36.615,-10.933
4.999,-78.484,-103.532,-77.841,-5.979,72.686,-141.002,-31.736,-774.211,595.855,98.739,-36.479,-11.154
5.010,-78.484,-103.532,-78.025,-5.978,72.703,-141.002,-31.624,-774.354,593.755,98.950,-36.410,-11.263
5.019,-78.484,-103.531,-78.403,-5.978,72.752,-141.001,-31.356,-774.616,589.453,99.384,-36.270,-11.472
5.029,-78.483,-103.533,-78.765,-5.979,72.826,-141.002,-30.965,-774.883,585.274,99.806,-36.136,-11.647
5.038,-78.483,-103.535,-78.939,-5.979,72.870,-141.001,-30.736,-775.011,583.260,100.008,-36.073,-11.722
5.048,-78.482,-103.540,-79.302,-5.980,72.957,-141.002,-30.289,-775.266,579.024,100.434,-35.939,-11.886
5.059,-78.482,-103.548,-79.686,-5.980,73.019,-141.001,-29.963,-775.512,574.521,100.882,-35.792,-12.087
5.069,-78.482,-103.552,-79.882,-5.979,73.038,-141.001,-29.857,-775.615,572.235,101.109,-35.715,-12.200
5.078,-78.482,-103.557,-80.258,-5.981,73.059,-141.001,-29.731,-775.773,567.846,101.542,-35.563,-12.433
5.088,-78.481,-103.562,-80.631,-5.981,73.060,-141.002,-29.699,-775.880,563.535,101.965,-35.409,-12.677
5.099,-78.481,-103.564,-80.852,-5.981,73.060,-141.001,-29.683,-775.928,560.982,102.215,-35.317,-12.821
5.110,-78.481,-103.567,-81.216,-5.981,73.060,-141.002,-29.674,-775.987,556.775,102.624,-35.165,-13.057
5.118,-78.482,-103.570,-81.617,-5.982,73.060,-141.002,-29.675,-776.009,552.162,103.072,-34.996,-13.315
5.129,-78.481,-103.572,-81.808,-5.982,73.060,-141.001,-29.665,-776.016,549.951,103.287,-34.915,-13.437
5.139,-78.481,-103.575,-82.195,-5.982,73.060,-141.002,-29.675,-776.000,545.482,103.717,-34.749,-13.684
5.149,-78.481,-103.579,-82.599,-5.982,73.059,-141.002,-29.677,-775.955,540.823,104.165,-34.575,-13.938
5.159,-78.481,-103.580,-82.804,-5.982,73.059,-141.002,-29.682,-775.911,538.463,104.391,-34.486,-14.066
5.169,-78.482,-103.581,-83.206,-5.983,73.059,-141.002,-29.722,-775.803,533.841,104.833,-34.310,-14.317
5.179,-78.482,-103.584,-83.597,-5.982,73.059,-141.002,-29.755,-775.673,529.349,105.260,-34.138,-14.558
5.189,-78.482,-103.585,-83.798,-5.983,73.058,-141.002,-29.775,-775.591,527.046,105.479,-34.049,-14.681
5.199,-78.482,-103.588,-84.206,-5.983,73.059,-141.002,-29.806,-775.410,522.342,105.924,-33.866,-14.929
5.209,-78.483,-103.591,-84.615,-5.984,73.058,-141.002,-29.864,-775.194,517.639,106.367,-33.682,-15.177
5.220,-78.482,-103.594,-84.808,-5.984,73.059,-141.002,-29.873,-775.094,515.388,106.579,-33.593,-15.293
5.229,-78.483,-103.599,-85.202,-5.983,73.059,-141.002,-29.935,-774.849,510.842,107.004,-33.413,-15.528
5.239,-78.483,-103.602,-85.604,-5.983,73.058,-141.002,-29.995,-774.562,506.215,107.435,-33.228,-15.766
5.248,-78.484,-103.604,-85.808,-5.983,73.058,-141.002,-30.036,-774.405,503.863,107.654,-33.133,-15.886
5.259,-78.484,-103.613,-86.200,-5.984,73.057,-141.002,-30.105,-774.110,499.278,108.079,-32.947,-16.119
5.269,-78.484,-103.620,-86.574,-5.983,73.057,-141.002,-30.171,-773.790,494.943,108.479,-32.771,-16.336
5.279,-78.484,-103.621,-86.763,-5.984,73.057,-141.002,-30.214,-773.602,492.769,108.679,-32.681,-16.445
5.289,-78.484,-103.624,-87.152,-5.984,73.057,-141.002,-30.287,-773.201,488.309,109.090,-32.497,-16.666
5.298,-78.485,-103.624,-87.545,-5.985,73.056,-141.002,-30.397,-772.750,483.834,109.501,-32.310,-16.887
5.309,-78.484,-103.625,-87.728,-5.985,73.056,-141.002,-30.431,-772.536,481.732,109.693,-32.222,-16.990
5.319,-78.485,-103.626,-88.096,-5.985,73.056,-141.002,-30.537,-772.073,477.555,110.074,-32.045,-17.193
5.329,-78.484,-103.626,-88.463,-5.985,73.056,-141.002,-30.624,-771.587,473.385,110.454,-31.868,-17.393
5.339,-78.484,-103.627,-88.651,-5.985,73.056,-141.002,-30.674,-771.328,471.246,110.649,-31.777,-17.496
5.349,-78.484,-103.627,-89.025,-5.986,73.056,-141.002,-30.792,-770.789,467.000,111.034,-31.595,-17.699
5.358,-78.484,-103.631,-89.374,-5.986,73.056,-141.002,-30.888,-770.284,462.997,111.395,-31.421,-17.887
5.369,-78.485,-103.633,-89.547,-5.985,73.056,-141.001,-30.950,-770.025,461.023,111.572,-31.337,-17.980
5.379,-78.485,-103.637,-89.894,-5.985,73.055,-141.002,-31.067,-769.485,457.036,111.930,-31.163,-18.167
5.389,-78.486,-103.638,-90.256,-5.985,73.056,-141.001,-31.208,-768.882,452.932,112.298,-30.983,-18.358
5.399,-78.487,-103.638,-90.433,-5.986,73.056,-141.001,-31.278,-768.575,450.932,112.478,-30.894,-18.451
5.409,-78.487,-103.640,-90.772,-5.986,73.056,-141.001,-31.394,-767.979,447.087,112.821,-30.724,-18.626
5.419,-78.487,-103.642,-91.100,-5.986,73.055,-141.001,-31.526,-767.382,443.363,113.152,-30.557,-18.796
5.429,-78.487,-103.643,-91.265,-5.985,73.056,-141.001,-31.591,-767.070,441.509,113.317,-30.474,-18.880
5.439,-78.488,-103.643,-91.597,-5.986,73.056,-141.001,-31.725,-766.426,437.751,113.651,-30.305,-19.049
5.450,-78.488,-103.642,-91.933,-5.986,73.056,-141.001,-31.870,-765.746,433.996,113.984,-30.135,-19.217
5.460,-78.487,-103.643,-92.092,-5.987,73.056,-141.001,-31.922,-765.423,432.187,114.144,-30.052,-19.296
5.470,-78.488,-103.648,-92.396,-5.987,73.056,-141.001,-32.054,-764.805,428.719,114.450,-29.894,-19.449
5.479,-78.486,-103.652,-92.702,-5.987,73.056,-141.001,-32.164,-764.165,425.248,114.755,-29.735,-19.599
5.489,-78.486,-103.652,-92.857,-5.986,73.056,-141.001,-32.228,-763.826,423.501,114.908,-29.654,-19.675
5.500,-78.485,-103.652,-93.169,-5.986,73.056,-141.001,-32.365,-763.121,420.014,115.214,-29.493,-19.825
5.510,-78.485,-103.651,-93.480,-5.986,73.057,-141.001,-32.496,-762.399,416.546,115.519,-29.331,-19.973
5.520,-78.484,-103.654,-93.625,-5.987,73.057,-141.001,-32.557,-762.069,414.892,115.664,-29.254,-20.043
5.529,-78.484,-103.659,-93.909,-5.987,73.059,-141.001,-32.680,-761.413,411.654,115.946,-29.103,-20.179
5.539,-78.483,-103.664,-94.190,-5.987,73.060,-141.000,-32.804,-760.748,408.449,116.225,-28.952,-20.314
5.549,-78.483,-103.666,-94.336,-5.987,73.060,-141.000,-32.878,-760.394,406.799,116.368,-28.875,-20.383
5.560,-78.482,-103.668,-94.629,-5.987,73.061,-141.001,-33.010,-759.663,403.507,116.655,-28.718,-20.519
5.569,-78.482,-103.668,-94.926,-5.987,73.062,-141.001,-33.160,-758.891,400.214,116.940,-28.561,-20.655
5.580,-78.482,-103.670,-95.064,-5.987,73.062,-141.000,-33.230,-758.537,398.658,117.076,-28.487,-20.719
5.589,-78.483,-103.675,-95.331,-5.987,73.062,-141.000,-33.380,-757.846,395.632,117.337,-28.342,-20.844
5.599,-78.484,-103.682,-95.589,-5.987,73.063,-141.000,-33.527,-757.176,392.679,117.591,-28.200,-20.965
5.609,-78.484,-103.686,-95.720,-5.986,73.063,-141.000,-33.598,-756.829,391.180,117.720,-28.127,-21.026
5.620,-78.484,-103.690,-96.005,-5.986,73.064,-141.000,-33.753,-756.047,387.981,117.995,-27.972,-21.154
5.630,-78.483,-103.690,-96.253,-5.985,73.065,-141.000,-33.889,-755.338,385.244,118.231,-27.839,-21.264
5.640,-78.484,-103.690,-96.384,-5.986,73.065,-141.000,-33.965,-754.962,383.787,118.357,-27.768,-21.322
5.650,-78.483,-103.696,-96.628,-5.986,73.069,-141.000,-34.081,-754.275,381.025,118.594,-27.634,-21.429
5.659,-78.484,-103.701,-96.858,-5.986,73.074,-141.000,-34.204,-753.616,378.411,118.819,-27.507,-21.529
5.670,-78.484,-103.705,-96.968,-5.985,73.078,-140.999,-34.247,-753.301,377.159,118.927,-27.448,-21.575
5.680,-78.483,-103.708,-97.192,-5.986,73.092,-140.999,-34.316,-752.641,374.643,119.145,-27.329,-21.663
5.689,-78.482,-103.708,-97.414,-5.985,73.118,-140.999,-34.314,-751.967,372.194,119.361,-27.218,-21.737
5.699,-78.481,-103.708,-97.525,-5.984,73.141,-140.999,-34.276,-751.633,370.969,119.470,-27.167,-21.767
5.709,-78.482,-103.707,-97.749,-5.984,73.213,-140.998,-34.097,-750.951,368.481,119.700,-27.072,-21.807
5.720,-78.482,-103.710,-97.951,-5.985,73.330,-140.998,-33.697,-750.362,366.143,119.927,-27.004,-21.807
5.729,-78.483,-103.711,-98.045,-5.985,73.404,-140.999,-33.442,-750.086,365.050,120.037,-26.981,-21.793
5.740,-78.482,-103.712,-98.219,-5.984,73.566,-140.998,-32.812,-749.584,363.027,120.248,-26.948,-21.744
5.750,-78.482,-103.715,-98.383,-5.984,73.750,-140.998,-32.083,-749.118,361.070,120.458,-26.929,-21.677
5.759,-78.481,-103.717,-98.462,-5.984,73.856,-140.998,-31.639,-748.899,360.124,120.564,-26.927,-21.630
5.770,-78.479,-103.719,-98.613,-5.983,74.078,-140.998,-30.698,-748.476,358.294,120.772,-26.932,-21.526
5.780,-78.477,-103.718,-98.762,-5.982,74.327,-140.998,-29.656,-748.044,356.524,120.982,-26.951,-21.402
5.790,-78.477,-103.719,-98.830,-5.982,74.459,-140.998,-29.089,-747.857,355.691,121.085,-26.967,-21.331
5.799,-78.476,-103.718,-98.964,-5.981,74.741,-140.997,-27.902,-747.467,354.076,121.291,-27.009,-21.177
5.809,-78.475,-103.716,-99.101,-5.979,75.084,-140.997,-26.544,-747.099,352.526,121.499,-27.070,-20.995
5.819,-78.474,-103.716,-99.150,-5.979,75.225,-140.998,-25.803,-746.934,351.766,121.605,-27.106,-20.893
5.829,-78.471,-103.719,-99.255,-5.979,75.588,-140.997,-24.179,-746.650,350.372,121.813,-27.198,-20.667
5.839,-78.465,-103.720,-99.344,-5.979,75.988,-140.997,-22.355,-746.414,349.154,122.014,-27.315,-20.405
5.848,-78.463,-103.720,-99.385,-5.979,76.201,-140.997,-21.382,-746.303,348.571,122.115,-27.381,-20.262
5.859,-78.457,-103.725,-99.455,-5.979,76.651,-140.997,-19.302,-746.126,347.483,122.317,-27.527,-19.956
5.869,-78.451,-103.728,-99.510,-5.979,77.144,-140.997,-17.014,-745.987,346.570,122.514,-27.703,-19.611
5.879,-78.447,-103.729,-99.528,-5.979,77.406,-140.997,-15.779,-745.943,346.231,122.606,-27.803,-19.421
5.890,-78.438,-103.730,-99.553,-5.977,77.968,-140.997,-13.116,-745.873,345.652,122.789,-28.026,-19.007
5.899,-78.427,-103.730,-99.568,-5.978,78.571,-140.997,-10.230,-745.809,345.179,122.973,-28.273,-18.557
5.910,-78.420,-103.732,-99.565,-5.979,78.889,-140.997,-8.686,-745.816,345.034,123.061,-28.408,-18.315
5.920,-78.409,-103.731,-99.561,-5.978,79.558,-140.997,-5.487,-745.771,344.784,123.239,-28.695,-17.806
5.929,-78.396,-103.729,-99.559,-5.976,80.254,-140.997,-2.139,-745.682,344.526,123.423,-28.995,-17.274
5.939,-78.389,-103.729,-99.559,-5.975,80.611,-140.997,-0.409,-745.621,344.377,123.519,-29.148,-17.002
5.949,-78.369,-103.726,-99.559,-5.975,81.366,-140.997,3.297,-745.447,344.113,123.717,-29.475,-16.420
5.959,-78.352,-103.724,-99.553,-5.973,82.154,-140.997,7.119,-745.254,343.928,123.912,-29.820,-15.812
5.970,-78.344,-103.724,-99.552,-5.972,82.563,-140.997,9.086,-745.128,343.804,124.016,-29.998,-15.500
5.979,-78.327,-103.724,-99.555,-5.972,83.409,-140.997,13.167,-744.812,343.497,124.234,-30.366,-14.855
5.989,-78.306,-103.724,-99.555,-5.972,84.272,-140.998,17.388,-744.446,343.247,124.451,-30.744,-14.190
5.999,-78.291,-103.724,-99.555,-5.971,84.724,-140.997,19.648,-744.234,343.129,124.562,-30.944,-13.837
6.010,-78.263,-103.725,-99.556,-5.971,85.638,-140.998,24.171,-743.752,342.891,124.786,-31.346,-13.128
6.019,-78.236,-103.726,-99.558,-5.971,86.590,-140.998,28.850,-743.184,342.664,125.016,-31.769,-12.391
6.029,-78.219,-103.726,-99.558,-5.971,87.072,-140.998,31.261,-742.867,342.581,125.128,-31.984,-12.012
6.040,-78.182,-103.725,-99.556,-5.971,88.056,-140.998,36.202,-742.174,342.478,125.351,-32.426,-11.236
6.049,-78.146,-103.725,-99.556,-5.971,89.052,-140.998,41.185,-741.393,342.375,125.574,-32.875,-10.450
6.059,-78.131,-103.725,-99.557,-5.971,89.563,-140.998,43.687,-740.966,342.333,125.686,-33.106,-10.051
6.069,-78.103,-103.726,-99.557,-5.971,90.600,-140.998,48.720,-740.049,342.274,125.910,-33.578,-9.241
6.079,-78.077,-103.727,-99.557,-5.971,91.652,-140.998,53.789,-739.038,342.248,126.131,-34.057,-8.420
6.089,-78.065,-103.728,-99.557,-5.971,92.188,-140.998,56.348,-738.496,342.250,126.241,-34.303,-8.002
6.099,-78.049,-103.728,-99.559,-5.971,93.268,-140.999,61.376,-737.341,342.288,126.458,-34.799,-7.167
6.109,-78.043,-103.729,-99.558,-5.971,94.361,-140.999,66.315,-736.108,342.403,126.666,-35.305,-6.327
6.119,-78.041,-103.729,-99.558,-5.971,94.915,-140.999,68.800,-735.450,342.474,126.770,-35.563,-5.902
6.130,-78.041,-103.729,-99.558,-5.972,96.036,-140.999,73.753,-734.061,342.659,126.972,-36.085,-5.042
6.140,-78.041,-103.729,-99.558,-5.972,97.171,-140.999,78.744,-732.569,342.895,127.169,-36.617,-4.168
6.149,-78.041,-103.728,-99.558,-5.972,97.740,-140.999,81.225,-731.789,343.041,127.263,-36.884,-3.729
6.159,-78.042,-103.728,-99.557,-5.972,98.880,-140.999,86.186,-730.163,343.368,127.446,-37.422,-2.845
6.169,-78.042,-103.727,-99.557,-5.972,100.013,-140.999,91.087,-728.460,343.737,127.619,-37.959,-1.962
6.179,-78.042,-103.727,-99.557,-5.972,100.590,-141.000,93.567,-727.563,343.946,127.703,-38.232,-1.511
6.189,-78.043,-103.727,-99.558,-5.971,101.744,-140.999,98.489,-725.700,344.395,127.865,-38.782,-0.606
6.199,-78.046,-103.727,-99.558,-5.972,102.904,-141.000,103.388,-723.747,344.897,128.018,-39.336,0.307
6.209,-78.047,-103.727,-99.558,-5.971,103.479,-141.000,105.804,-722.747,345.169,128.089,-39.612,0.763
6.219,-78.049,-103.726,-99.557,-5.972,104.726,-141.000,110.998,-720.506,345.805,128.235,-40.210,1.754
6.229,-78.050,-103.724,-99.557,-5.971,105.776,-141.000,115.353,-718.539,346.400,128.347,-40.717,2.597
6.239,-78.051,-103.724,-99.556,-5.971,106.352,-141.000,117.725,-717.433,346.740,128.405,-40.994,3.061
6.249,-78.050,-103.723,-99.556,-5.971,107.485,-141.000,122.388,-715.191,347.436,128.512,-41.542,3.981
6.259,-78.049,-103.723,-99.556,-5.971,108.614,-141.000,126.972,-712.883,348.164,128.609,-42.089,4.901
6.270,-78.049,-103.724,-99.557,-5.971,109.169,-141.000,129.213,-711.722,348.530,128.654,-42.358,5.355
6.280,-78.049,-103.725,-99.557,-5.972,110.266,-141.000,133.599,-709.371,349.288,128.735,-42.891,6.258
6.290,-78.048,-103.727,-99.558,-5.973,111.350,-141.000,137.896,-706.977,350.078,128.805,-43.418,7.156
6.300,-78.048,-103.727,-99.558,-5.972,111.887,-141.000,140.010,-705.763,350.491,128.834,-43.680,7.606
6.309,-78.046,-103.727,-99.558,-5.972,112.941,-141.000,144.124,-703.335,351.344,128.883,-44.193,8.492
6.320,-78.045,-103.727,-99.557,-5.972,114.068,-141.001,148.464,-700.669,352.312,128.921,-44.743,9.450
6.330,-78.045,-103.727,-99.557,-5.973,114.495,-141.001,150.093,-699.641,352.680,128.935,-44.951,9.813
6.340,-78.045,-103.727,-99.557,-5.973,115.504,-141.001,153.902,-697.168,353.590,128.957,-45.445,10.678
6.350,-78.046,-103.728,-99.557,-5.973,116.490,-141.001,157.571,-694.703,354.508,128.968,-45.926,11.529
6.360,-78.047,-103.728,-99.558,-5.973,116.979,-141.001,159.364,-693.462,354.974,128.970,-46.165,11.953
6.370,-78.049,-103.729,-99.558,-5.974,117.924,-141.000,162.809,-691.023,355.891,128.969,-46.628,12.777
6.380,-78.052,-103.730,-99.559,-5.975,118.841,-141.001,166.092,-688.617,356.808,128.958,-47.076,13.581
6.389,-78.053,-103.730,-99.560,-5.975,119.277,-141.001,167.638,-687.457,357.255,128.949,-47.289,13.967
6.400,-78.056,-103.731,-99.560,-5.976,120.128,-141.001,170.623,-685.166,358.152,128.926,-47.704,14.723
6.410,-78.060,-103.731,-99.560,-5.976,120.931,-141.000,173.405,-682.969,359.028,128.895,-48.096,15.443
6.420,-78.061,-103.731,-99.560,-5.977,121.310,-141.001,174.705,-681.921,359.450,128.878,-48.281,15.785
6.430,-78.065,-103.730,-99.560,-5.977,122.028,-141.001,177.143,-679.917,360.274,128.839,-48.631,16.437
6.440,-78.069,-103.730,-99.560,-5.978,122.687,-141.001,179.348,-678.056,361.036,128.799,-48.952,17.039
6.450,-78.071,-103.730,-99.560,-5.978,122.986,-141.001,180.334,-677.208,361.387,128.778,-49.098,17.313
6.460,-78.074,-103.731,-99.561,-5.979,123.547,-141.001,182.185,-675.602,362.043,128.739,-49.371,17.828
6.470,-78.078,-103.731,-99.561,-5.979,124.053,-141.001,183.839,-674.143,362.638,128.701,-49.617,18.295
6.479,-78.079,-103.732,-99.561,-5.979,124.286,-141.001,184.591,-673.469,362.916,128.682,-49.730,18.511
6.489,-78.083,-103.734,-99.561,-5.979,124.704,-141.001,185.934,-672.257,363.409,128.648,-49.933,18.899
6.500,-78.085,-103.735,-99.561,-5.980,125.060,-141.001,187.080,-671.215,363.830,128.617,-50.106,19.231
6.510,-78.084,-103.736,-99.561,-5.980,125.214,-141.001,187.588,-670.757,364.008,128.604,-50.181,19.375
6.520,-78.084,-103.738,-99.561,-5.980,125.493,-141.001,188.507,-669.931,364.342,128.579,-50.317,19.639
6.530,-78.082,-103.740,-99.561,-5.980,125.719,-141.001,189.261,-669.254,364.601,128.559,-50.427,19.853
6.540,-78.081,-103.741,-99.561,-5.980,125.814,-141.001,189.581,-668.972,364.710,128.550,-50.472,19.944
6.550,-78.079,-103.743,-99.561,-5.980,125.983,-141.000,190.149,-668.466,364.897,128.536,-50.555,20.104
6.560,-78.077,-103.745,-99.560,-5.980,126.107,-141.001,190.577,-668.095,365.037,128.524,-50.615,20.223
6.570,-78.075,-103.746,-99.560,-5.980,126.158,-141.001,190.759,-667.936,365.103,128.518,-50.640,20.274
6.579,-78.073,-103.746,-99.560,-5.980,126.217,-141.000,190.978,-667.752,365.186,128.510,-50.669,20.334
6.590,-78.069,-103.745,-99.559,-5.979,126.267,-141.001,191.186,-667.587,365.273,128.501,-50.692,20.389
6.599,-78.066,-103.745,-99.558,-5.978,126.293,-141.001,191.297,-667.502,365.317,128.495,-50.704,20.418
6.609,-78.059,-103.743,-99.557,-5.977,126.345,-141.001,191.543,-667.320,365.428,128.482,-50.729,20.480
6.619,-78.049,-103.740,-99.555,-5.977,126.388,-141.001,191.805,-667.146,365.528,128.471,-50.749,20.538
6.629,-78.041,-103.739,-99.555,-5.977,126.405,-141.001,191.948,-667.065,365.566,128.467,-50.757,20.563
6.639,-78.026,-103.737,-99.555,-5.977,126.412,-141.001,192.142,-666.988,365.603,128.462,-50.760,20.588
6.649,-78.006,-103.736,-99.555,-5.977,126.412,-141.001,192.377,-666.917,365.623,128.459,-50.760,20.610
6.660,-77.993,-103.735,-99.554,-5.977,126.412,-141.000,192.527,-666.870,365.634,128.458,-50.760,20.624
6.670,-77.960,-103.733,-99.555,-5.976,126.412,-141.001,192.913,-666.751,365.649,128.455,-50.759,20.660
6.679,-77.914,-103.731,-99.555,-5.975,126.413,-141.002,193.437,-666.592,365.678,128.451,-50.759,20.709
6.689,-77.886,-103.730,-99.554,-5.975,126.413,-141.002,193.765,-666.492,365.694,128.449,-50.759,20.739
6.700,-77.818,-103.728,-99.554,-5.975,126.413,-141.002,194.556,-666.252,365.729,128.444,-50.758,20.812
6.710,-77.736,-103.723,-99.554,-5.975,126.414,-141.001,195.515,-665.953,365.788,128.436,-50.758,20.900
6.719,-77.685,-103.721,-99.553,-5.975,126.414,-141.002,196.102,-665.771,365.826,128.430,-50.757,20.956
6.730,-77.577,-103.717,-99.552,-5.974,126.414,-141.001,197.351,-665.391,365.883,128.422,-50.757,21.070
6.740,-77.468,-103.715,-99.551,-5.974,126.414,-141.002,198.618,-665.009,365.920,128.417,-50.756,21.183
6.749,-77.400,-103.715,-99.551,-5.974,126.415,-141.001,199.407,-664.771,365.926,128.416,-50.757,21.252
6.759,-77.287,-103.715,-99.552,-5.974,126.415,-141.002,200.717,-664.373,365.924,128.416,-50.757,21.365
6.769,-77.156,-103.715,-99.551,-5.974,126.415,-141.002,202.236,-663.916,365.918,128.417,-50.757,21.496
6.779,-77.085,-103.715,-99.552,-5.974,126.415,-141.002,203.063,-663.662,365.906,128.419,-50.757,21.565
6.790,-76.926,-103.716,-99.552,-5.974,126.414,-141.001,204.907,-663.098,365.891,128.422,-50.757,21.722
6.799,-76.750,-103.716,-99.552,-5.974,126.414,-141.001,206.941,-662.468,365.890,128.422,-50.757,21.897
6.809,-76.656,-103.716,-99.552,-5.975,126.414,-141.001,208.024,-662.127,365.889,128.422,-50.757,21.991
6.819,-76.459,-103.716,-99.552,-5.974,126.414,-141.001,210.298,-661.409,365.902,128.420,-50.757,22.190
6.829,-76.245,-103.715,-99.552,-5.974,126.414,-141.001,212.767,-660.616,365.907,128.420,-50.757,22.404
6.840,-76.128,-103.715,-99.551,-5.974,126.414,-141.001,214.119,-660.179,365.918,128.418,-50.757,22.523
6.849,-75.887,-103.715,-99.551,-5.974,126.414,-141.001,216.892,-659.275,365.912,128.419,-50.757,22.762
6.859,-75.649,-103.716,-99.551,-5.974,126.415,-141.001,219.627,-658.371,365.910,128.419,-50.757,23.000
6.869,-75.525,-103.716,-99.551,-5.974,126.415,-141.001,221.056,-657.894,365.908,128.419,-50.757,23.125
6.880,-75.263,-103.715,-99.552,-5.974,126.414,-141.001,224.059,-656.874,365.911,128.419,-50.757,23.387
6.889,-75.001,-103.716,-99.551,-5.974,126.414,-141.001,227.055,-655.847,365.912,128.418,-50.757,23.648
6.899,-74.870,-103.716,-99.551,-5.974,126.414,-141.001,228.561,-655.323,365.913,128.418,-50.757,23.780
6.909,-74.592,-103.716,-99.551,-5.974,126.414,-141.001,231.730,-654.211,365.913,128.419,-50.757,24.057
6.920,-74.283,-103.716,-99.551,-5.974,126.413,-141.001,235.263,-652.949,365.908,128.419,-50.757,24.366
6.929,-74.164,-103.716,-99.552,-5.974,126.413,-141.001,236.614,-652.459,365.900,128.421,-50.757,24.484
6.939,-73.862,-103.716,-99.551,-5.974,126.413,-141.001,240.048,-651.208,365.911,128.419,-50.756,24.787
6.950,-73.545,-103.715,-99.552,-5.974,126.413,-141.001,243.647,-649.863,365.903,128.420,-50.756,25.103
6.959,-73.388,-103.716,-99.552,-5.974,126.413,-141.002,245.423,-649.199,365.902,128.420,-50.756,25.260
6.970,-73.058,-103.716,-99.552,-5.974,126.412,-141.001,249.158,-647.777,365.895,128.421,-50.756,25.588
6.979,-72.725,-103.716,-99.552,-5.975,126.413,-141.001,252.925,-646.312,365.888,128.423,-50.756,25.921
6.989,-72.560,-103.717,-99.552,-5.975,126.412,-141.001,254.783,-645.584,365.886,128.423,-50.756,26.085
7.000,-72.214,-103.717,-99.552,-5.975,126.412,-141.001,258.676,-644.036,365.888,128.422,-50.756,26.431
7.010,-71.876,-103.716,-99.552,-5.974,126.413,-141.001,262.469,-642.495,365.902,128.420,-50.756,26.771
7.020,-71.705,-103.716,-99.551,-5.975,126.412,-141.001,264.387,-641.714,365.905,128.420,-50.756,26.942
7.030,-71.351,-103.715,-99.551,-5.974,126.413,-141.001,268.346,-640.065,365.917,128.418,-50.756,27.298
7.040,-70.979,-103.716,-99.551,-5.975,126.412,-141.002,272.492,-638.315,365.898,128.421,-50.756,27.667
7.049,-70.797,-103.717,-99.550,-5.974,126.412,-141.001,274.522,-637.451,365.902,128.420,-50.756,27.850
7.060,-70.470,-103.716,-99.552,-5.975,126.413,-141.001,278.161,-635.858,365.886,128.423,-50.757,28.176
7.069,-70.109,-103.717,-99.551,-5.975,126.411,-141.001,282.155,-634.111,365.887,128.422,-50.756,28.535
7.079,-69.921,-103.718,-99.551,-5.974,126.412,-141.001,284.243,-633.178,365.878,128.423,-50.756,28.724
7.089,-69.560,-103.718,-99.554,-5.975,126.412,-141.002,288.224,-631.363,365.859,128.426,-50.756,29.083
7.099,-69.176,-103.719,-99.550,-5.975,126.412,-141.001,292.444,-629.438,365.880,128.423,-50.756,29.468
7.110,-68.955,-103.718,-99.552,-5.975,126.413,-141.001,294.871,-628.290,365.871,128.425,-50.757,29.689
7.120,-68.612,-103.717,-99.552,-5.975,126.411,-141.001,298.627,-626.520,365.880,128.424,-50.756,30.031
7.130,-68.221,-103.718,-99.551,-5.975,126.413,-141.001,302.896,-624.465,365.884,128.423,-50.757,30.424
7.139,-68.003,-103.716,-99.554,-5.975,126.413,-141.001,305.272,-623.292,365.872,128.425,-50.757,30.641
7.150,-67.644,-103.719,-99.549,-5.975,126.412,-141.001,309.177,-621.394,365.898,128.421,-50.756,31.003
7.160,-67.262,-103.717,-99.554,-5.975,126.413,-141.001,313.300,-619.294,365.862,128.427,-50.757,31.380
7.170,-67.069,-103.717,-99.553,-5.975,126.412,-141.001,315.382,-618.244,365.872,128.425,-50.756,31.574
7.180,-66.681,-103.719,-99.550,-5.974,126.414,-141.001,319.576,-616.104,365.883,128.422,-50.757,31.965
7.189,-66.298,-103.717,-99.553,-5.975,126.411,-141.001,323.677,-613.942,365.870,128.425,-50.756,32.345
7.199,-66.100,-103.719,-99.549,-5.975,126.412,-141.001,325.804,-612.839,365.889,128.422,-50.757,32.545
7.209,-65.720,-103.717,-99.554,-5.974,126.413,-141.001,329.857,-610.640,365.872,128.424,-50.757,32.925
7.219,-65.324,-103.717,-99.548,-5.975,126.413,-141.002,334.080,-608.364,365.927,128.416,-50.756,33.328
7.229,-65.135,-103.717,-99.548,-5.974,126.414,-141.002,336.088,-607.254,365.925,128.416,-50.756,33.517
7.239,-64.745,-103.715,-99.551,-5.975,126.412,-141.002,340.198,-604.941,365.917,128.418,-50.755,33.903
7.249,-64.357,-103.717,-99.549,-5.974,126.414,-141.002,344.295,-602.632,365.923,128.416,-50.756,34.295
7.259,-64.166,-103.715,-99.552,-5.974,126.412,-141.002,346.289,-601.474,365.899,128.420,-50.756,34.481
7.270,-63.771,-103.717,-99.548,-5.974,126.414,-141.001,350.446,-599.078,365.924,128.417,-50.757,34.881
7.279,-63.390,-103.715,-99.553,-5.974,126.412,-141.001,354.406,-596.726,365.897,128.420,-50.756,35.257
7.289,-63.192,-103.715,-99.551,-5.974,126.413,-141.001,356.466,-595.504,365.916,128.418,-50.756,35.457
7.299,-62.816,-103.716,-99.550,-5.974,126.413,-141.001,360.374,-593.152,365.924,128.416,-50.756,35.835
7.309,-62.430,-103.715,-99.549,-5.975,126.412,-141.001,364.356,-590.712,365.940,128.415,-50.756,36.221
7.319,-62.240,-103.716,-99.548,-5.974,126.414,-141.001,366.322,-589.503,365.949,128.413,-50.757,36.414
7.329,-61.835,-103.714,-99.551,-5.974,126.411,-141.001,370.464,-586.897,365.932,128.416,-50.755,36.814
7.340,-61.487,-103.716,-99.547,-5.974,126.414,-141.001,374.044,-584.635,365.956,128.412,-50.756,37.168
7.349,-61.309,-103.715,-99.550,-5.974,126.412,-141.001,375.843,-583.471,365.930,128.415,-50.756,37.342
7.359,-60.931,-103.716,-99.548,-5.974,126.412,-141.001,379.690,-580.983,365.938,128.415,-50.756,37.720
7.370,-60.571,-103.716,-99.551,-5.974,126.412,-141.001,383.330,-578.580,365.907,128.419,-50.756,38.077
7.379,-60.386,-103.715,-99.552,-5.974,126.411,-141.001,385.187,-577.343,365.906,128.419,-50.755,38.260
7.389,-60.016,-103.718,-99.549,-5.974,126.413,-141.001,388.922,-574.850,365.916,128.417,-50.757,38.634
7.400,-59.665,-103.715,-99.552,-5.974,126.411,-141.002,392.424,-572.448,365.905,128.419,-50.755,38.982
7.409,-59.481,-103.717,-99.548,-5.974,126.412,-141.002,394.275,-571.193,365.929,128.415,-50.755,39.171
7.419,-59.135,-103.716,-99.551,-5.974,126.412,-141.001,397.705,-568.795,365.913,128.418,-50.756,39.513
7.429,-58.789,-103.716,-99.548,-5.974,126.411,-141.001,401.142,-566.390,365.933,128.415,-50.755,39.861
7.439,-58.619,-103.717,-99.548,-5.974,126.412,-141.001,402.817,-565.205,365.929,128.415,-50.756,40.031
7.449,-58.298,-103.715,-99.552,-5.974,126.411,-141.001,405.967,-562.923,365.908,128.419,-50.755,40.349
7.459,-57.975,-103.718,-99.548,-5.974,126.411,-141.001,409.149,-560.642,365.920,128.416,-50.755,40.674
7.469,-57.821,-103.717,-99.551,-5.974,126.411,-141.002,410.646,-559.530,365.900,128.419,-50.755,40.826
7.479,-57.519,-103.717,-99.550,-5.974,126.411,-141.001,413.594,-557.361,365.902,128.419,-50.755,41.128
7.489,-57.215,-103.717,-99.550,-5.974,126.410,-141.001,416.546,-555.159,365.895,128.420,-50.755,41.431
7.499,-57.069,-103.716,-99.552,-5.974,126.411,-141.001,417.950,-554.088,365.896,128.420,-50.755,41.577
7.509,-56.788,-103.718,-99.548,-5.974,126.409,-141.001,420.674,-552.053,365.912,128.417,-50.754,41.859
7.519,-56.504,-103.716,-99.551,-5.974,126.409,-141.001,423.395,-549.945,365.901,128.420,-50.754,42.141
7.529,-56.368,-103.717,-99.550,-5.974,126.409,-141.001,424.696,-548.950,365.910,128.418,-50.754,42.278
7.539,-56.108,-103.717,-99.549,-5.974,126.408,-141.001,427.186,-547.024,365.903,128.419,-50.754,42.537
7.549,-55.848,-103.717,-99.550,-5.974,126.408,-141.001,429.658,-545.079,365.897,128.420,-50.754,42.795
7.559,-55.726,-103.718,-99.550,-5.974,126.408,-141.001,430.830,-544.162,365.895,128.419,-50.754,42.918
7.569,-55.489,-103.718,-99.551,-5.974,126.407,-141.001,433.074,-542.375,365.876,128.423,-50.754,43.152
7.579,-55.266,-103.718,-99.550,-5.974,126.407,-141.001,435.179,-540.689,365.887,128.421,-50.754,43.376
7.589,-55.154,-103.718,-99.550,-5.973,126.406,-141.000,436.234,-539.844,365.891,128.420,-50.753,43.487
7.600,-54.937,-103.717,-99.549,-5.973,126.404,-141.001,438.274,-538.189,365.906,128.418,-50.752,43.706
7.610,-54.741,-103.716,-99.548,-5.972,126.403,-141.001,440.106,-536.694,365.934,128.412,-50.751,43.904
7.619,-54.646,-103.715,-99.548,-5.972,126.403,-141.001,440.992,-535.969,365.942,128.412,-50.751,43.999
7.630,-54.458,-103.714,-99.548,-5.971,126.400,-141.002,442.743,-534.527,365.955,128.408,-50.748,44.188
7.640,-54.282,-103.715,-99.547,-5.972,126.395,-141.001,444.372,-533.187,365.950,128.410,-50.747,44.358
7.650,-54.201,-103.715,-99.547,-5.972,126.393,-141.001,445.130,-532.561,365.947,128.410,-50.746,44.437
7.659,-54.048,-103.714,-99.547,-5.971,126.388,-141.001,446.538,-531.395,365.949,128.408,-50.743,44.587
7.669,-53.915,-103.715,-99.547,-5.971,126.382,-141.001,447.767,-530.380,365.936,128.410,-50.740,44.714
7.680,-53.850,-103.715,-99.547,-5.971,126.376,-141.001,448.352,-529.898,365.934,128.410,-50.737,44.773
7.690,-53.733,-103.714,-99.546,-5.970,126.358,-141.001,449.408,-529.054,365.930,128.408,-50.729,44.876
7.700,-53.635,-103.714,-99.544,-5.971,126.330,-141.001,450.266,-528.406,365.906,128.410,-50.714,44.948
7.709,-53.594,-103.715,-99.544,-5.971,126.310,-141.001,450.617,-528.162,365.881,128.412,-50.705,44.971
7.719,-53.528,-103.716,-99.544,-5.972,126.266,-141.002,451.149,-527.830,365.803,128.420,-50.684,44.991
7.746,-53.478,-103.717,-99.544,-5.972,126.220,-141.002,451.535,-527.626,365.728,128.428,-50.661,44.995
7.746,-53.460,-103.717,-99.545,-5.972,126.190,-141.002,451.655,-527.605,365.676,128.433,-50.647,44.984
7.749,-53.446,-103.719,-99.546,-5.973,126.137,-141.003,451.699,-527.712,365.581,128.443,-50.621,44.944
7.759,-53.448,-103.721,-99.548,-5.974,126.070,-141.003,451.564,-528.010,365.444,128.458,-50.589,44.871
7.770,-53.451,-103.722,-99.548,-5.974,126.026,-141.003,451.468,-528.210,365.372,128.466,-50.569,44.824
7.780,-53.455,-103.724,-99.548,-5.974,125.904,-141.003,451.227,-528.749,365.188,128.483,-50.510,44.700
7.790,-53.463,-103.723,-99.547,-5.974,125.731,-141.003,450.863,-529.516,364.991,128.498,-50.425,44.530
7.800,-53.467,-103.722,-99.547,-5.974,125.631,-141.003,450.655,-529.955,364.881,128.506,-50.377,44.432
7.809,-53.477,-103.719,-99.545,-5.973,125.403,-141.003,450.174,-530.951,364.658,128.520,-50.266,44.214
7.819,-53.489,-103.715,-99.543,-5.973,125.125,-141.004,449.576,-532.172,364.379,128.538,-50.130,43.945
7.830,-53.498,-103.713,-99.542,-5.972,124.969,-141.004,449.224,-532.868,364.221,128.548,-50.054,43.793
7.840,-53.520,-103.710,-99.541,-5.972,124.622,-141.004,448.395,-534.449,363.841,128.573,-49.885,43.448
7.849,-53.552,-103.709,-99.541,-5.971,124.197,-141.004,447.337,-536.411,363.329,128.609,-49.679,43.018
7.859,-53.566,-103.709,-99.541,-5.972,124.021,-141.005,446.892,-537.229,363.115,128.624,-49.593,42.839
7.869,-53.607,-103.709,-99.542,-5.971,123.576,-141.005,445.686,-539.345,362.573,128.661,-49.377,42.382
7.879,-53.648,-103.708,-99.540,-5.970,123.090,-141.004,444.392,-541.622,362.016,128.693,-49.141,41.892
7.890,-53.665,-103.708,-99.540,-5.969,122.835,-141.004,443.744,-542.779,361.733,128.708,-49.017,41.641
7.900,-53.691,-103.706,-99.539,-5.968,122.294,-141.004,442.458,-545.138,361.135,128.739,-48.754,41.120
7.910,-53.702,-103.702,-99.536,-5.965,121.716,-141.003,441.219,-547.521,360.556,128.760,-48.473,40.589
7.919,-53.703,-103.700,-99.535,-5.963,121.414,-141.003,440.599,-548.732,360.271,128.766,-48.325,40.319
7.929,-53.702,-103.696,-99.530,-5.955,120.790,-141.004,439.349,-551.206,359.714,128.770,-48.020,39.772
7.940,-53.699,-103.691,-99.524,-5.950,120.121,-141.003,437.998,-553.829,359.119,128.774,-47.694,39.188
7.949,-53.698,-103.689,-99.520,-5.950,119.775,-141.004,437.284,-555.184,358.819,128.776,-47.525,38.886
7.960,-53.698,-103.686,-99.507,-5.950,119.068,-141.004,435.783,-557.993,358.239,128.774,-47.180,38.269
7.970,-53.701,-103.689,-99.480,-5.951,118.321,-141.004,434.183,-561.006,357.720,128.755,-46.816,37.628
7.980,-53.703,-103.690,-99.464,-5.952,117.934,-141.004,433.338,-562.573,357.484,128.739,-46.627,37.300
7.990,-53.704,-103.689,-99.436,-5.951,117.145,-141.004,431.591,-565.714,357.016,128.703,-46.244,36.634
8.000,-53.703,-103.689,-99.408,-5.952,116.309,-141.004,429.724,-568.992,356.510,128.663,-45.837,35.934
8.010,-53.702,-103.688,-99.393,-5.952,115.882,-141.003,428.757,-570.657,356.276,128.639,-45.631,35.579
8.020,-53.699,-103.685,-99.359,-5.951,115.007,-141.004,426.748,-574.055,355.886,128.573,-45.207,34.863
8.030,-53.696,-103.684,-99.316,-5.951,114.106,-141.004,424.649,-577.550,355.567,128.491,-44.772,34.136
8.040,-53.696,-103.685,-99.295,-5.951,113.660,-141.004,423.581,-579.287,355.409,128.450,-44.557,33.775
8.049,-53.695,-103.686,-99.249,-5.952,112.729,-141.004,421.319,-582.886,355.102,128.358,-44.110,33.026
8.059,-53.696,-103.687,-99.208,-5.952,111.792,-141.004,418.956,-586.479,354.800,128.261,-43.661,32.271
8.070,-53.696,-103.688,-99.186,-5.952,111.313,-141.004,417.745,-588.299,354.646,128.210,-43.432,31.887
8.080,-53.697,-103.688,-99.151,-5.953,110.346,-141.004,415.208,-591.932,354.318,128.108,-42.970,31.108
8.090,-53.696,-103.688,-99.114,-5.952,109.369,-141.004,412.617,-595.555,354.025,127.996,-42.506,30.330
8.100,-53.696,-103.687,-99.098,-5.953,108.872,-141.004,411.251,-597.384,353.867,127.939,-42.270,29.931
8.109,-53.695,-103.688,-99.063,-5.952,107.871,-141.003,408.497,-601.036,353.596,127.817,-41.797,29.135
8.120,-53.695,-103.685,-99.038,-5.952,106.858,-141.003,405.620,-604.656,353.284,127.694,-41.319,28.330
8.129,-53.695,-103.686,-99.025,-5.952,106.354,-141.003,404.169,-606.447,353.128,127.631,-41.081,27.928
8.139,-53.694,-103.687,-99.003,-5.952,105.340,-141.003,401.200,-610.009,352.787,127.506,-40.604,27.120
8.150,-53.695,-103.688,-98.982,-5.953,104.340,-141.003,398.208,-613.480,352.483,127.377,-40.135,26.326
8.159,-53.695,-103.689,-98.971,-5.953,103.835,-141.003,396.682,-615.214,352.346,127.308,-39.899,25.927
8.170,-53.696,-103.687,-98.962,-5.953,102.835,-141.003,393.564,-618.587,352.006,127.178,-39.430,25.131
8.179,-53.694,-103.686,-98.960,-5.952,101.832,-141.003,390.405,-621.880,351.618,127.049,-38.961,24.333
8.190,-53.694,-103.686,-98.960,-5.952,101.340,-141.002,388.823,-623.481,351.422,126.986,-38.731,23.941
8.199,-53.693,-103.685,-98.960,-5.951,100.362,-141.002,385.657,-626.626,351.081,126.851,-38.275,23.167
8.210,-53.692,-103.686,-98.959,-5.951,99.411,-141.002,382.535,-629.644,350.766,126.716,-37.832,22.416
8.219,-53.692,-103.686,-98.960,-5.952,98.935,-141.002,380.949,-631.136,350.608,126.648,-37.611,22.040
8.229,-53.692,-103.686,-98.961,-5.952,98.000,-141.002,377.800,-634.032,350.332,126.508,-37.178,21.305
8.240,-53.692,-103.686,-98.961,-5.952,97.092,-141.002,374.693,-636.814,350.115,126.363,-36.758,20.594
8.249,-53.692,-103.686,-98.961,-5.952,96.640,-141.002,373.140,-638.179,350.018,126.290,-36.551,20.241
8.260,-53.692,-103.687,-98.962,-5.952,95.692,-141.002,369.840,-641.009,349.822,126.132,-36.115,19.502
8.270,-53.691,-103.687,-98.962,-5.952,94.911,-141.002,367.093,-643.304,349.690,125.997,-35.758,18.897
8.279,-53.691,-103.687,-98.962,-5.952,94.493,-141.002,365.610,-644.522,349.642,125.922,-35.567,18.573
8.290,-53.691,-103.687,-98.961,-5.951,93.684,-141.002,362.716,-646.852,349.568,125.773,-35.199,17.949
8.300,-53.692,-103.686,-98.961,-5.951,92.897,-141.001,359.868,-649.086,349.519,125.625,-34.843,17.342
8.310,-53.692,-103.686,-98.960,-5.951,92.514,-141.001,358.471,-650.160,349.501,125.551,-34.670,17.047
8.319,-53.693,-103.686,-98.960,-5.951,91.769,-141.001,355.740,-652.227,349.485,125.405,-34.335,16.476
8.330,-53.693,-103.686,-98.960,-5.951,91.054,-141.001,353.097,-654.182,349.476,125.263,-34.013,15.927
8.340,-53.693,-103.686,-98.960,-5.951,90.706,-141.001,351.802,-655.122,349.476,125.193,-33.856,15.660
8.349,-53.693,-103.687,-98.960,-5.950,90.030,-141.001,349.277,-656.927,349.497,125.055,-33.555,15.144
8.360,-53.693,-103.686,-98.960,-5.950,89.372,-141.001,346.801,-658.660,349.546,124.916,-33.262,14.643
8.369,-53.694,-103.686,-98.959,-5.950,89.050,-141.001,345.581,-659.499,349.577,124.847,-33.119,14.398
8.380,-53.694,-103.686,-98.959,-5.950,88.430,-141.001,343.219,-661.098,349.642,124.713,-32.844,13.926
8.389,-53.695,-103.686,-98.960,-5.950,87.813,-141.001,340.851,-662.668,349.708,124.579,-32.572,13.456
8.400,-53.695,-103.687,-98.960,-5.949,87.511,-141.000,339.691,-663.428,349.746,124.512,-32.439,13.226
8.410,-53.695,-103.687,-98.959,-5.949,86.924,-141.001,337.422,-664.890,349.840,124.380,-32.180,12.781
8.419,-53.695,-103.686,-98.959,-5.949,86.348,-141.001,335.190,-666.302,349.953,124.247,-31.929,12.346
8.429,-53.695,-103.686,-98.958,-5.948,86.063,-141.001,334.078,-666.992,350.018,124.181,-31.805,12.131
8.439,-53.695,-103.686,-98.958,-5.948,85.511,-141.001,331.922,-668.316,350.144,124.052,-31.565,11.714
8.450,-53.696,-103.686,-98.958,-5.948,84.975,-141.000,329.806,-669.588,350.263,123.926,-31.331,11.307
8.459,-53.696,-103.686,-98.958,-5.948,84.709,-141.001,328.759,-670.212,350.317,123.864,-31.216,11.107
8.469,-53.697,-103.687,-98.959,-5.948,84.193,-141.001,326.707,-671.412,350.435,123.741,-30.992,10.716
8.479,-53.697,-103.688,-98.959,-5.948,83.695,-141.001,324.723,-672.553,350.563,123.622,-30.777,10.340
8.489,-53.698,-103.688,-98.959,-5.948,83.454,-141.001,323.760,-673.099,350.633,123.563,-30.673,10.158
8.499,-53.698,-103.688,-98.959,-5.948,82.986,-141.001,321.889,-674.148,350.777,123.447,-30.472,9.806
8.510,-53.696,-103.688,-98.959,-5.948,82.529,-141.001,320.069,-675.152,350.928,123.333,-30.277,9.463
8.519,-53.695,-103.688,-98.958,-5.948,82.310,-141.001,319.200,-675.628,351.009,123.277,-30.184,9.300
8.529,-53.694,-103.687,-98.957,-5.948,81.890,-141.001,317.528,-676.532,351.174,123.170,-30.006,8.987
8.539,-53.694,-103.687,-98.956,-5.948,81.503,-141.001,315.965,-677.362,351.337,123.069,-29.842,8.697
8.550,-53.693,-103.686,-98.955,-5.947,81.321,-141.001,315.234,-677.750,351.424,123.020,-29.766,8.562
8.560,-53.694,-103.686,-98.951,-5.945,80.947,-141.001,313.720,-678.552,351.633,122.917,-29.612,8.284
8.569,-53.693,-103.685,-98.944,-5.942,80.655,-141.001,312.554,-679.176,351.846,122.831,-29.493,8.071
8.579,-53.692,-103.685,-98.938,-5.941,80.511,-141.001,311.984,-679.489,351.974,122.786,-29.436,7.967
8.590,-53.690,-103.684,-98.917,-5.936,80.244,-141.001,310.968,-680.084,352.343,122.690,-29.336,7.782
8.600,-53.688,-103.683,-98.882,-5.931,80.014,-141.001,310.126,-680.643,352.872,122.587,-29.260,7.633
8.610,-53.687,-103.682,-98.863,-5.927,79.910,-141.001,309.745,-680.903,353.165,122.536,-29.228,7.567
8.620,-53.687,-103.677,-98.815,-5.921,79.727,-141.001,309.091,-681.395,353.867,122.428,-29.180,7.459
8.630,-53.688,-103.671,-98.746,-5.918,79.577,-141.001,308.592,-681.879,354.774,122.311,-29.155,7.383
8.640,-53.689,-103.666,-98.706,-5.918,79.510,-141.001,308.379,-682.115,355.306,122.249,-29.149,7.354
8.650,-53.689,-103.653,-98.611,-5.917,79.397,-141.002,308.081,-682.565,356.571,122.110,-29.154,7.322
8.659,-53.690,-103.631,-98.503,-5.918,79.320,-141.001,307.921,-682.951,358.085,121.960,-29.186,7.327
8.670,-53.690,-103.618,-98.433,-5.917,79.290,-141.001,307.908,-683.164,359.037,121.868,-29.214,7.344
8.679,-53.691,-103.597,-98.315,-5.917,79.254,-141.001,307.937,-683.502,360.625,121.719,-29.267,7.384
8.690,-53.692,-103.571,-98.165,-5.918,79.218,-141.001,308.018,-683.898,362.628,121.534,-29.337,7.442
8.699,-53.691,-103.558,-98.080,-5.917,79.197,-141.001,308.077,-684.122,363.750,121.430,-29.376,7.476
8.710,-53.692,-103.533,-97.873,-5.917,79.145,-141.001,308.196,-684.698,366.382,121.183,-29.466,7.549
8.720,-53.691,-103.513,-97.675,-5.919,79.098,-141.002,308.349,-685.240,368.853,120.953,-29.552,7.623
8.730,-53.690,-103.502,-97.555,-5.919,79.075,-141.002,308.458,-685.561,370.336,120.814,-29.605,7.670
8.740,-53.692,-103.483,-97.300,-5.918,79.040,-141.002,308.736,-686.226,373.425,120.529,-29.722,7.780
8.750,-53.692,-103.460,-97.033,-5.919,79.022,-141.002,309.095,-686.858,376.696,120.231,-29.853,7.911
8.760,-53.692,-103.445,-96.895,-5.919,79.018,-141.002,309.288,-687.158,378.412,120.076,-29.924,7.985
8.770,-53.693,-103.410,-96.613,-5.918,79.019,-141.002,309.703,-687.731,382.013,119.753,-30.074,8.147
8.780,-53.692,-103.373,-96.310,-5.919,79.020,-141.002,310.155,-688.319,385.873,119.406,-30.235,8.322
8.790,-53.692,-103.355,-96.150,-5.920,79.021,-141.002,310.389,-688.632,387.883,119.226,-30.318,8.414
8.800,-53.691,-103.321,-95.808,-5.919,79.023,-141.002,310.904,-689.292,392.144,118.840,-30.494,8.612
8.809,-53.690,-103.285,-95.464,-5.919,79.024,-141.003,311.397,-689.928,396.480,118.447,-30.670,8.814
8.820,-53.689,-103.266,-95.291,-5.920,79.025,-141.002,311.639,-690.233,398.659,118.251,-30.759,8.916
8.830,-53.688,-103.225,-94.938,-5.920,79.026,-141.003,312.105,-690.837,403.148,117.844,-30.940,9.127
8.840,-53.688,-103.193,-94.562,-5.920,79.027,-141.002,312.592,-691.503,407.798,117.420,-31.126,9.346
8.850,-53.689,-103.181,-94.364,-5.920,79.028,-141.002,312.851,-691.865,410.176,117.202,-31.221,9.459
8.860,-53.689,-103.155,-93.972,-5.919,79.028,-141.003,313.352,-692.549,414.936,116.764,-31.409,9.687
8.869,-53.688,-103.121,-93.582,-5.919,79.028,-141.002,313.820,-693.159,419.803,116.317,-31.600,9.921
8.879,-53.688,-103.106,-93.381,-5.920,79.029,-141.002,314.061,-693.471,422.260,116.092,-31.695,10.041
8.889,-53.687,-103.076,-92.963,-5.920,79.031,-141.002,314.553,-694.107,427.371,115.620,-31.893,10.292
8.899,-53.685,-103.046,-92.548,-5.918,79.039,-141.002,315.052,-694.687,432.474,115.148,-32.091,10.552
8.910,-53.684,-103.030,-92.343,-5.918,79.044,-141.002,315.287,-694.953,435.018,114.913,-32.189,10.682
8.919,-53.681,-102.988,-91.934,-5.919,79.053,-141.002,315.726,-695.419,440.199,114.434,-32.385,10.948
8.930,-53.678,-102.940,-91.502,-5.920,79.059,-141.002,316.144,-695.861,445.742,113.921,-32.591,11.234
8.940,-53.676,-102.917,-91.282,-5.920,79.060,-141.003,316.340,-696.083,448.542,113.660,-32.694,11.377
8.950,-53.675,-102.870,-90.858,-5.920,79.061,-141.003,316.662,-696.488,453.999,113.151,-32.892,11.655
8.959,-53.672,-102.826,-90.438,-5.920,79.062,-141.003,316.975,-696.855,459.368,112.648,-33.085,11.932
8.969,-53.672,-102.804,-90.222,-5.920,79.062,-141.003,317.124,-697.037,462.128,112.389,-33.182,12.074
8.979,-53.670,-102.763,-89.771,-5.920,79.062,-141.003,317.428,-697.412,467.819,111.852,-33.383,12.371
8.989,-53.669,-102.726,-89.336,-5.919,79.062,-141.003,317.691,-697.749,473.302,111.332,-33.575,12.659
9.000,-53.669,-102.707,-89.119,-5.920,79.062,-141.003,317.809,-697.905,476.021,111.075,-33.668,12.802
9.009,-53.669,-102.674,-88.675,-5.920,79.062,-141.003,318.041,-698.224,481.549,110.548,-33.858,13.094
9.019,-53.671,-102.637,-88.222,-5.920,79.061,-141.004,318.216,-698.510,487.237,110.004,-34.049,13.395
9.030,-53.671,-102.620,-87.999,-5.919,79.061,-141.004,318.300,-698.638,490.020,109.737,-34.143,13.545
9.039,-53.672,-102.585,-87.565,-5.920,79.061,-141.003,318.442,-698.847,495.479,109.213,-34.323,13.838
9.050,-53.673,-102.551,-87.117,-5.920,79.060,-141.004,318.566,-699.045,501.063,108.674,-34.505,14.141
9.059,-53.674,-102.537,-86.887,-5.920,79.060,-141.004,318.618,-699.150,503.914,108.397,-34.598,14.296
9.069,-53.675,-102.504,-86.443,-5.919,79.059,-141.004,318.706,-699.290,509.462,107.858,-34.775,14.602
9.080,-53.676,-102.474,-86.013,-5.920,79.058,-141.004,318.776,-699.403,514.797,107.339,-34.944,14.897
9.089,-53.676,-102.460,-85.789,-5.920,79.058,-141.003,318.814,-699.447,517.565,107.068,-35.031,15.053
9.100,-53.677,-102.430,-85.339,-5.920,79.057,-141.003,318.832,-699.521,523.149,106.521,-35.204,15.365
9.109,-53.678,-102.404,-84.897,-5.918,79.057,-141.004,318.853,-699.570,528.598,105.982,-35.370,15.675
9.119,-53.679,-102.389,-84.685,-5.919,79.057,-141.003,318.842,-699.567,531.246,105.722,-35.450,15.825
9.130,-53.678,-102.363,-84.244,-5.919,79.056,-141.004,318.837,-699.555,536.668,105.185,-35.612,16.137
9.140,-53.679,-102.339,-83.788,-5.919,79.055,-141.004,318.796,-699.537,542.245,104.630,-35.776,16.459
9.150,-53.680,-102.328,-83.562,-5.919,79.055,-141.004,318.770,-699.510,545.007,104.353,-35.855,16.620
9.160,-53.680,-102.303,-83.129,-5.920,79.054,-141.004,318.695,-699.418,550.333,103.822,-36.008,16.931
9.169,-53.680,-102.279,-82.686,-5.920,79.055,-141.004,318.616,-699.297,555.750,103.277,-36.162,17.253
9.179,-53.680,-102.266,-82.462,-5.920,79.054,-141.004,318.546,-699.216,558.516,102.999,-36.239,17.416
9.190,-53.679,-102.237,-81.987,-5.919,79.055,-141.004,318.415,-699.002,564.378,102.406,-36.401,17.770
9.200,-53.678,-102.211,-81.598,-5.920,79.055,-141.004,318.263,-698.777,569.225,101.915,-36.533,18.062
9.209,-53.677,-102.195,-81.381,-5.920,79.056,-141.004,318.177,-698.628,571.935,101.640,-36.606,18.227
9.219,-53.677,-102.170,-80.938,-5.919,79.056,-141.004,317.972,-698.365,577.375,101.085,-36.750,18.559
9.229,-53.677,-102.142,-80.501,-5.919,79.056,-141.004,317.733,-698.038,582.794,100.530,-36.891,18.891
9.240,-53.677,-102.124,-80.290,-5.919,79.056,-141.004,317.594,-697.846,585.451,100.258,-36.959,19.055
9.250,-53.677,-102.094,-79.862,-5.919,79.056,-141.004,317.320,-697.460,590.789,99.709,-37.094,19.386
9.259,-53.678,-102.064,-79.420,-5.919,79.056,-141.004,316.988,-697.047,596.268,99.143,-37.230,19.726
9.269,-53.678,-102.053,-79.199,-5.919,79.056,-141.004,316.849,-696.838,598.970,98.862,-37.296,19.897
9.280,-53.678,-102.025,-78.734,-5.918,79.057,-141.004,316.500,-696.358,604.687,98.267,-37.434,20.259
9.290,-53.677,-102.000,-78.332,-5.919,79.057,-141.004,316.171,-695.900,609.645,97.750,-37.551,20.575
9.300,-53.678,-101.987,-78.110,-5.919,79.057,-141.004,315.978,-695.648,612.372,97.463,-37.615,20.749
9.310,-53.678,-101.958,-77.629,-5.918,79.057,-141.004,315.530,-695.056,618.283,96.842,-37.749,21.128
9.320,-53.679,-101.930,-77.240,-5.918,79.058,-141.004,315.131,-694.514,623.118,96.332,-37.858,21.441
9.330,-53.678,-101.915,-77.022,-5.919,79.058,-141.004,314.910,-694.200,625.815,96.047,-37.917,21.617
9.339,-53.679,-101.873,-76.544,-5.919,79.058,-141.004,314.335,-693.428,631.850,95.409,-38.048,22.009
9.350,-53.678,-101.837,-76.139,-5.919,79.059,-141.004,313.837,-692.729,636.961,94.865,-38.155,22.346
9.359,-53.678,-101.814,-75.929,-5.919,79.059,-141.005,313.545,-692.326,639.659,94.578,-38.210,22.524
9.370,-53.677,-101.770,-75.475,-5.920,79.059,-141.004,312.919,-691.459,645.433,93.962,-38.328,22.906
9.380,-53.678,-101.732,-75.076,-5.920,79.059,-141.005,312.336,-690.684,650.484,93.419,-38.427,23.242
9.389,-53.678,-101.713,-74.856,-5.920,79.059,-141.005,312.021,-690.247,653.250,93.121,-38.481,23.428
9.400,-53.677,-101.675,-74.432,-5.920,79.060,-141.005,311.391,-689.376,658.579,92.546,-38.583,23.788
9.409,-53.677,-101.635,-74.014,-5.921,79.060,-141.005,310.728,-688.466,663.861,91.974,-38.680,24.145
9.420,-53.677,-101.617,-73.800,-5.921,79.060,-141.005,310.390,-688.007,666.531,91.683,-38.729,24.327
9.430,-53.677,-101.582,-73.376,-5.921,79.060,-141.005,309.707,-687.076,671.805,91.107,-38.823,24.688
9.440,-53.676,-101.544,-72.966,-5.921,79.060,-141.005,309.010,-686.114,676.948,90.544,-38.912,25.042
9.449,-53.676,-101.524,-72.766,-5.921,79.060,-141.005,308.642,-685.618,679.483,90.265,-38.955,25.217
9.459,-53.676,-101.480,-72.361,-5.921,79.060,-141.005,307.872,-684.572,684.638,89.699,-39.040,25.573
9.469,-53.677,-101.432,-71.953,-5.922,79.059,-141.005,307.037,-683.462,689.869,89.122,-39.123,25.935
9.479,-53.677,-101.407,-71.756,-5.922,79.059,-141.005,306.627,-682.902,692.407,88.841,-39.163,26.113
9.490,-53.678,-101.358,-71.381,-5.921,79.059,-141.005,305.792,-681.796,697.277,88.301,-39.237,26.452
9.500,-53.679,-101.305,-71.002,-5.921,79.059,-141.005,304.926,-680.624,702.222,87.751,-39.310,26.800
9.509,-53.678,-101.278,-70.810,-5.921,79.059,-141.005,304.479,-680.012,704.726,87.472,-39.345,26.977
9.519,-53.678,-101.232,-70.418,-5.921,79.058,-141.005,303.600,-678.819,709.720,86.913,-39.416,27.331
9.530,-53.680,-101.190,-70.041,-5.920,79.058,-141.005,302.739,-677.670,714.482,86.376,-39.480,27.671
9.540,-53.680,-101.171,-69.860,-5.920,79.059,-141.005,302.318,-677.108,716.767,86.119,-39.510,27.835
9.549,-53.681,-101.127,-69.486,-5.921,79.059,-141.005,301.427,-675.906,721.499,85.584,-39.570,28.176
9.560,-53.681,-101.087,-69.100,-5.921,79.060,-141.004,300.521,-674.671,726.323,85.036,-39.630,28.525
9.570,-53.681,-101.070,-68.909,-5.921,79.059,-141.004,300.081,-674.076,728.666,84.768,-39.657,28.695
9.580,-53.681,-101.040,-68.539,-5.920,79.059,-141.004,299.230,-672.928,733.174,84.251,-39.710,29.025
9.590,-53.681,-101.004,-68.176,-5.920,79.060,-141.004,298.347,-671.717,737.661,83.737,-39.759,29.355
9.599,-53.681,-100.987,-67.992,-5.920,79.060,-141.004,297.902,-671.109,739.907,83.478,-39.783,29.520
9.609,-53.680,-100.950,-67.609,-5.920,79.060,-141.005,296.946,-669.797,744.620,82.935,-39.831,29.869
9.619,-53.679,-100.918,-67.229,-5.919,79.060,-141.005,296.016,-668.504,749.235,82.400,-39.877,30.213
9.630,-53.678,-100.901,-67.046,-5.919,79.060,-141.004,295.552,-667.856,751.468,82.140,-39.898,30.380
9.639,-53.677,-100.865,-66.651,-5.919,79.060,-141.004,294.543,-666.451,756.273,81.581,-39.941,30.741
9.650,-53.676,-100.838,-66.304,-5.919,79.060,-141.004,293.662,-665.234,760.421,81.096,-39.976,31.053
9.659,-53.675,-100.823,-66.110,-5.919,79.060,-141.004,293.160,-664.537,762.752,80.823,-39.995,31.229
9.670,-53.674,-100.801,-65.721,-5.919,79.060,-141.004,292.199,-663.215,767.278,80.289,-40.031,31.573
9.679,-53.675,-100.780,-65.350,-5.919,79.060,-141.004,291.250,-661.925,771.600,79.779,-40.062,31.902
9.689,-53.675,-100.768,-65.163,-5.919,79.061,-141.004,290.753,-661.246,773.795,79.519,-40.077,32.069
9.699,-53.675,-100.744,-64.778,-5.919,79.061,-141.004,289.729,-659.854,778.288,78.985,-40.106,32.413
9.709,-53.675,-100.722,-64.390,-5.919,79.060,-141.004,288.692,-658.445,782.775,78.451,-40.133,32.757
9.720,-53.675,-100.711,-64.201,-5.919,79.060,-141.004,288.171,-657.748,784.960,78.190,-40.146,32.925
9.729,-53.676,-100.691,-63.834,-5.919,79.059,-141.004,287.148,-656.390,789.181,77.684,-40.168,33.249
9.739,-53.678,-100.668,-63.467,-5.919,79.059,-141.004,286.093,-654.984,793.430,77.174,-40.187,33.576
9.750,-53.678,-100.655,-63.279,-5.919,79.059,-141.004,285.538,-654.238,795.621,76.911,-40.197,33.745
9.759,-53.679,-100.633,-62.902,-5.918,79.058,-141.004,284.444,-652.770,799.942,76.389,-40.213,34.081
9.770,-53.680,-100.618,-62.549,-5.918,79.058,-141.004,283.442,-651.427,803.916,75.907,-40.227,34.391
9.779,-53.680,-100.609,-62.348,-5.918,79.058,-141.004,282.867,-650.650,806.169,75.633,-40.234,34.568
9.789,-53.680,-100.591,-62.029,-5.918,79.058,-141.004,281.917,-649.359,809.803,75.191,-40.243,34.853
