hapiel/Chataigne-Fairino-control/ai_recordings/new/wave robotic.csv
t,j1,j2,j3,j4,j5,j6,x,y,z,rx,ry,rz
0.008,-45.107,-102.894,-70.815,-6.023,57.237,-141.011,321.115,-675.228,683.272,89.710,-39.134,12.313
0.019,-45.107,-102.894,-70.814,-6.023,57.237,-141.011,321.116,-675.227,683.274,89.709,-39.134,12.313
0.028,-45.107,-102.894,-70.815,-6.023,57.237,-141.011,321.116,-675.228,683.272,89.710,-39.134,12.313
0.039,-45.107,-102.894,-70.815,-6.023,57.237,-141.011,321.117,-675.226,683.274,89.709,-39.134,12.313
0.048,-45.107,-102.894,-70.815,-6.023,57.237,-141.011,321.117,-675.226,683.273,89.709,-39.134,12.313
0.059,-45.107,-102.894,-70.815,-6.023,57.237,-141.011,321.118,-675.223,683.277,89.709,-39.134,12.314
0.069,-45.107,-102.894,-70.814,-6.023,57.237,-141.011,321.118,-675.223,683.279,89.709,-39.134,12.314
0.079,-45.107,-102.894,-70.814,-6.023,57.237,-141.011,321.116,-675.224,683.279,89.709,-39.134,12.314
0.088,-45.107,-102.894,-70.815,-6.023,57.237,-141.010,321.117,-675.225,683.275,89.709,-39.134,12.313
0.099,-45.107,-102.894,-70.814,-6.023,57.237,-141.011,321.113,-675.226,683.279,89.708,-39.134,12.313
0.108,-45.107,-102.894,-70.815,-6.023,57.237,-141.011,321.116,-675.228,683.272,89.709,-39.134,12.313
0.119,-45.107,-102.895,-70.815,-6.023,57.237,-141.011,321.120,-675.230,683.267,89.710,-39.134,12.313
0.129,-45.107,-102.895,-70.815,-6.023,57.237,-141.010,321.125,-675.233,683.257,89.711,-39.134,12.312
0.139,-45.107,-102.895,-70.815,-6.023,57.237,-141.010,321.126,-675.233,683.255,89.711,-39.133,12.313
0.149,-45.107,-102.896,-70.815,-6.023,57.237,-141.011,321.132,-675.238,683.246,89.712,-39.133,12.312
0.159,-45.107,-102.896,-70.815,-6.023,57.237,-141.010,321.137,-675.238,683.241,89.712,-39.133,12.312
0.169,-45.106,-102.896,-70.815,-6.023,57.237,-141.010,321.137,-675.236,683.245,89.712,-39.133,12.312
0.179,-45.106,-102.896,-70.816,-6.023,57.237,-141.011,321.141,-675.237,683.240,89.712,-39.132,12.312
0.189,-45.106,-102.896,-70.816,-6.023,57.237,-141.010,321.141,-675.236,683.239,89.712,-39.133,12.312
0.199,-45.106,-102.896,-70.816,-6.023,57.237,-141.010,321.140,-675.237,683.239,89.713,-39.133,12.312
0.208,-45.106,-102.896,-70.815,-6.023,57.237,-141.010,321.139,-675.235,683.244,89.712,-39.133,12.312
0.219,-45.106,-102.896,-70.815,-6.023,57.237,-141.011,321.135,-675.234,683.249,89.711,-39.133,12.312
0.229,-45.106,-102.896,-70.815,-6.023,57.237,-141.011,321.135,-675.233,683.249,89.711,-39.133,12.312
0.239,-45.106,-102.895,-70.815,-6.023,57.237,-141.010,321.132,-675.228,683.258,89.710,-39.134,12.313
0.249,-45.106,-102.895,-70.815,-6.023,57.237,-141.011,321.127,-675.226,683.267,89.710,-39.134,12.314
0.259,-45.106,-102.895,-70.815,-6.023,57.237,-141.011,321.127,-675.226,683.266,89.710,-39.134,12.313
0.269,-45.106,-102.895,-70.814,-6.022,57.237,-141.010,321.124,-675.224,683.276,89.708,-39.135,12.314
0.279,-45.107,-102.894,-70.814,-6.022,57.237,-141.010,321.121,-675.224,683.277,89.708,-39.135,12.314
0.289,-45.107,-102.894,-70.814,-6.022,57.237,-141.010,321.120,-675.222,683.280,89.708,-39.135,12.314
0.299,-45.107,-102.894,-70.815,-6.022,57.237,-141.010,321.121,-675.224,683.276,89.708,-39.135,12.314
0.309,-45.107,-102.895,-70.815,-6.022,57.237,-141.010,321.123,-675.229,683.268,89.709,-39.135,12.313
0.319,-45.107,-102.895,-70.815,-6.022,57.237,-141.010,321.128,-675.229,683.262,89.710,-39.134,12.313
0.329,-45.107,-102.895,-70.815,-6.022,57.237,-141.010,321.130,-675.232,683.255,89.711,-39.134,12.313
0.338,-45.107,-102.896,-70.816,-6.022,57.237,-141.011,321.132,-675.234,683.250,89.711,-39.133,12.313
0.348,-45.107,-102.896,-70.815,-6.023,57.237,-141.011,321.132,-675.236,683.248,89.711,-39.133,12.312
0.359,-45.106,-102.896,-70.815,-6.022,57.237,-141.010,321.135,-675.234,683.250,89.711,-39.133,12.313
0.369,-45.106,-102.895,-70.815,-6.023,57.237,-141.010,321.132,-675.232,683.256,89.711,-39.134,12.313
0.379,-45.106,-102.895,-70.815,-6.022,57.237,-141.010,321.131,-675.230,683.259,89.710,-39.134,12.313
0.389,-45.106,-102.895,-70.815,-6.023,57.237,-141.011,321.129,-675.228,683.263,89.710,-39.134,12.313
0.398,-45.106,-102.895,-70.814,-6.023,57.237,-141.011,321.128,-675.224,683.272,89.709,-39.134,12.314
0.409,-45.106,-102.894,-70.815,-6.023,57.237,-141.011,321.124,-675.221,683.275,89.709,-39.134,12.314
0.418,-45.107,-102.893,-70.815,-6.023,57.237,-141.011,321.115,-675.217,683.286,89.708,-39.134,12.314
0.429,-45.107,-102.893,-70.815,-6.023,57.237,-141.010,321.112,-675.216,683.290,89.708,-39.135,12.315
0.439,-45.107,-102.892,-70.814,-6.023,57.237,-141.010,321.107,-675.212,683.299,89.707,-39.135,12.315
0.448,-45.107,-102.891,-70.814,-6.023,57.237,-141.011,321.096,-675.207,683.314,89.706,-39.136,12.315
0.458,-45.107,-102.891,-70.814,-6.023,57.237,-141.011,321.093,-675.201,683.324,89.705,-39.136,12.316
0.469,-45.107,-102.891,-70.814,-6.023,57.237,-141.010,321.088,-675.202,683.327,89.704,-39.137,12.316
0.479,-45.107,-102.891,-70.814,-6.023,57.237,-141.011,321.093,-675.201,683.325,89.705,-39.136,12.316
0.488,-45.107,-102.891,-70.814,-6.023,57.237,-141.011,321.097,-675.206,683.313,89.706,-39.136,12.315
0.499,-45.107,-102.891,-70.814,-6.023,57.237,-141.011,321.099,-675.207,683.311,89.706,-39.135,12.316
0.509,-45.107,-102.892,-70.815,-6.023,57.237,-141.011,321.111,-675.212,683.294,89.708,-39.135,12.315
0.518,-45.106,-102.893,-70.815,-6.023,57.237,-141.011,321.120,-675.215,683.283,89.709,-39.134,12.315
0.529,-45.106,-102.893,-70.815,-6.024,57.237,-141.011,321.126,-675.218,683.272,89.710,-39.134,12.314
0.539,-45.106,-102.894,-70.816,-6.024,57.237,-141.011,321.133,-675.221,683.261,89.712,-39.133,12.313
0.549,-45.106,-102.895,-70.816,-6.025,57.237,-141.011,321.144,-675.226,683.246,89.713,-39.132,12.313
0.558,-45.106,-102.895,-70.816,-6.025,57.237,-141.010,321.146,-675.228,683.241,89.714,-39.132,12.312
0.569,-45.106,-102.895,-70.816,-6.025,57.237,-141.011,321.145,-675.231,683.235,89.715,-39.131,12.311
0.579,-45.106,-102.896,-70.817,-6.026,57.237,-141.011,321.151,-675.234,683.223,89.716,-39.130,12.310
0.588,-45.105,-102.896,-70.817,-6.026,57.237,-141.011,321.156,-675.234,683.218,89.717,-39.130,12.310
0.599,-45.105,-102.896,-70.817,-6.026,57.238,-141.011,321.165,-675.234,683.212,89.718,-39.129,12.311
0.608,-45.105,-102.896,-70.817,-6.027,57.238,-141.011,321.170,-675.237,683.201,89.719,-39.129,12.310
0.618,-45.105,-102.897,-70.818,-6.027,57.238,-141.011,321.175,-675.241,683.191,89.720,-39.128,12.309
0.629,-45.105,-102.897,-70.818,-6.028,57.238,-141.011,321.178,-675.244,683.182,89.722,-39.127,12.309
0.639,-45.105,-102.897,-70.818,-6.028,57.238,-141.011,321.179,-675.246,683.177,89.722,-39.127,12.308
0.649,-45.105,-102.898,-70.818,-6.028,57.238,-141.011,321.181,-675.247,683.175,89.722,-39.127,12.308
0.659,-45.105,-102.898,-70.818,-6.029,57.238,-141.011,321.186,-675.249,683.170,89.723,-39.127,12.308
0.668,-45.105,-102.898,-70.818,-6.029,57.238,-141.011,321.190,-675.254,683.156,89.725,-39.126,12.306
0.679,-45.104,-102.899,-70.819,-6.030,57.238,-141.011,321.198,-675.254,683.147,89.726,-39.125,12.306
0.689,-45.104,-102.900,-70.820,-6.031,57.238,-141.012,321.205,-675.262,683.126,89.729,-39.123,12.305
0.699,-45.104,-102.900,-70.820,-6.032,57.238,-141.012,321.213,-675.272,683.102,89.732,-39.122,12.303
0.708,-45.104,-102.901,-70.821,-6.033,57.238,-141.012,321.224,-675.275,683.086,89.734,-39.121,12.302
0.719,-45.104,-102.902,-70.822,-6.034,57.239,-141.012,321.234,-675.284,683.062,89.737,-39.119,12.300
0.728,-45.104,-102.903,-70.822,-6.035,57.239,-141.011,321.239,-675.291,683.045,89.739,-39.119,12.299
0.738,-45.104,-102.903,-70.822,-6.035,57.239,-141.011,321.239,-675.294,683.043,89.740,-39.118,12.298
0.749,-45.104,-102.903,-70.822,-6.036,57.239,-141.011,321.242,-675.295,683.032,89.741,-39.117,12.297
0.759,-45.104,-102.903,-70.823,-6.036,57.239,-141.011,321.245,-675.299,683.024,89.742,-39.117,12.297
0.768,-45.104,-102.903,-70.823,-6.038,57.239,-141.011,321.244,-675.299,683.020,89.744,-39.116,12.296
0.778,-45.105,-102.903,-70.823,-6.042,57.239,-141.011,321.246,-675.304,683.005,89.748,-39.115,12.293
0.788,-45.105,-102.904,-70.823,-6.042,57.239,-141.011,321.251,-675.308,682.998,89.749,-39.114,12.293
0.798,-45.105,-102.904,-70.823,-6.042,57.239,-141.011,321.251,-675.308,682.997,89.749,-39.114,12.292
0.809,-45.104,-102.904,-70.823,-6.043,57.239,-141.012,321.256,-675.310,682.986,89.751,-39.113,12.292
0.818,-45.104,-102.905,-70.824,-6.044,57.239,-141.012,321.263,-675.319,682.964,89.754,-39.111,12.290
0.828,-45.104,-102.905,-70.824,-6.045,57.239,-141.012,321.266,-675.317,682.961,89.755,-39.110,12.289
0.838,-45.104,-102.905,-70.825,-6.049,57.239,-141.012,321.272,-675.326,682.933,89.760,-39.108,12.286
0.849,-45.104,-102.906,-70.826,-6.053,57.239,-141.012,321.285,-675.336,682.896,89.767,-39.104,12.282
0.859,-45.104,-102.906,-70.826,-6.056,57.239,-141.012,321.291,-675.340,682.882,89.770,-39.103,12.280
0.869,-45.104,-102.907,-70.827,-6.058,57.239,-141.012,321.299,-675.351,682.854,89.775,-39.100,12.277
0.878,-45.104,-102.909,-70.827,-6.062,57.239,-141.012,321.323,-675.369,682.805,89.781,-39.097,12.273
0.888,-45.104,-102.910,-70.828,-6.063,57.239,-141.012,321.332,-675.375,682.788,89.784,-39.096,12.271
0.898,-45.104,-102.912,-70.829,-6.064,57.239,-141.012,321.351,-675.393,682.741,89.789,-39.094,12.268
0.909,-45.104,-102.917,-70.829,-6.066,57.239,-141.012,321.386,-675.425,682.676,89.797,-39.090,12.264
0.919,-45.104,-102.919,-70.830,-6.067,57.239,-141.012,321.402,-675.441,682.639,89.801,-39.087,12.261
0.929,-45.104,-102.923,-70.831,-6.071,57.239,-141.012,321.428,-675.475,682.562,89.810,-39.083,12.254
0.938,-45.104,-102.928,-70.832,-6.075,57.239,-141.012,321.465,-675.518,682.476,89.821,-39.077,12.247
0.949,-45.104,-102.933,-70.832,-6.078,57.239,-141.012,321.498,-675.556,682.404,89.830,-39.073,12.241
0.959,-45.105,-102.949,-70.831,-6.084,57.239,-141.012,321.601,-675.671,682.194,89.853,-39.062,12.226
0.969,-45.106,-102.961,-70.832,-6.090,57.239,-141.012,321.686,-675.767,682.002,89.874,-39.051,12.212
0.978,-45.106,-102.964,-70.834,-6.093,57.239,-141.012,321.704,-675.788,681.950,89.881,-39.047,12.208
0.988,-45.106,-102.967,-70.836,-6.102,57.238,-141.012,321.739,-675.825,681.845,89.897,-39.039,12.197
0.999,-45.107,-102.973,-70.840,-6.114,57.238,-141.012,321.787,-675.887,681.685,89.921,-39.027,12.181
1.009,-45.107,-102.974,-70.843,-6.119,57.238,-141.012,321.800,-675.906,681.626,89.931,-39.022,12.174
1.019,-45.107,-102.975,-70.850,-6.141,57.238,-141.012,321.831,-675.945,681.463,89.962,-39.007,12.154
1.028,-45.107,-102.975,-70.861,-6.174,57.238,-141.012,321.892,-675.997,681.211,90.010,-38.983,12.124
1.038,-45.106,-102.975,-70.867,-6.189,57.237,-141.012,321.923,-676.023,681.084,90.034,-38.971,12.110
1.048,-45.107,-102.975,-70.883,-6.242,57.237,-141.012,321.995,-676.101,680.724,90.107,-38.934,12.063
1.059,-45.107,-102.976,-70.888,-6.326,57.237,-141.012,322.095,-676.204,680.333,90.205,-38.885,12.002
1.068,-45.107,-102.977,-70.887,-6.384,57.237,-141.012,322.159,-676.267,680.112,90.268,-38.854,11.962
1.079,-45.107,-102.975,-70.887,-6.528,57.237,-141.012,322.297,-676.406,679.580,90.421,-38.776,11.866
1.089,-45.106,-102.976,-70.888,-6.679,57.237,-141.012,322.465,-676.562,678.983,90.585,-38.693,11.764
1.098,-45.106,-102.975,-70.888,-6.756,57.237,-141.012,322.543,-676.635,678.695,90.667,-38.650,11.713
1.109,-45.105,-102.974,-70.885,-6.940,57.237,-141.012,322.718,-676.801,678.045,90.859,-38.552,11.594
1.118,-45.105,-102.973,-70.885,-7.139,57.237,-141.012,322.910,-676.993,677.295,91.070,-38.444,11.463
1.129,-45.106,-102.972,-70.885,-7.240,57.237,-141.012,323.001,-677.093,676.915,91.177,-38.388,11.396
1.139,-45.107,-102.970,-70.884,-7.470,57.237,-141.012,323.193,-677.307,676.079,91.417,-38.264,11.245
1.148,-45.106,-102.970,-70.884,-7.731,57.236,-141.012,323.447,-677.559,675.078,91.693,-38.119,11.075
1.158,-45.106,-102.970,-70.885,-7.878,57.236,-141.012,323.597,-677.703,674.495,91.850,-38.036,10.978
1.169,-45.106,-102.971,-70.885,-8.181,57.236,-141.012,323.894,-677.998,673.308,92.170,-37.866,10.782
1.179,-45.106,-102.972,-70.886,-8.499,57.237,-141.012,324.200,-678.301,672.063,92.504,-37.686,10.577
1.188,-45.106,-102.972,-70.886,-8.661,57.237,-141.012,324.351,-678.451,671.434,92.674,-37.594,10.474
1.198,-45.107,-102.971,-70.885,-9.001,57.237,-141.012,324.642,-678.766,670.130,93.026,-37.402,10.258
1.209,-45.108,-102.970,-70.884,-9.405,57.236,-141.012,324.971,-679.123,668.601,93.439,-37.173,10.006
1.219,-45.108,-102.969,-70.884,-9.571,57.236,-141.012,325.115,-679.265,667.965,93.609,-37.079,9.904
1.229,-45.108,-102.968,-70.883,-9.982,57.237,-141.011,325.470,-679.613,666.383,94.029,-36.844,9.652
1.239,-45.107,-102.969,-70.884,-10.438,57.237,-141.011,325.870,-680.004,664.586,94.494,-36.579,9.375
1.249,-45.108,-102.970,-70.884,-10.617,57.237,-141.012,326.020,-680.157,663.874,94.676,-36.474,9.266
1.258,-45.107,-102.971,-70.885,-11.060,57.237,-141.012,326.397,-680.530,662.106,95.125,-36.213,9.001
1.268,-45.108,-102.972,-70.886,-11.541,57.237,-141.012,326.773,-680.921,660.206,95.607,-35.930,8.716
1.278,-45.108,-102.973,-70.886,-11.785,57.237,-141.011,326.967,-681.116,659.234,95.852,-35.785,8.573
1.288,-45.108,-102.973,-70.887,-12.290,57.237,-141.011,327.351,-681.500,657.240,96.352,-35.485,8.281
1.298,-45.107,-102.973,-70.886,-12.847,57.237,-141.011,327.768,-681.899,655.054,96.897,-35.152,7.967
1.308,-45.107,-102.973,-70.885,-13.072,57.237,-141.012,327.927,-682.059,654.171,97.116,-35.017,7.841
1.318,-45.107,-102.972,-70.886,-13.628,57.237,-141.011,328.312,-682.439,651.976,97.655,-34.682,7.534
1.329,-45.107,-102.972,-70.885,-14.238,57.238,-141.012,328.712,-682.848,649.557,98.242,-34.310,7.201
1.338,-45.107,-102.972,-70.885,-14.468,57.238,-141.011,328.864,-682.997,648.638,98.462,-34.169,7.078
1.349,-45.107,-102.973,-70.886,-15.060,57.238,-141.011,329.234,-683.373,646.266,99.027,-33.804,6.762
1.358,-45.107,-102.973,-70.888,-15.705,57.239,-141.011,329.635,-683.760,643.659,99.637,-33.402,6.425
1.369,-45.107,-102.974,-70.887,-15.959,57.239,-141.012,329.780,-683.909,642.643,99.875,-33.244,6.295
1.378,-45.106,-102.973,-70.888,-16.566,57.239,-141.011,330.123,-684.234,640.215,100.439,-32.865,5.988
1.389,-45.106,-102.973,-70.887,-17.209,57.239,-141.011,330.451,-684.562,637.657,101.030,-32.461,5.669
1.399,-45.106,-102.972,-70.887,-17.526,57.240,-141.011,330.609,-684.718,636.381,101.321,-32.260,5.514
1.409,-45.106,-102.972,-70.885,-18.171,57.240,-141.011,330.903,-685.022,633.808,101.906,-31.851,5.203
1.419,-45.106,-102.971,-70.885,-18.849,57.241,-141.011,331.198,-685.311,631.093,102.516,-31.418,4.884
1.428,-45.106,-102.971,-70.885,-19.181,57.241,-141.011,331.341,-685.449,629.744,102.814,-31.203,4.730
1.439,-45.106,-102.971,-70.886,-19.846,57.241,-141.011,331.607,-685.707,627.044,103.407,-30.773,4.425
1.449,-45.106,-102.971,-70.885,-20.548,57.242,-141.011,331.855,-685.958,624.211,104.024,-30.316,4.112
1.459,-45.105,-102.971,-70.886,-20.896,57.242,-141.011,331.981,-686.068,622.785,104.330,-30.088,3.959
1.468,-45.105,-102.972,-70.887,-21.592,57.243,-141.011,332.201,-686.282,619.941,104.937,-29.629,3.658
1.478,-45.105,-102.971,-70.886,-22.316,57.243,-141.011,332.386,-686.474,617.022,105.558,-29.152,3.353
1.489,-45.105,-102.971,-70.886,-22.669,57.243,-141.011,332.471,-686.558,615.580,105.861,-28.917,3.206
1.499,-45.105,-102.972,-70.886,-23.394,57.244,-141.011,332.640,-686.711,612.624,106.477,-28.434,2.912
1.509,-45.105,-102.971,-70.884,-24.141,57.244,-141.011,332.753,-686.838,609.619,107.102,-27.935,2.616
1.519,-45.105,-102.971,-70.884,-24.513,57.244,-141.011,332.809,-686.893,608.104,107.413,-27.684,2.471
1.528,-45.104,-102.971,-70.885,-25.253,57.245,-141.010,332.914,-686.980,605.067,108.029,-27.183,2.188
1.538,-45.105,-102.971,-70.884,-26.020,57.245,-141.010,332.967,-687.045,601.956,108.658,-26.663,1.903
1.549,-45.105,-102.971,-70.885,-26.397,57.245,-141.011,332.992,-687.069,600.396,108.968,-26.404,1.765
1.559,-45.105,-102.973,-70.886,-27.141,57.246,-141.011,333.028,-687.091,597.327,109.574,-25.892,1.499
1.569,-45.104,-102.972,-70.885,-27.981,57.248,-141.011,333.024,-687.071,593.915,110.248,-25.315,1.210
1.578,-45.105,-102.972,-70.886,-28.299,57.249,-141.011,333.011,-687.057,592.611,110.503,-25.095,1.102
1.589,-45.104,-102.973,-70.886,-29.073,57.251,-141.011,332.977,-686.997,589.443,111.118,-24.559,0.847
1.598,-45.104,-102.971,-70.885,-29.879,57.252,-141.011,332.886,-686.896,586.188,111.751,-23.999,0.588
1.609,-45.104,-102.971,-70.885,-30.279,57.253,-141.011,332.832,-686.842,584.550,112.064,-23.719,0.461
1.619,-45.103,-102.972,-70.886,-31.072,57.253,-141.011,332.708,-686.702,581.306,112.681,-23.162,0.217
1.629,-45.103,-102.972,-70.885,-31.883,57.254,-141.011,332.540,-686.527,578.013,113.305,-22.591,-0.025
1.638,-45.103,-102.972,-70.885,-32.284,57.254,-141.011,332.450,-686.431,576.373,113.612,-22.308,-0.142
1.649,-45.102,-102.972,-70.886,-33.101,57.255,-141.011,332.235,-686.203,573.054,114.234,-21.728,-0.374
1.658,-45.102,-102.972,-70.886,-33.915,57.255,-141.011,331.986,-685.942,569.750,114.849,-21.149,-0.597
1.669,-45.102,-102.972,-70.886,-34.318,57.255,-141.011,331.850,-685.805,568.116,115.151,-20.861,-0.706
1.679,-45.101,-102.971,-70.885,-35.154,57.256,-141.011,331.536,-685.480,564.754,115.773,-20.264,-0.923
1.688,-45.101,-102.971,-70.885,-35.968,57.259,-141.011,331.210,-685.138,561.457,116.377,-19.680,-1.127
1.698,-45.101,-102.971,-70.885,-36.377,57.260,-141.011,331.037,-684.951,559.811,116.678,-19.386,-1.227
1.708,-45.101,-102.970,-70.885,-37.281,57.261,-141.011,330.598,-684.511,556.190,117.339,-18.735,-1.442
1.719,-45.101,-102.971,-70.885,-38.023,57.261,-141.011,330.218,-684.127,553.199,117.879,-18.196,-1.613
1.729,-45.101,-102.970,-70.884,-38.445,57.261,-141.011,329.982,-683.892,551.523,118.184,-17.891,-1.707
1.738,-45.102,-102.970,-70.884,-39.271,57.261,-141.011,329.503,-683.415,548.216,118.778,-17.290,-1.887
1.748,-45.102,-102.971,-70.885,-40.089,57.261,-141.011,329.000,-682.912,544.928,119.365,-16.691,-2.058
1.758,-45.102,-102.971,-70.885,-40.512,57.261,-141.011,328.723,-682.633,543.262,119.664,-16.382,-2.144
1.768,-45.102,-102.971,-70.885,-41.342,57.261,-141.011,328.158,-682.069,539.963,120.252,-15.774,-2.307
1.778,-45.102,-102.971,-70.885,-42.187,57.261,-141.007,327.540,-681.459,536.630,120.847,-15.157,-2.468
1.788,-45.102,-102.970,-70.885,-42.595,57.261,-141.004,327.234,-681.146,535.021,121.134,-14.858,-2.543
1.799,-45.102,-102.971,-70.885,-43.419,57.261,-141.001,326.591,-680.506,531.783,121.709,-14.254,-2.690
1.809,-45.102,-102.970,-70.885,-44.256,57.261,-141.001,325.902,-679.809,528.512,122.290,-13.635,-2.829
1.818,-45.102,-102.971,-70.885,-44.669,57.261,-141.002,325.551,-679.459,526.902,122.575,-13.329,-2.896
1.829,-45.102,-102.970,-70.884,-45.555,57.261,-141.002,324.768,-678.671,523.469,123.185,-12.673,-3.033
1.838,-45.102,-102.970,-70.885,-46.300,57.261,-141.002,324.083,-677.979,520.587,123.695,-12.119,-3.142
1.849,-45.102,-102.970,-70.884,-46.701,57.262,-141.002,323.707,-677.597,519.041,123.969,-11.821,-3.198
1.858,-45.102,-102.970,-70.884,-47.525,57.262,-141.002,322.899,-676.786,515.885,124.530,-11.208,-3.310
1.869,-45.102,-102.970,-70.884,-48.338,57.262,-141.002,322.071,-675.954,512.782,125.081,-10.601,-3.414
1.879,-45.102,-102.971,-70.884,-48.735,57.262,-141.002,321.660,-675.541,511.259,125.350,-10.304,-3.463
1.889,-45.101,-102.969,-70.884,-49.552,57.262,-141.002,320.782,-674.651,508.187,125.900,-9.694,-3.558
1.898,-45.101,-102.969,-70.884,-50.337,57.262,-141.002,319.914,-673.777,505.229,126.427,-9.107,-3.644
1.908,-45.101,-102.969,-70.884,-50.732,57.262,-141.002,319.466,-673.325,503.747,126.692,-8.810,-3.685
1.919,-45.100,-102.968,-70.883,-51.533,57.262,-141.002,318.534,-672.380,500.774,127.227,-8.210,-3.763
1.929,-45.100,-102.969,-70.883,-52.310,57.262,-141.002,317.603,-671.445,497.884,127.745,-7.626,-3.835
1.939,-45.100,-102.969,-70.883,-52.705,57.262,-141.002,317.119,-670.956,496.431,128.007,-7.330,-3.869
1.948,-45.101,-102.968,-70.883,-53.481,57.263,-141.002,316.136,-669.980,493.592,128.521,-6.747,-3.932
1.959,-45.101,-102.969,-70.883,-54.225,57.263,-141.002,315.181,-669.018,490.863,129.015,-6.186,-3.988
1.969,-45.101,-102.968,-70.882,-54.612,57.263,-141.002,314.668,-668.505,489.476,129.270,-5.895,-4.014
1.979,-45.101,-102.967,-70.882,-55.362,57.263,-141.002,313.663,-667.492,486.775,129.764,-5.331,-4.063
1.988,-45.101,-102.967,-70.883,-56.087,57.263,-141.002,312.663,-666.492,484.170,130.243,-4.783,-4.105
1.999,-45.101,-102.967,-70.881,-56.462,57.263,-141.002,312.139,-665.965,482.851,130.488,-4.501,-4.125
2.008,-45.101,-102.966,-70.882,-57.180,57.263,-141.002,311.111,-664.940,480.300,130.960,-3.959,-4.160
2.019,-45.102,-102.966,-70.882,-57.927,57.263,-141.002,310.025,-663.853,477.666,131.450,-3.395,-4.192
2.029,-45.102,-102.966,-70.881,-58.226,57.263,-141.002,309.582,-663.409,476.633,131.646,-3.170,-4.203
2.039,-45.102,-102.965,-70.882,-58.913,57.263,-141.002,308.546,-662.373,474.238,132.096,-2.650,-4.226
2.048,-45.102,-102.965,-70.883,-59.574,57.264,-141.001,307.538,-661.360,471.941,132.530,-2.150,-4.244
2.059,-45.102,-102.964,-70.881,-59.908,57.264,-141.002,307.019,-660.843,470.811,132.747,-1.899,-4.252
2.069,-45.102,-102.964,-70.882,-60.556,57.264,-141.002,306.003,-659.818,468.602,133.170,-1.410,-4.264
2.079,-45.102,-102.964,-70.882,-61.163,57.264,-141.001,305.037,-658.845,466.532,133.568,-0.950,-4.272
2.088,-45.102,-102.963,-70.881,-61.468,57.264,-141.001,304.536,-658.352,465.519,133.767,-0.721,-4.275
2.098,-45.102,-102.961,-70.879,-62.085,57.264,-141.001,303.526,-657.335,463.488,134.167,-0.257,-4.279
2.109,-45.102,-102.960,-70.879,-62.669,57.265,-141.001,302.561,-656.355,461.545,134.549,0.184,-4.278
2.118,-45.102,-102.959,-70.879,-62.951,57.264,-141.001,302.082,-655.879,460.627,134.732,0.397,-4.277
2.129,-45.102,-102.957,-70.876,-63.515,57.264,-141.001,301.121,-654.919,458.809,135.098,0.820,-4.274
2.138,-45.101,-102.955,-70.878,-64.056,57.265,-141.001,300.196,-653.977,457.038,135.451,1.229,-4.266
2.148,-45.101,-102.955,-70.877,-64.315,57.265,-141.001,299.749,-653.527,456.197,135.621,1.425,-4.262
2.159,-45.101,-102.955,-70.877,-64.812,57.264,-141.001,298.878,-652.658,454.595,135.945,1.800,-4.254
2.169,-45.101,-102.955,-70.876,-65.293,57.264,-141.001,298.030,-651.805,453.050,136.259,2.163,-4.243
2.178,-45.101,-102.954,-70.877,-65.560,57.265,-141.001,297.554,-651.321,452.190,136.435,2.365,-4.236
2.189,-45.102,-102.954,-70.876,-65.955,57.264,-141.001,296.839,-650.615,450.942,136.692,2.663,-4.225
2.199,-45.102,-102.953,-70.877,-66.352,57.264,-141.000,296.118,-649.891,449.683,136.953,2.963,-4.213
2.209,-45.102,-102.954,-70.876,-66.539,57.264,-141.001,295.777,-649.553,449.091,137.075,3.105,-4.206
2.218,-45.102,-102.953,-70.877,-66.893,57.264,-141.001,295.125,-648.902,447.980,137.307,3.372,-4.193
2.228,-45.103,-102.952,-70.875,-67.234,57.264,-141.001,294.483,-648.276,446.928,137.529,3.629,-4.181
2.238,-45.103,-102.953,-70.876,-67.412,57.264,-141.001,294.153,-647.945,446.363,137.647,3.764,-4.173
2.248,-45.104,-102.953,-70.876,-67.667,57.264,-141.000,293.669,-647.471,445.568,137.814,3.957,-4.163
2.258,-45.105,-102.953,-70.876,-67.906,57.263,-141.001,293.210,-647.034,444.825,137.971,4.138,-4.153
2.269,-45.105,-102.954,-70.876,-68.013,57.262,-141.000,293.002,-646.834,444.485,138.041,4.219,-4.149
2.279,-45.106,-102.954,-70.877,-68.186,57.262,-141.001,292.671,-646.512,443.937,138.156,4.351,-4.141
2.289,-45.106,-102.954,-70.876,-68.338,57.262,-141.001,292.375,-646.227,443.483,138.255,4.466,-4.133
2.298,-45.107,-102.954,-70.877,-68.407,57.262,-141.001,292.239,-646.099,443.267,138.300,4.518,-4.130
2.309,-45.107,-102.955,-70.877,-68.504,57.262,-141.002,292.056,-645.919,442.947,138.365,4.593,-4.125
2.319,-45.108,-102.955,-70.877,-68.558,57.261,-141.002,291.942,-645.824,442.787,138.400,4.634,-4.124
2.329,-45.108,-102.956,-70.876,-68.576,57.261,-141.002,291.908,-645.793,442.737,138.412,4.648,-4.122
2.339,-45.108,-102.955,-70.877,-68.608,57.261,-141.002,291.849,-645.729,442.635,138.433,4.672,-4.121
2.349,-45.108,-102.955,-70.875,-68.644,57.261,-141.002,291.776,-645.660,442.545,138.455,4.698,-4.119
2.358,-45.108,-102.954,-70.875,-68.667,57.261,-141.002,291.731,-645.615,442.490,138.469,4.714,-4.118
2.369,-45.108,-102.954,-70.875,-68.718,57.260,-141.002,291.638,-645.517,442.331,138.503,4.753,-4.115
2.379,-45.107,-102.956,-70.877,-68.767,57.260,-141.002,291.555,-645.421,442.142,138.538,4.793,-4.112
2.388,-45.107,-102.956,-70.877,-68.785,57.260,-141.002,291.520,-645.392,442.077,138.550,4.807,-4.111
2.398,-45.107,-102.958,-70.878,-68.799,57.260,-141.002,291.504,-645.368,442.003,138.561,4.820,-4.109
2.408,-45.106,-102.959,-70.878,-68.798,57.260,-141.002,291.518,-645.367,441.995,138.561,4.820,-4.108
2.418,-45.105,-102.959,-70.877,-68.798,57.260,-141.003,291.524,-645.364,442.008,138.560,4.819,-4.107
2.428,-45.104,-102.957,-70.876,-68.798,57.260,-141.003,291.539,-645.352,442.038,138.558,4.817,-4.106
2.438,-45.102,-102.956,-70.875,-68.798,57.260,-141.003,291.557,-645.340,442.058,138.557,4.816,-4.104
2.449,-45.102,-102.955,-70.875,-68.797,57.261,-141.002,291.558,-645.337,442.068,138.557,4.814,-4.104
2.459,-45.102,-102.955,-70.875,-68.797,57.260,-141.003,291.554,-645.340,442.082,138.555,4.814,-4.104
2.468,-45.103,-102.956,-70.875,-68.797,57.260,-141.002,291.547,-645.345,442.065,138.557,4.815,-4.105
2.479,-45.103,-102.956,-70.876,-68.797,57.260,-141.002,291.539,-645.347,442.060,138.557,4.815,-4.106
2.488,-45.104,-102.956,-70.876,-68.798,57.260,-141.003,291.532,-645.351,442.050,138.557,4.817,-4.106
2.498,-45.104,-102.957,-70.877,-68.798,57.259,-141.003,291.528,-645.354,442.042,138.558,4.818,-4.107
2.508,-45.104,-102.957,-70.877,-68.798,57.259,-141.003,291.527,-645.355,442.039,138.558,4.818,-4.107
2.518,-45.105,-102.956,-70.876,-68.798,57.259,-141.002,291.521,-645.358,442.053,138.557,4.816,-4.108
2.528,-45.106,-102.956,-70.875,-68.798,57.259,-141.002,291.511,-645.363,442.066,138.556,4.815,-4.109
2.539,-45.106,-102.956,-70.875,-68.797,57.259,-141.002,291.501,-645.368,442.067,138.556,4.815,-4.110
2.549,-45.107,-102.956,-70.875,-68.797,57.259,-141.002,291.497,-645.372,442.066,138.555,4.816,-4.110
2.558,-45.107,-102.958,-70.875,-68.797,57.259,-141.002,291.504,-645.375,442.041,138.557,4.817,-4.110
2.569,-45.106,-102.959,-70.876,-68.798,57.259,-141.003,291.510,-645.378,442.020,138.559,4.819,-4.110
2.578,-45.105,-102.961,-70.877,-68.798,57.259,-141.003,291.527,-645.377,441.983,138.561,4.822,-4.108
2.588,-45.106,-102.964,-70.878,-68.799,57.259,-141.002,291.533,-645.386,441.947,138.563,4.824,-4.108
2.598,-45.105,-102.965,-70.878,-68.798,57.259,-141.003,291.542,-645.389,441.936,138.564,4.825,-4.108
2.608,-45.105,-102.965,-70.877,-68.798,57.259,-141.003,291.541,-645.392,441.936,138.564,4.825,-4.108
2.618,-45.106,-102.964,-70.876,-68.798,57.259,-141.003,291.534,-645.391,441.961,138.562,4.823,-4.108
2.628,-45.106,-102.964,-70.876,-68.798,57.259,-141.002,291.535,-645.389,441.968,138.562,4.823,-4.108
2.639,-45.105,-102.962,-70.876,-68.798,57.259,-141.003,291.535,-645.383,441.986,138.561,4.822,-4.108
2.648,-45.105,-102.962,-70.876,-68.798,57.259,-141.003,291.537,-645.380,441.992,138.560,4.821,-4.108
2.658,-45.105,-102.962,-70.876,-68.798,57.259,-141.003,291.536,-645.380,441.994,138.560,4.821,-4.108
2.668,-45.105,-102.962,-70.876,-68.798,57.259,-141.003,291.535,-645.381,441.986,138.560,4.822,-4.108
2.678,-45.106,-102.962,-70.877,-68.798,57.259,-141.003,291.527,-645.383,441.980,138.561,4.822,-4.108
2.688,-45.106,-102.962,-70.877,-68.798,57.258,-141.003,291.520,-645.385,441.988,138.560,4.822,-4.109
2.698,-45.106,-102.960,-70.876,-68.798,57.259,-141.003,291.514,-645.380,442.011,138.559,4.820,-4.109
2.709,-45.106,-102.959,-70.875,-68.797,57.258,-141.003,291.510,-645.379,442.042,138.557,4.818,-4.109
2.718,-45.106,-102.958,-70.874,-68.798,57.258,-141.004,291.511,-645.373,442.056,138.556,4.818,-4.109
2.728,-45.106,-102.957,-70.874,-68.797,57.258,-141.003,291.509,-645.372,442.065,138.555,4.817,-4.109
2.738,-45.106,-102.958,-70.875,-68.798,57.258,-141.003,291.509,-645.375,442.049,138.556,4.818,-4.109
2.749,-45.106,-102.959,-70.875,-68.798,57.258,-141.003,291.512,-645.377,442.033,138.558,4.819,-4.109
2.759,-45.106,-102.961,-70.876,-68.798,57.258,-141.003,291.517,-645.383,442.004,138.559,4.821,-4.109
2.768,-45.106,-102.962,-70.877,-68.798,57.258,-141.003,291.524,-645.385,441.978,138.561,4.823,-4.109
2.778,-45.106,-102.963,-70.877,-68.799,57.259,-141.003,291.523,-645.387,441.968,138.562,4.824,-4.108
2.789,-45.106,-102.963,-70.876,-68.798,57.258,-141.003,291.526,-645.389,441.972,138.561,4.824,-4.109
2.799,-45.106,-102.963,-70.876,-68.798,57.258,-141.003,291.527,-645.388,441.984,138.561,4.822,-4.109
2.808,-45.106,-102.962,-70.876,-68.798,57.258,-141.003,291.523,-645.388,441.988,138.560,4.822,-4.109
2.819,-45.106,-102.962,-70.875,-68.798,57.258,-141.003,291.527,-645.388,441.989,138.560,4.822,-4.109
2.829,-45.106,-102.962,-70.875,-68.798,57.258,-141.003,291.520,-645.391,441.988,138.560,4.822,-4.109
2.838,-45.106,-102.963,-70.876,-68.798,57.258,-141.003,291.524,-645.392,441.981,138.561,4.822,-4.109
2.848,-45.106,-102.963,-70.877,-68.798,57.259,-141.003,291.523,-645.390,441.970,138.562,4.823,-4.109
2.859,-45.106,-102.963,-70.877,-68.798,57.258,-141.003,291.520,-645.391,441.972,138.561,4.823,-4.109
2.868,-45.106,-102.962,-70.877,-68.798,57.258,-141.003,291.519,-645.390,441.977,138.561,4.823,-4.109
2.878,-45.106,-102.961,-70.876,-68.798,57.258,-141.003,291.516,-645.386,441.995,138.560,4.822,-4.109
2.888,-45.106,-102.960,-70.875,-68.798,57.259,-141.003,291.515,-645.382,442.017,138.559,4.820,-4.109
2.898,-45.106,-102.960,-70.875,-68.798,57.258,-141.003,291.513,-645.381,442.029,138.558,4.819,-4.109
2.908,-45.106,-102.959,-70.874,-68.797,57.258,-141.003,291.511,-645.379,442.042,138.557,4.818,-4.110
2.919,-45.106,-102.959,-70.874,-68.797,57.258,-141.003,291.510,-645.379,442.045,138.557,4.818,-4.110
2.928,-45.106,-102.959,-70.874,-68.797,57.258,-141.003,291.511,-645.378,442.044,138.557,4.818,-4.109
2.938,-45.106,-102.959,-70.875,-68.798,57.259,-141.003,291.516,-645.377,442.025,138.558,4.819,-4.109
2.948,-45.106,-102.960,-70.876,-68.798,57.258,-141.003,291.520,-645.376,442.012,138.559,4.820,-4.108
2.958,-45.106,-102.960,-70.876,-68.798,57.258,-141.003,291.520,-645.379,442.006,138.559,4.821,-4.109
2.969,-45.106,-102.961,-70.876,-68.798,57.258,-141.003,291.520,-645.382,442.001,138.560,4.821,-4.109
2.978,-45.106,-102.961,-70.876,-68.798,57.258,-141.003,291.524,-645.383,442.001,138.559,4.821,-4.109
2.989,-45.106,-102.961,-70.875,-68.798,57.258,-141.003,291.521,-645.385,442.001,138.560,4.821,-4.109
2.999,-45.106,-102.962,-70.875,-68.798,57.258,-141.003,291.520,-645.386,441.999,138.559,4.821,-4.109
3.009,-45.106,-102.962,-70.876,-68.798,57.258,-141.003,291.522,-645.388,441.990,138.560,4.822,-4.109
3.019,-45.106,-102.962,-70.876,-68.798,57.258,-141.003,291.524,-645.388,441.988,138.560,4.822,-4.109
3.029,-45.106,-102.963,-70.876,-68.798,57.258,-141.002,291.523,-645.390,441.973,138.561,4.823,-4.109
3.039,-45.106,-102.963,-70.877,-68.799,57.258,-141.003,291.520,-645.392,441.967,138.562,4.824,-4.109
3.048,-45.107,-102.963,-70.877,-68.798,57.258,-141.003,291.520,-645.393,441.965,138.562,4.824,-4.109
3.059,-45.106,-102.963,-70.876,-68.798,57.258,-141.003,291.521,-645.391,441.975,138.561,4.823,-4.109
3.069,-45.107,-102.962,-70.876,-68.797,57.258,-141.003,291.514,-645.392,441.985,138.560,4.822,-4.110
3.078,-45.107,-102.962,-70.877,-68.797,57.258,-141.003,291.512,-645.390,441.980,138.561,4.823,-4.110
3.089,-45.107,-102.963,-70.878,-68.798,57.258,-141.003,291.506,-645.394,441.962,138.562,4.824,-4.110
3.099,-45.109,-102.964,-70.879,-68.798,57.258,-141.003,291.494,-645.402,441.937,138.563,4.826,-4.111
3.109,-45.109,-102.964,-70.880,-68.798,57.258,-141.003,291.495,-645.402,441.921,138.565,4.827,-4.111
3.119,-45.110,-102.965,-70.882,-68.799,57.258,-141.003,291.484,-645.409,441.882,138.567,4.830,-4.112
3.129,-45.110,-102.965,-70.882,-68.798,57.258,-141.003,291.477,-645.410,441.894,138.566,4.829,-4.113
3.139,-45.110,-102.964,-70.881,-68.798,57.258,-141.003,291.475,-645.411,441.909,138.565,4.828,-4.113
3.149,-45.110,-102.963,-70.880,-68.798,57.258,-141.003,291.470,-645.406,441.936,138.564,4.826,-4.113
3.159,-45.111,-102.962,-70.879,-68.798,57.258,-141.003,291.465,-645.407,441.960,138.562,4.824,-4.114
3.169,-45.111,-102.962,-70.879,-68.797,57.258,-141.003,291.463,-645.406,441.964,138.562,4.824,-4.114
3.179,-45.111,-102.962,-70.879,-68.797,57.258,-141.003,291.469,-645.409,441.953,138.562,4.825,-4.113
3.189,-45.110,-102.964,-70.881,-68.797,57.258,-141.003,291.479,-645.407,441.923,138.564,4.826,-4.113
3.199,-45.109,-102.965,-70.882,-68.798,57.258,-141.003,291.488,-645.408,441.899,138.566,4.828,-4.112
3.209,-45.107,-102.968,-70.883,-68.798,57.258,-141.003,291.520,-645.406,441.846,138.569,4.832,-4.110
3.219,-45.104,-102.971,-70.886,-68.798,57.258,-141.003,291.562,-645.397,441.793,138.572,4.835,-4.106
3.228,-45.103,-102.972,-70.887,-68.798,57.258,-141.003,291.579,-645.396,441.761,138.574,4.838,-4.105
3.239,-45.102,-102.976,-70.887,-68.798,57.259,-141.003,291.606,-645.402,441.719,138.577,4.840,-4.103
3.249,-45.102,-102.977,-70.887,-68.798,57.258,-141.003,291.608,-645.408,441.703,138.578,4.842,-4.104
3.259,-45.102,-102.978,-70.887,-68.798,57.258,-141.003,291.611,-645.411,441.698,138.578,4.842,-4.104
3.268,-45.103,-102.978,-70.886,-68.798,57.259,-141.003,291.605,-645.415,441.699,138.578,4.842,-4.104
3.279,-45.103,-102.978,-70.886,-68.798,57.259,-141.003,291.600,-645.419,441.697,138.578,4.842,-4.105
3.289,-45.104,-102.978,-70.886,-68.797,57.258,-141.003,291.590,-645.422,441.707,138.577,4.841,-4.105
3.299,-45.103,-102.978,-70.886,-68.797,57.258,-141.003,291.601,-645.422,441.704,138.577,4.841,-4.105
3.309,-45.103,-102.981,-70.890,-68.798,57.259,-141.003,291.611,-645.421,441.626,138.582,4.847,-4.104
3.318,-45.103,-102.983,-70.893,-68.798,57.259,-141.003,291.614,-645.426,441.576,138.585,4.850,-4.104
3.329,-45.105,-102.992,-70.899,-68.798,57.259,-141.003,291.613,-645.462,441.418,138.595,4.861,-4.105
3.339,-45.111,-103.002,-70.911,-68.797,57.258,-141.003,291.575,-645.514,441.180,138.609,4.878,-4.109
3.348,-45.113,-103.005,-70.919,-68.797,57.258,-141.003,291.543,-645.526,441.067,138.616,4.886,-4.111
3.358,-45.121,-103.003,-70.944,-68.797,57.257,-141.003,291.415,-645.525,440.839,138.631,4.904,-4.118
3.368,-45.128,-103.002,-70.978,-68.797,57.257,-141.003,291.274,-645.509,440.521,138.652,4.929,-4.124
3.379,-45.131,-103.004,-70.992,-68.797,57.257,-141.003,291.234,-645.509,440.356,138.663,4.941,-4.125
3.389,-45.136,-103.006,-71.025,-68.796,57.257,-141.003,291.138,-645.500,440.003,138.686,4.968,-4.129
3.398,-45.136,-103.010,-71.069,-68.796,57.257,-141.003,291.087,-645.453,439.534,138.717,5.003,-4.126
3.409,-45.135,-103.012,-71.099,-68.796,57.258,-141.003,291.066,-645.412,439.207,138.739,5.027,-4.123
3.419,-45.135,-103.015,-71.170,-68.797,57.258,-141.003,290.984,-645.317,438.465,138.788,5.083,-4.118
3.428,-45.131,-103.015,-71.254,-68.796,57.258,-141.003,290.904,-645.179,437.637,138.843,5.146,-4.110
3.439,-45.130,-103.015,-71.301,-68.796,57.258,-141.003,290.852,-645.105,437.171,138.874,5.182,-4.105
3.449,-45.125,-103.016,-71.408,-68.796,57.258,-141.003,290.749,-644.929,436.111,138.945,5.262,-4.095
3.458,-45.120,-103.015,-71.545,-68.795,57.259,-141.003,290.607,-644.696,434.775,139.034,5.363,-4.081
3.469,-45.120,-103.013,-71.605,-68.794,57.258,-141.003,290.518,-644.602,434.193,139.072,5.408,-4.077
3.479,-45.121,-103.011,-71.769,-68.794,57.258,-141.003,290.251,-644.356,432.601,139.179,5.530,-4.068
3.488,-45.124,-103.009,-71.960,-68.794,57.258,-141.003,289.918,-644.074,430.751,139.302,5.672,-4.059
3.498,-45.126,-103.007,-72.065,-68.793,57.257,-141.002,289.729,-643.918,429.731,139.370,5.749,-4.055
3.509,-45.129,-103.005,-72.307,-68.792,57.257,-141.002,289.310,-643.555,427.376,139.528,5.929,-4.043
3.519,-45.134,-103.007,-72.569,-68.793,57.257,-141.003,288.851,-643.165,424.763,139.703,6.130,-4.028
3.529,-45.135,-103.009,-72.706,-68.793,57.257,-141.003,288.619,-642.959,423.400,139.795,6.234,-4.020
3.539,-45.136,-103.012,-72.988,-68.793,57.257,-141.003,288.159,-642.511,420.586,139.984,6.450,-4.000
3.549,-45.135,-103.014,-73.298,-68.793,57.257,-141.003,287.661,-641.993,417.521,140.191,6.684,-3.975
3.559,-45.135,-103.013,-73.470,-68.794,57.257,-141.003,287.368,-641.694,415.841,140.304,6.813,-3.962
3.568,-45.135,-103.012,-73.839,-68.793,57.257,-141.003,286.724,-641.050,412.251,140.547,7.090,-3.932
3.579,-45.137,-103.014,-74.257,-68.795,57.257,-141.003,285.963,-640.318,408.129,140.828,7.407,-3.899
3.589,-45.137,-103.016,-74.416,-68.794,57.257,-141.003,285.682,-640.037,406.556,140.935,7.527,-3.885
3.598,-45.140,-103.020,-74.809,-68.794,57.257,-141.003,284.938,-639.335,402.678,141.198,7.826,-3.853
3.609,-45.140,-103.023,-75.229,-68.794,57.257,-141.003,284.150,-638.546,398.557,141.480,8.143,-3.814
3.618,-45.139,-103.025,-75.450,-68.796,57.257,-141.003,283.738,-638.110,396.378,141.631,8.312,-3.791
3.629,-45.137,-103.030,-75.887,-68.795,57.257,-141.003,282.918,-637.250,392.091,141.925,8.643,-3.745
3.638,-45.133,-103.035,-76.331,-68.794,57.257,-141.003,282.082,-636.344,387.739,142.225,8.979,-3.695
3.648,-45.130,-103.037,-76.561,-68.795,57.258,-141.003,281.643,-635.853,385.483,142.382,9.154,-3.668
3.659,-45.123,-103.039,-77.036,-68.796,57.258,-141.003,280.718,-634.820,380.876,142.703,9.511,-3.609
3.669,-45.124,-103.040,-77.496,-68.796,57.258,-141.003,279.721,-633.826,376.433,143.013,9.857,-3.557
3.678,-45.124,-103.040,-77.723,-68.794,57.257,-141.003,279.221,-633.329,374.266,143.164,10.025,-3.531
3.689,-45.123,-103.037,-78.200,-68.795,57.258,-141.003,278.152,-632.235,369.725,143.485,10.380,-3.473
3.698,-45.124,-103.039,-78.674,-68.796,57.258,-141.003,277.051,-631.146,365.171,143.808,10.736,-3.415
3.709,-45.125,-103.040,-78.902,-68.797,57.258,-141.003,276.503,-630.615,362.976,143.964,10.908,-3.387
3.719,-45.126,-103.039,-79.362,-68.794,57.257,-141.003,275.400,-629.523,358.619,144.273,11.249,-3.329
3.728,-45.124,-103.038,-79.840,-68.796,57.258,-141.003,274.245,-628.337,354.095,144.599,11.605,-3.262
3.739,-45.125,-103.039,-80.077,-68.796,57.258,-141.003,273.649,-627.752,351.836,144.762,11.783,-3.230
3.748,-45.131,-103.039,-80.532,-68.797,57.258,-141.004,272.439,-626.626,347.539,145.073,12.122,-3.171
3.759,-45.134,-103.037,-80.988,-68.795,57.257,-141.003,271.230,-625.458,343.272,145.382,12.458,-3.108
3.769,-45.133,-103.037,-81.221,-68.796,57.258,-141.003,270.629,-624.840,341.087,145.543,12.631,-3.073
3.778,-45.135,-103.040,-81.677,-68.797,57.258,-141.003,269.405,-623.633,336.772,145.860,12.973,-3.004
3.788,-45.139,-103.042,-82.110,-68.796,57.257,-141.003,268.193,-622.485,332.712,146.158,13.294,-2.941
3.799,-45.138,-103.041,-82.334,-68.796,57.257,-141.003,267.588,-621.863,330.642,146.311,13.459,-2.905
3.808,-45.133,-103.040,-82.789,-68.796,57.259,-141.003,266.374,-620.561,326.416,146.627,13.795,-2.825
3.818,-45.134,-103.040,-83.233,-68.798,57.259,-141.003,265.096,-619.299,322.298,146.936,14.124,-2.752
3.829,-45.135,-103.040,-83.446,-68.797,57.258,-141.003,264.471,-618.694,320.332,147.083,14.282,-2.717
3.839,-45.133,-103.038,-83.874,-68.796,57.258,-141.003,263.252,-617.436,316.410,147.379,14.595,-2.641
3.849,-45.130,-103.037,-84.306,-68.796,57.258,-141.003,262.008,-616.132,312.443,147.682,14.913,-2.560
3.858,-45.131,-103.038,-84.521,-68.797,57.258,-141.003,261.358,-615.487,310.464,147.833,15.073,-2.522
3.868,-45.132,-103.040,-84.966,-68.797,57.258,-141.003,259.998,-614.144,306.384,148.146,15.401,-2.441
3.878,-45.129,-103.037,-85.343,-68.796,57.258,-141.003,258.866,-612.962,302.981,148.409,15.674,-2.368
3.889,-45.127,-103.036,-85.552,-68.797,57.259,-141.003,258.238,-612.296,301.092,148.557,15.828,-2.325
3.898,-45.126,-103.036,-85.964,-68.797,57.258,-141.003,256.947,-610.991,297.350,148.849,16.131,-2.244
3.908,-45.129,-103.038,-86.360,-68.797,57.258,-141.003,255.655,-609.741,293.751,149.131,16.422,-2.169
3.919,-45.129,-103.039,-86.553,-68.796,57.258,-141.002,255.040,-609.117,292.012,149.268,16.563,-2.130
3.929,-45.129,-103.038,-86.944,-68.797,57.258,-141.003,253.766,-607.833,288.507,149.547,16.849,-2.049
3.939,-45.131,-103.037,-87.344,-68.796,57.258,-141.003,252.428,-606.519,284.934,149.831,17.140,-1.968
3.949,-45.132,-103.037,-87.542,-68.798,57.258,-141.003,251.744,-605.858,283.168,149.974,17.285,-1.927
3.958,-45.133,-103.038,-87.915,-68.797,57.258,-141.003,250.497,-604.607,279.836,150.242,17.557,-1.847
3.968,-45.133,-103.038,-88.290,-68.797,57.258,-141.003,249.217,-603.325,276.517,150.512,17.829,-1.766
3.979,-45.133,-103.038,-88.478,-68.797,57.258,-141.003,248.566,-602.678,274.847,150.648,17.966,-1.724
3.989,-45.134,-103.037,-88.863,-68.797,57.258,-141.002,247.219,-601.339,271.452,150.926,18.246,-1.639
3.999,-45.134,-103.037,-89.235,-68.798,57.258,-141.003,245.919,-600.025,268.190,151.196,18.515,-1.552
4.008,-45.133,-103.037,-89.413,-68.797,57.258,-141.003,245.302,-599.391,266.622,151.326,18.644,-1.510
4.019,-45.133,-103.037,-89.772,-68.796,57.258,-141.004,244.024,-598.108,263.494,151.587,18.903,-1.426
4.028,-45.132,-103.037,-90.143,-68.797,57.258,-141.003,242.693,-596.760,260.265,151.858,19.171,-1.338
4.038,-45.132,-103.034,-90.334,-68.796,57.258,-141.003,242.002,-596.061,258.636,151.995,19.306,-1.291
4.049,-45.130,-103.033,-90.729,-68.796,57.258,-141.003,240.572,-594.594,255.215,152.286,19.591,-1.193
4.059,-45.130,-103.034,-91.053,-68.797,57.258,-141.003,239.373,-593.389,252.420,152.525,19.824,-1.112
4.069,-45.130,-103.033,-91.231,-68.796,57.258,-141.003,238.704,-592.723,250.887,152.657,19.952,-1.068
4.079,-45.129,-103.032,-91.592,-68.796,57.258,-141.003,237.356,-591.356,247.813,152.922,20.210,-0.976
4.089,-45.130,-103.028,-91.962,-68.797,57.258,-141.003,235.938,-589.942,244.692,153.195,20.472,-0.882
4.098,-45.129,-103.028,-92.139,-68.797,57.258,-141.003,235.262,-589.259,243.177,153.328,20.600,-0.835
4.108,-45.131,-103.031,-92.481,-68.797,57.258,-141.003,233.939,-587.947,240.244,153.585,20.846,-0.745
4.118,-45.132,-103.031,-92.826,-68.795,57.257,-141.002,232.589,-586.609,237.326,153.842,21.092,-0.655
4.128,-45.131,-103.030,-93.003,-68.796,57.258,-141.003,231.896,-585.906,235.836,153.976,21.218,-0.605
4.139,-45.132,-103.028,-93.361,-68.796,57.258,-141.003,230.477,-584.488,232.849,154.244,21.472,-0.508
4.149,-45.131,-103.030,-93.709,-68.796,57.258,-141.003,229.104,-583.096,229.912,154.509,21.721,-0.410
4.158,-45.131,-103.033,-93.905,-68.797,57.258,-141.003,228.318,-582.311,228.252,154.659,21.862,-0.354
4.168,-45.132,-103.035,-94.211,-68.796,57.258,-141.003,227.078,-581.075,225.673,154.894,22.081,-0.267
4.178,-45.132,-103.035,-94.562,-68.796,57.258,-141.003,225.653,-579.641,222.778,155.161,22.328,-0.166
4.188,-45.132,-103.033,-94.740,-68.795,57.258,-141.003,224.924,-578.912,221.325,155.295,22.452,-0.116
4.199,-45.131,-103.032,-95.090,-68.797,57.258,-141.003,223.488,-577.449,218.443,155.564,22.700,-0.011
4.209,-45.130,-103.035,-95.425,-68.797,57.258,-141.003,222.109,-576.052,215.670,155.824,22.938,0.091
4.218,-45.130,-103.035,-95.591,-68.796,57.258,-141.003,221.413,-575.358,214.310,155.952,23.056,0.141
4.229,-45.130,-103.035,-95.930,-68.796,57.258,-141.003,219.993,-573.925,211.552,156.213,23.293,0.244
4.238,-45.130,-103.031,-96.282,-68.796,57.258,-141.003,218.496,-572.419,208.726,156.484,23.538,0.352
4.249,-45.130,-103.030,-96.453,-68.797,57.258,-141.003,217.763,-571.687,207.363,156.616,23.657,0.404
4.259,-45.129,-103.031,-96.784,-68.797,57.258,-141.003,216.351,-570.256,204.677,156.876,23.889,0.510
4.269,-45.129,-103.033,-97.104,-68.797,57.258,-141.003,214.966,-568.867,202.090,157.128,24.114,0.612
4.278,-45.129,-103.032,-97.295,-68.795,57.258,-141.003,214.138,-568.035,200.568,157.277,24.246,0.673
4.288,-45.129,-103.030,-97.604,-68.796,57.258,-141.003,212.785,-566.680,198.130,157.518,24.460,0.772
4.299,-45.129,-103.027,-97.938,-68.796,57.258,-141.003,211.308,-565.196,195.505,157.781,24.691,0.882
4.308,-45.129,-103.028,-98.101,-68.796,57.258,-141.003,210.586,-564.471,194.205,157.911,24.805,0.936
4.318,-45.130,-103.032,-98.413,-68.796,57.258,-141.002,209.195,-563.084,191.713,158.161,25.023,1.040
4.329,-45.131,-103.034,-98.725,-68.796,57.258,-141.003,207.795,-561.683,189.251,158.411,25.240,1.146
4.339,-45.131,-103.033,-98.886,-68.796,57.258,-141.003,207.067,-560.951,187.990,158.540,25.351,1.202
4.349,-45.130,-103.029,-99.219,-68.795,57.258,-141.003,205.560,-559.435,185.434,158.803,25.578,1.315
4.358,-45.130,-103.029,-99.573,-68.796,57.258,-141.002,203.944,-557.810,182.686,159.089,25.822,1.438
4.368,-45.130,-103.031,-99.699,-68.796,57.258,-141.003,203.366,-557.231,181.691,159.192,25.910,1.484
4.379,-45.131,-103.034,-100.008,-68.796,57.258,-141.003,201.934,-555.806,179.284,159.445,26.124,1.594
4.388,-45.132,-103.034,-100.325,-68.795,57.258,-141.003,200.463,-554.337,176.859,159.701,26.340,1.707
4.399,-45.131,-103.033,-100.489,-68.796,57.258,-141.003,199.701,-553.562,175.611,159.835,26.452,1.766
4.409,-45.131,-103.028,-100.824,-68.796,57.258,-141.003,198.143,-551.986,173.110,160.104,26.677,1.888
4.419,-45.130,-103.029,-101.144,-68.796,57.258,-141.003,196.637,-550.468,170.677,160.367,26.896,2.007
4.429,-45.130,-103.031,-101.300,-68.796,57.258,-141.003,195.897,-549.725,169.479,160.498,27.004,2.066
4.438,-45.131,-103.033,-101.610,-68.796,57.258,-141.003,194.420,-548.250,167.136,160.755,27.215,2.182
4.448,-45.131,-103.030,-101.935,-68.795,57.258,-141.003,192.861,-546.688,164.728,161.021,27.433,2.304
4.458,-45.131,-103.028,-102.103,-68.795,57.258,-141.003,192.056,-545.878,163.501,161.158,27.544,2.367
4.468,-45.131,-103.024,-102.435,-68.796,57.258,-141.003,190.451,-544.260,161.067,161.433,27.766,2.496
4.478,-45.130,-103.027,-102.748,-68.796,57.258,-141.003,188.936,-542.734,158.733,161.697,27.979,2.619
4.488,-45.131,-103.029,-102.899,-68.796,57.258,-141.003,188.190,-541.994,157.594,161.826,28.083,2.679
4.498,-45.132,-103.031,-103.207,-68.796,57.258,-141.003,186.673,-540.480,155.319,162.087,28.290,2.802
4.508,-45.132,-103.028,-103.525,-68.796,57.258,-141.003,185.109,-538.907,153.037,162.352,28.500,2.928
4.518,-45.131,-103.025,-103.688,-68.794,57.258,-141.003,184.308,-538.097,151.875,162.487,28.607,2.993
4.529,-45.130,-103.025,-104.000,-68.796,57.258,-141.003,182.769,-536.530,149.621,162.753,28.816,3.122
4.538,-45.129,-103.031,-104.285,-68.796,57.258,-141.003,181.344,-535.096,147.511,163.002,29.010,3.243
4.549,-45.130,-103.033,-104.425,-68.796,57.258,-141.003,180.639,-534.394,146.497,163.123,29.103,3.301
4.559,-45.130,-103.035,-104.706,-68.796,57.258,-141.003,179.224,-532.975,144.473,163.365,29.291,3.419
4.568,-45.130,-103.031,-104.993,-68.796,57.258,-141.003,177.771,-531.510,142.460,163.610,29.479,3.539
4.578,-45.129,-103.028,-105.137,-68.795,57.258,-141.003,177.048,-530.776,141.466,163.731,29.571,3.600
4.588,-45.129,-103.028,-105.412,-68.796,57.258,-141.003,175.645,-529.364,139.528,163.970,29.753,3.718
4.598,-45.129,-103.033,-105.667,-68.796,57.258,-141.003,174.344,-528.053,137.694,164.196,29.924,3.831
4.609,-45.130,-103.035,-105.787,-68.797,57.258,-141.003,173.709,-527.434,136.835,164.303,30.005,3.883
4.619,-45.132,-103.036,-106.020,-68.797,57.258,-141.003,172.496,-526.234,135.201,164.507,30.158,3.984
4.629,-45.131,-103.032,-106.272,-68.796,57.258,-141.003,171.208,-524.926,133.495,164.723,30.318,4.093
4.639,-45.129,-103.029,-106.368,-68.796,57.258,-141.003,170.721,-524.422,132.851,164.805,30.380,4.137
4.648,-45.126,-103.028,-106.589,-68.794,57.258,-141.003,169.607,-523.260,131.341,164.996,30.522,4.237
4.659,-45.124,-103.031,-106.801,-68.797,57.259,-141.003,168.514,-522.134,129.851,165.189,30.663,4.336
4.669,-45.124,-103.035,-106.898,-68.796,57.258,-141.003,168.005,-521.625,129.150,165.278,30.729,4.382
4.679,-45.128,-103.038,-107.079,-68.797,57.259,-141.003,167.017,-520.681,127.889,165.441,30.848,4.462
4.689,-45.129,-103.041,-107.240,-68.797,57.258,-141.003,166.161,-519.833,126.769,165.586,30.955,4.535
4.699,-45.128,-103.042,-107.318,-68.797,57.258,-141.003,165.754,-519.420,126.235,165.656,31.005,4.572
4.709,-45.126,-103.041,-107.462,-68.796,57.258,-141.003,165.017,-518.652,125.267,165.783,31.098,4.640
4.719,-45.125,-103.040,-107.599,-68.795,57.258,-141.003,164.300,-517.925,124.348,165.904,31.185,4.702
4.729,-45.126,-103.039,-107.668,-68.796,57.258,-141.003,163.927,-517.556,123.885,165.966,31.229,4.734
4.738,-45.129,-103.038,-107.802,-68.796,57.258,-141.003,163.182,-516.849,122.987,166.085,31.316,4.793
4.748,-45.136,-103.034,-107.934,-68.796,57.257,-141.003,162.425,-516.172,122.144,166.198,31.398,4.845
4.759,-45.138,-103.033,-107.998,-68.795,57.257,-141.003,162.066,-515.836,121.723,166.254,31.438,4.872
4.769,-45.138,-103.033,-108.126,-68.796,57.257,-141.003,161.378,-515.147,120.863,166.370,31.521,4.932
4.779,-45.135,-103.037,-108.248,-68.796,57.258,-141.003,160.753,-514.484,120.023,166.483,31.601,4.994
4.789,-45.134,-103.038,-108.315,-68.796,57.258,-141.003,160.400,-514.115,119.559,166.546,31.645,5.029
4.799,-45.132,-103.040,-108.415,-68.796,57.258,-141.004,159.885,-513.572,118.882,166.638,31.710,5.079
4.809,-45.131,-103.041,-108.515,-68.797,57.258,-141.003,159.357,-513.024,118.202,166.730,31.775,5.129
4.819,-45.131,-103.042,-108.559,-68.797,57.258,-141.003,159.125,-512.787,117.909,166.770,31.803,5.150
4.829,-45.129,-103.043,-108.644,-68.796,57.258,-141.003,158.681,-512.330,117.339,166.846,31.858,5.191
4.839,-45.128,-103.047,-108.705,-68.796,57.258,-141.003,158.357,-511.989,116.898,166.907,31.900,5.224
4.848,-45.127,-103.051,-108.733,-68.796,57.258,-141.003,158.217,-511.835,116.677,166.936,31.920,5.241
4.858,-45.127,-103.063,-108.780,-68.796,57.258,-141.003,157.964,-511.579,116.275,166.988,31.957,5.269
4.868,-45.127,-103.074,-108.816,-68.796,57.258,-141.003,157.758,-511.379,115.937,167.032,31.988,5.291
4.879,-45.128,-103.080,-108.833,-68.796,57.258,-141.003,157.658,-511.289,115.778,167.053,32.003,5.302
4.889,-45.129,-103.093,-108.853,-68.796,57.258,-141.003,157.539,-511.179,115.542,167.083,32.023,5.317
4.899,-45.131,-103.094,-108.870,-68.797,57.258,-141.003,157.429,-511.089,115.418,167.100,32.036,5.324
4.909,-45.131,-103.095,-108.874,-68.797,57.258,-141.003,157.408,-511.066,115.386,167.105,32.038,5.326
4.918,-45.131,-103.095,-108.874,-68.796,57.258,-141.003,157.411,-511.066,115.384,167.104,32.038,5.327
4.928,-45.131,-103.093,-108.872,-68.796,57.258,-141.003,157.423,-511.083,115.422,167.099,32.035,5.323
4.938,-45.131,-103.093,-108.870,-68.794,57.257,-141.003,157.438,-511.097,115.434,167.096,32.034,5.322
4.948,-45.130,-103.094,-108.872,-68.795,57.258,-141.003,157.433,-511.085,115.416,167.099,32.035,5.324
4.959,-45.129,-103.097,-108.872,-68.795,57.257,-141.003,157.439,-511.079,115.388,167.102,32.038,5.327
4.969,-45.129,-103.098,-108.872,-68.795,57.258,-141.003,157.437,-511.075,115.373,167.104,32.038,5.328
4.979,-45.128,-103.104,-108.873,-68.795,57.258,-141.003,157.435,-511.066,115.317,167.110,32.043,5.332
4.989,-45.129,-103.115,-108.873,-68.795,57.258,-141.003,157.431,-511.068,115.233,167.119,32.050,5.336
4.999,-45.129,-103.123,-108.873,-68.795,57.258,-141.003,157.429,-511.067,115.164,167.127,32.055,5.340
5.008,-45.129,-103.150,-108.871,-68.795,57.257,-141.003,157.430,-511.072,114.956,167.149,32.071,5.352
5.019,-45.130,-103.186,-108.871,-68.795,57.258,-141.002,157.408,-511.056,114.655,167.182,32.093,5.368
5.029,-45.131,-103.210,-108.872,-68.794,57.258,-141.003,157.392,-511.049,114.456,167.204,32.109,5.380
5.039,-45.133,-103.267,-108.872,-68.794,57.257,-141.003,157.354,-511.041,113.985,167.256,32.145,5.405
5.049,-45.137,-103.347,-108.871,-68.794,57.257,-141.003,157.299,-511.031,113.330,167.328,32.196,5.440
5.059,-45.138,-103.398,-108.870,-68.794,57.257,-141.003,157.276,-511.024,112.920,167.373,32.227,5.462
5.069,-45.139,-103.508,-108.870,-68.794,57.257,-141.003,157.229,-510.985,112.004,167.474,32.298,5.515
5.079,-45.139,-103.639,-108.874,-68.794,57.257,-141.003,157.165,-510.917,110.897,167.598,32.383,5.582
5.089,-45.138,-103.713,-108.874,-68.794,57.257,-141.002,157.148,-510.889,110.289,167.665,32.429,5.619
5.099,-45.137,-103.892,-108.873,-68.794,57.257,-141.003,157.094,-510.824,108.818,167.829,32.542,5.708
5.108,-45.136,-104.081,-108.866,-68.792,57.257,-141.003,157.071,-510.793,107.309,167.994,32.656,5.798
5.119,-45.135,-104.194,-108.861,-68.792,57.257,-141.002,157.061,-510.769,106.404,168.094,32.724,5.852
5.129,-45.131,-104.418,-108.863,-68.792,57.257,-141.002,156.987,-510.653,104.547,168.303,32.866,5.969
5.139,-45.129,-104.681,-108.869,-68.794,57.257,-141.003,156.845,-510.489,102.335,168.555,33.035,6.108
5.149,-45.129,-104.792,-108.870,-68.794,57.258,-141.002,156.800,-510.431,101.411,168.659,33.105,6.165
5.158,-45.128,-105.096,-108.865,-68.793,57.257,-141.003,156.687,-510.309,98.941,168.937,33.291,6.319
5.169,-45.127,-105.427,-108.857,-68.791,57.257,-141.003,156.563,-510.185,96.262,169.239,33.492,6.485
5.179,-45.127,-105.607,-108.854,-68.791,57.257,-141.003,156.486,-510.099,94.798,169.405,33.602,6.578
5.189,-45.123,-105.973,-108.852,-68.792,57.257,-141.003,156.319,-509.892,91.802,169.749,33.827,6.772
5.199,-45.123,-106.348,-108.860,-68.794,57.258,-141.003,156.041,-509.602,88.658,170.117,34.064,6.978
5.209,-45.124,-106.554,-108.859,-68.794,57.258,-141.003,155.904,-509.483,86.972,170.312,34.189,7.086
5.219,-45.127,-106.986,-108.849,-68.792,57.257,-141.003,155.649,-509.257,83.483,170.714,34.447,7.310
5.228,-45.125,-107.433,-108.844,-68.792,57.256,-141.003,155.368,-508.965,79.848,171.139,34.716,7.553
5.239,-45.125,-107.650,-108.845,-68.793,57.256,-141.003,155.202,-508.789,78.061,171.351,34.848,7.675
5.249,-45.122,-108.092,-108.853,-68.795,57.258,-141.003,154.830,-508.375,74.382,171.793,35.120,7.930
5.259,-45.120,-108.580,-108.845,-68.793,57.257,-141.003,154.496,-508.018,70.435,172.261,35.407,8.203
5.269,-45.120,-108.834,-108.839,-68.792,57.257,-141.003,154.304,-507.832,68.388,172.506,35.555,8.345
5.278,-45.120,-109.356,-108.833,-68.793,57.257,-141.003,153.867,-507.390,64.159,173.017,35.861,8.643
5.289,-45.119,-109.801,-108.832,-68.793,57.257,-141.003,153.461,-506.969,60.532,173.460,36.123,8.905
5.299,-45.116,-110.098,-108.830,-68.792,57.258,-141.003,153.206,-506.671,58.117,173.757,36.295,9.083
5.309,-45.110,-110.561,-108.833,-68.794,57.258,-141.003,152.756,-506.158,54.333,174.228,36.567,9.368
5.318,-45.107,-111.064,-108.836,-68.795,57.258,-141.003,152.218,-505.581,50.219,174.745,36.861,9.680
5.328,-45.105,-111.320,-108.830,-68.793,57.257,-141.003,151.991,-505.331,48.175,174.998,37.004,9.835
5.339,-45.104,-111.849,-108.817,-68.792,57.257,-141.003,151.472,-504.793,43.953,175.528,37.299,10.156
5.349,-45.102,-112.349,-108.812,-68.794,57.258,-141.003,150.905,-504.206,39.926,176.045,37.580,10.472
5.359,-45.105,-112.604,-108.810,-68.794,57.258,-141.003,150.580,-503.909,37.878,176.307,37.723,10.630
5.369,-45.106,-113.116,-108.801,-68.793,57.257,-141.003,149.971,-503.317,33.796,176.832,38.004,10.951
5.378,-45.103,-113.661,-108.794,-68.793,57.258,-141.003,149.311,-502.613,29.432,177.403,38.303,11.306
5.389,-45.104,-113.862,-108.795,-68.794,57.258,-141.003,149.020,-502.333,27.808,177.618,38.415,11.438
5.399,-45.104,-114.354,-108.788,-68.792,57.257,-141.003,148.377,-501.689,23.894,178.134,38.681,11.761
5.409,-45.102,-114.862,-108.781,-68.792,57.258,-141.003,147.696,-500.981,19.844,178.675,38.954,12.101
5.418,-45.101,-115.106,-108.782,-68.793,57.258,-141.003,147.335,-500.607,17.892,178.940,39.086,12.269
5.429,-45.102,-115.584,-108.782,-68.793,57.258,-141.003,146.593,-499.877,14.071,179.461,39.343,12.597
5.438,-45.102,-116.076,-108.774,-68.792,57.257,-141.003,145.874,-499.157,10.183,179.990,39.600,12.934
5.449,-45.101,-116.325,-108.772,-68.792,57.257,-141.003,145.483,-498.759,8.208,-179.736,39.731,13.109
5.459,-45.099,-116.793,-108.778,-68.793,57.258,-141.003,144.692,-497.940,4.460,-179.209,39.979,13.449
5.469,-45.100,-117.265,-108.777,-68.793,57.257,-141.003,143.894,-497.150,0.721,-178.683,40.224,13.787
5.479,-45.100,-117.507,-108.772,-68.792,57.257,-141.003,143.509,-496.766,-1.169,-178.418,40.346,13.959
5.489,-45.099,-117.978,-108.772,-68.792,57.257,-141.003,142.692,-495.927,-4.893,-177.886,40.587,14.305
5.498,-45.100,-118.463,-108.783,-68.794,57.257,-141.003,141.727,-494.974,-8.761,-177.320,40.839,14.673
5.508,-45.101,-118.653,-108.783,-68.794,57.258,-141.003,141.371,-494.624,-10.256,-177.102,40.934,14.815
5.519,-45.102,-119.120,-108.777,-68.792,57.257,-141.003,140.531,-493.795,-13.891,-176.575,41.163,15.160
5.529,-45.103,-119.578,-108.776,-68.792,57.257,-141.003,139.648,-492.921,-17.472,-176.046,41.389,15.508
5.539,-45.104,-119.795,-108.779,-68.793,57.257,-141.003,139.191,-492.475,-19.180,-175.789,41.497,15.677
5.549,-45.106,-120.231,-108.780,-68.793,57.257,-141.003,138.305,-491.609,-22.581,-175.278,41.709,16.014
5.559,-45.106,-120.685,-108.774,-68.792,57.257,-141.003,137.429,-490.731,-26.087,-174.752,41.924,16.365
5.568,-45.106,-120.909,-108.773,-68.791,57.257,-141.003,136.974,-490.272,-27.822,-174.488,42.030,16.541
5.579,-45.107,-121.334,-108.779,-68.792,57.257,-141.003,136.036,-489.343,-31.132,-173.975,42.234,16.884
5.588,-45.106,-121.771,-108.778,-68.792,57.257,-141.003,135.124,-488.412,-34.498,-173.454,42.437,17.236
5.598,-45.105,-121.997,-108.773,-68.792,57.257,-141.003,134.680,-487.955,-36.220,-173.189,42.539,17.417
5.609,-45.104,-122.485,-108.769,-68.791,57.257,-141.003,133.649,-486.912,-39.951,-172.606,42.761,17.813
5.619,-45.104,-122.875,-108.776,-68.792,57.257,-141.003,132.722,-485.988,-42.961,-172.122,42.941,18.142
5.629,-45.105,-123.095,-108.778,-68.793,57.257,-141.003,132.198,-485.469,-44.651,-171.849,43.041,18.327
5.639,-45.103,-123.545,-108.773,-68.791,57.257,-141.003,131.223,-484.470,-48.059,-171.305,43.238,18.700
5.649,-45.104,-123.996,-108.772,-68.791,57.257,-141.003,130.170,-483.420,-51.482,-170.749,43.435,19.082
5.659,-45.105,-124.209,-108.776,-68.792,57.257,-141.003,129.633,-482.890,-53.106,-170.479,43.530,19.267
5.668,-45.107,-124.636,-108.783,-68.793,57.257,-141.003,128.539,-481.813,-56.356,-169.936,43.716,19.639
5.679,-45.106,-125.087,-108.777,-68.791,57.257,-141.003,127.491,-480.752,-59.734,-169.379,43.904,20.026
5.688,-45.106,-125.316,-108.775,-68.791,57.257,-141.003,126.938,-480.200,-61.445,-169.094,43.999,20.224
5.698,-45.107,-125.775,-108.778,-68.791,57.257,-141.003,125.755,-479.026,-64.890,-168.507,44.191,20.631
5.708,-45.109,-126.164,-108.781,-68.792,57.257,-141.003,124.735,-478.017,-67.799,-168.007,44.351,20.978
5.719,-45.107,-126.380,-108.777,-68.791,57.257,-141.003,124.221,-477.485,-69.399,-167.736,44.436,21.169
5.729,-45.107,-126.823,-108.772,-68.791,57.257,-141.003,123.112,-476.363,-72.671,-167.173,44.611,21.565
5.739,-45.106,-127.238,-108.774,-68.791,57.257,-141.003,122.007,-475.251,-75.742,-166.634,44.775,21.945
5.748,-45.107,-127.441,-108.778,-68.792,57.257,-141.003,121.427,-474.676,-77.251,-166.363,44.856,22.135
5.758,-45.105,-127.865,-108.773,-68.791,57.257,-141.003,120.339,-473.561,-80.352,-165.819,45.016,22.522
5.768,-45.105,-128.305,-108.766,-68.790,57.257,-141.003,119.183,-472.403,-83.561,-165.251,45.179,22.923
5.778,-45.105,-128.512,-108.765,-68.790,57.257,-141.003,118.622,-471.839,-85.065,-164.980,45.256,23.116
5.788,-45.107,-128.903,-108.773,-68.792,57.257,-141.003,117.449,-470.684,-87.935,-164.449,45.404,23.492
5.799,-45.105,-129.312,-108.773,-68.791,57.257,-141.002,116.316,-469.527,-90.898,-163.909,45.551,23.878
5.808,-45.104,-129.523,-108.770,-68.791,57.257,-141.003,115.743,-468.942,-92.416,-163.631,45.625,24.077
5.818,-45.104,-129.937,-108.766,-68.790,57.257,-141.003,114.573,-467.772,-95.392,-163.082,45.770,24.470
5.828,-45.105,-130.312,-108.773,-68.792,57.257,-141.003,113.420,-466.622,-98.104,-162.564,45.903,24.841
5.838,-45.105,-130.502,-108.778,-68.792,57.257,-141.003,112.828,-466.025,-99.476,-162.301,45.969,25.030
5.848,-45.103,-130.886,-108.773,-68.791,57.258,-141.003,111.744,-464.913,-102.209,-161.788,46.096,25.402
5.859,-45.105,-131.284,-108.767,-68.790,57.257,-141.003,110.578,-463.764,-105.020,-161.256,46.225,25.783
5.869,-45.105,-131.469,-108.765,-68.789,57.256,-141.003,110.035,-463.226,-106.325,-161.007,46.285,25.964
5.879,-45.107,-131.813,-108.774,-68.792,57.257,-141.003,108.894,-462.103,-108.778,-160.518,46.399,26.315
5.888,-45.105,-132.168,-108.778,-68.790,57.258,-141.003,107.798,-460.977,-111.286,-160.027,46.511,26.672
5.898,-45.106,-132.349,-108.773,-68.790,57.258,-141.003,107.263,-460.447,-112.553,-159.783,46.566,26.849
5.908,-45.106,-132.718,-108.766,-68.790,57.257,-141.003,106.150,-459.341,-115.121,-159.281,46.678,27.213
5.918,-45.107,-133.060,-108.761,-68.789,57.255,-141.003,105.108,-458.303,-117.490,-158.815,46.780,27.553
5.928,-45.106,-133.219,-108.767,-68.791,57.256,-141.003,104.559,-457.746,-118.606,-158.582,46.829,27.723
5.939,-45.104,-133.543,-108.776,-68.791,57.258,-141.002,103.484,-456.632,-120.873,-158.117,46.925,28.064
5.948,-45.107,-133.882,-108.770,-68.790,57.257,-141.003,102.407,-455.584,-123.207,-157.649,47.021,28.404
5.958,-45.106,-134.056,-108.766,-68.789,57.256,-141.002,101.869,-455.047,-124.396,-157.411,47.070,28.578
5.969,-45.106,-134.386,-108.756,-68.788,57.254,-141.003,100.865,-454.046,-126.643,-156.963,47.159,28.908
5.979,-45.102,-134.678,-108.766,-68.791,57.257,-141.003,99.867,-452.989,-128.658,-156.531,47.240,29.227
5.988,-45.101,-134.820,-108.774,-68.791,57.258,-141.003,99.347,-452.453,-129.639,-156.317,47.280,29.384
5.999,-45.106,-135.125,-108.775,-68.790,57.257,-141.003,98.282,-451.441,-131.718,-155.883,47.362,29.700
6.009,-45.106,-135.431,-108.767,-68.789,57.256,-141.003,97.313,-450.474,-133.780,-155.460,47.439,30.012
6.019,-45.107,-135.583,-108.762,-68.788,57.255,-141.003,96.829,-450.000,-134.799,-155.251,47.477,30.165
6.029,-45.105,-135.864,-108.755,-68.788,57.256,-141.003,95.938,-449.084,-136.689,-154.858,47.546,30.457
6.039,-45.105,-136.118,-108.771,-68.791,57.258,-141.003,94.951,-448.077,-138.419,-154.464,47.612,30.747
6.049,-45.107,-136.246,-108.780,-68.792,57.257,-141.003,94.430,-447.577,-139.285,-154.267,47.646,30.891
6.059,-45.109,-136.511,-108.782,-68.791,57.256,-141.003,93.487,-446.663,-141.058,-153.885,47.711,31.171
6.069,-45.109,-136.769,-108.767,-68.788,57.256,-141.003,92.700,-445.872,-142.766,-153.536,47.767,31.430
6.078,-45.109,-136.912,-108.762,-68.787,57.256,-141.003,92.245,-445.412,-143.707,-153.338,47.799,31.577
6.088,-45.106,-137.132,-108.761,-68.788,57.256,-141.003,91.507,-444.639,-145.164,-153.020,47.849,31.816
6.099,-45.103,-137.371,-108.768,-68.789,57.256,-141.002,90.634,-443.733,-146.753,-152.661,47.904,32.085
6.108,-45.104,-137.481,-108.775,-68.791,57.257,-141.003,90.179,-443.288,-147.487,-152.488,47.930,32.212
6.118,-45.107,-137.687,-108.779,-68.790,57.256,-141.003,89.400,-442.533,-148.847,-152.182,47.976,32.436
6.129,-45.109,-137.886,-108.773,-68.789,57.256,-141.004,88.717,-441.870,-150.146,-151.902,48.017,32.642
6.139,-45.108,-137.987,-108.772,-68.789,57.256,-141.003,88.373,-441.512,-150.812,-151.756,48.038,32.752
6.149,-45.101,-138.184,-108.772,-68.789,57.256,-141.004,87.719,-440.795,-152.101,-151.468,48.078,32.973
6.158,-45.099,-138.372,-108.773,-68.789,57.256,-141.003,87.050,-440.098,-153.324,-151.191,48.118,33.181
6.169,-45.099,-138.464,-108.773,-68.789,57.257,-141.003,86.722,-439.769,-153.921,-151.057,48.136,33.281
6.179,-45.103,-138.645,-108.768,-68.788,57.256,-141.003,86.065,-439.156,-155.099,-150.799,48.172,33.469
6.188,-45.108,-138.810,-108.771,-68.789,57.256,-141.003,85.403,-438.535,-156.167,-150.551,48.205,33.648
6.198,-45.109,-138.894,-108.775,-68.789,57.256,-141.003,85.060,-438.196,-156.712,-150.420,48.222,33.746
6.208,-45.107,-139.016,-108.782,-68.791,57.256,-141.003,84.572,-437.692,-157.503,-150.228,48.247,33.890
6.219,-45.101,-139.149,-108.783,-68.790,57.257,-141.003,84.126,-437.187,-158.364,-150.032,48.272,34.042
6.229,-45.099,-139.214,-108.781,-68.789,57.257,-141.003,83.922,-436.961,-158.786,-149.939,48.283,34.114
6.239,-45.098,-139.336,-108.774,-68.788,57.256,-141.003,83.524,-436.559,-159.565,-149.771,48.305,34.241
6.248,-45.101,-139.444,-108.770,-68.788,57.256,-141.003,83.139,-436.199,-160.257,-149.618,48.324,34.352
6.258,-45.103,-139.492,-108.770,-68.787,57.256,-141.003,82.947,-436.022,-160.564,-149.548,48.333,34.403
6.268,-45.105,-139.573,-108.777,-68.789,57.256,-141.003,82.577,-435.669,-161.087,-149.415,48.349,34.500
6.279,-45.105,-139.652,-108.779,-68.789,57.256,-141.003,82.265,-435.359,-161.594,-149.295,48.364,34.590
6.289,-45.104,-139.694,-108.776,-68.788,57.256,-141.003,82.141,-435.225,-161.857,-149.239,48.371,34.632
6.298,-45.101,-139.768,-108.774,-68.788,57.256,-141.003,81.907,-434.961,-162.329,-149.134,48.383,34.714
6.309,-45.100,-139.828,-108.777,-68.788,57.256,-141.003,81.667,-434.708,-162.718,-149.038,48.394,34.787
6.318,-45.100,-139.859,-108.778,-68.788,57.256,-141.003,81.541,-434.587,-162.914,-148.991,48.400,34.821
6.329,-45.104,-139.906,-108.778,-68.789,57.256,-141.003,81.339,-434.420,-163.210,-148.921,48.408,34.870
6.338,-45.108,-139.955,-108.774,-68.788,57.256,-141.003,81.149,-434.269,-163.524,-148.854,48.416,34.916
6.348,-45.108,-139.974,-108.774,-68.788,57.256,-141.003,81.081,-434.201,-163.643,-148.827,48.419,34.936
6.358,-45.108,-140.004,-108.777,-68.788,57.256,-141.003,80.953,-434.065,-163.838,-148.778,48.425,34.973
6.368,-45.106,-140.023,-108.779,-68.789,57.256,-141.003,80.884,-433.975,-163.957,-148.747,48.429,34.999
6.379,-45.105,-140.034,-108.779,-68.788,57.256,-141.003,80.852,-433.933,-164.030,-148.730,48.430,35.012
6.389,-45.105,-140.069,-108.772,-68.787,57.256,-141.004,80.769,-433.858,-164.250,-148.690,48.435,35.042
6.399,-45.106,-140.087,-108.773,-68.787,57.256,-141.003,80.683,-433.783,-164.363,-148.662,48.439,35.062
6.408,-45.108,-140.093,-108.776,-68.788,57.256,-141.003,80.630,-433.740,-164.402,-148.648,48.440,35.071
6.418,-45.109,-140.108,-108.775,-68.788,57.256,-141.004,80.569,-433.689,-164.498,-148.626,48.442,35.086
6.429,-45.108,-140.122,-108.776,-68.788,57.256,-141.003,80.511,-433.626,-164.585,-148.604,48.445,35.103
6.439,-45.108,-140.128,-108.777,-68.788,57.256,-141.003,80.487,-433.601,-164.623,-148.595,48.446,35.110
6.448,-45.108,-140.133,-108.777,-68.788,57.256,-141.003,80.472,-433.585,-164.654,-148.587,48.447,35.116
6.459,-45.107,-140.132,-108.776,-68.788,57.256,-141.003,80.483,-433.588,-164.652,-148.589,48.447,35.116
6.469,-45.106,-140.133,-108.775,-68.788,57.256,-141.003,80.493,-433.592,-164.655,-148.590,48.447,35.116
6.479,-45.106,-140.133,-108.776,-68.788,57.256,-141.003,80.489,-433.583,-164.655,-148.588,48.447,35.117
6.489,-45.106,-140.132,-108.776,-68.788,57.256,-141.003,80.499,-433.591,-164.651,-148.590,48.446,35.116
6.498,-45.106,-140.131,-108.774,-68.788,57.256,-141.003,80.506,-433.601,-164.646,-148.593,48.446,35.114
6.509,-45.106,-140.131,-108.773,-68.787,57.256,-141.003,80.522,-433.617,-164.640,-148.597,48.446,35.111
6.519,-45.106,-140.131,-108.773,-68.788,57.256,-141.003,80.517,-433.612,-164.643,-148.596,48.446,35.111
6.529,-45.106,-140.131,-108.774,-68.787,57.256,-141.003,80.512,-433.606,-164.647,-148.594,48.446,35.113
6.539,-45.106,-140.133,-108.774,-68.788,57.256,-141.003,80.500,-433.598,-164.657,-148.591,48.447,35.115
6.548,-45.107,-140.135,-108.775,-68.788,57.256,-141.003,80.484,-433.585,-164.667,-148.587,48.447,35.117
6.558,-45.107,-140.135,-108.776,-68.788,57.256,-141.003,80.474,-433.577,-164.673,-148.585,48.447,35.119
6.568,-45.108,-140.136,-108.776,-68.788,57.256,-141.004,80.464,-433.577,-164.676,-148.584,48.447,35.119
6.579,-45.109,-140.135,-108.775,-68.788,57.256,-141.003,80.464,-433.585,-164.671,-148.586,48.447,35.116
6.588,-45.109,-140.135,-108.775,-68.788,57.256,-141.003,80.473,-433.590,-164.666,-148.588,48.447,35.115
6.598,-45.108,-140.133,-108.774,-68.788,57.256,-141.003,80.490,-433.599,-164.658,-148.591,48.447,35.114
6.608,-45.106,-140.133,-108.774,-68.787,57.256,-141.003,80.506,-433.602,-164.656,-148.593,48.447,35.113
6.619,-45.106,-140.133,-108.774,-68.788,57.256,-141.003,80.508,-433.603,-164.656,-148.592,48.447,35.114
6.628,-45.106,-140.134,-108.775,-68.788,57.256,-141.002,80.496,-433.592,-164.661,-148.590,48.447,35.116
6.639,-45.106,-140.135,-108.776,-68.788,57.256,-141.003,80.486,-433.581,-164.668,-148.586,48.447,35.118
6.648,-45.106,-140.135,-108.776,-68.788,57.256,-141.003,80.483,-433.579,-164.671,-148.586,48.447,35.119
6.659,-45.106,-140.136,-108.776,-68.788,57.256,-141.004,80.479,-433.576,-164.675,-148.584,48.447,35.120
6.668,-45.106,-140.136,-108.775,-68.788,57.256,-141.003,80.484,-433.580,-164.674,-148.585,48.447,35.120
6.679,-45.106,-140.135,-108.775,-68.788,57.256,-141.003,80.488,-433.582,-164.673,-148.586,48.447,35.118
6.689,-45.106,-140.135,-108.774,-68.788,57.256,-141.003,80.496,-433.592,-164.667,-148.589,48.447,35.117
6.699,-45.108,-140.135,-108.773,-68.788,57.256,-141.004,80.491,-433.601,-164.665,-148.590,48.446,35.115
6.708,-45.108,-140.135,-108.774,-68.788,57.256,-141.003,80.486,-433.597,-164.667,-148.589,48.447,35.115
6.718,-45.108,-140.135,-108.774,-68.788,57.256,-141.003,80.478,-433.592,-164.668,-148.588,48.447,35.116
6.728,-45.108,-140.135,-108.774,-68.788,57.256,-141.003,80.479,-433.590,-164.671,-148.587,48.447,35.116
6.738,-45.108,-140.135,-108.775,-68.788,57.256,-141.003,80.477,-433.587,-164.672,-148.586,48.447,35.117
6.748,-45.107,-140.135,-108.775,-68.788,57.256,-141.003,80.481,-433.586,-164.672,-148.586,48.447,35.118
6.758,-45.107,-140.135,-108.775,-68.788,57.256,-141.003,80.481,-433.584,-164.671,-148.586,48.447,35.118
6.768,-45.106,-140.135,-108.775,-68.788,57.256,-141.003,80.484,-433.582,-164.671,-148.586,48.447,35.118
6.778,-45.106,-140.135,-108.775,-68.788,57.256,-141.003,80.491,-433.588,-164.667,-148.587,48.447,35.117
6.788,-45.106,-140.135,-108.775,-68.788,57.256,-141.003,80.494,-433.589,-164.667,-148.589,48.447,35.117
6.798,-45.106,-140.135,-108.775,-68.788,57.256,-141.003,80.492,-433.588,-164.667,-148.588,48.447,35.117
6.808,-45.106,-140.134,-108.774,-68.788,57.256,-141.003,80.494,-433.592,-164.665,-148.588,48.447,35.117
6.819,-45.106,-140.134,-108.774,-68.787,57.256,-141.003,80.495,-433.592,-164.666,-148.589,48.447,35.116
6.828,-45.106,-140.135,-108.775,-68.788,57.256,-141.003,80.490,-433.590,-164.667,-148.588,48.447,35.117
6.838,-45.107,-140.135,-108.775,-68.788,57.256,-141.003,80.480,-433.584,-164.671,-148.586,48.447,35.117
6.848,-45.107,-140.136,-108.775,-68.788,57.257,-141.003,80.474,-433.575,-164.677,-148.584,48.446,35.118
6.859,-45.108,-140.136,-108.776,-68.789,57.259,-141.003,80.462,-433.557,-164.681,-148.581,48.446,35.119
6.868,-45.107,-140.137,-108.780,-68.791,57.260,-141.003,80.438,-433.521,-164.690,-148.572,48.446,35.126
6.878,-45.107,-140.141,-108.785,-68.794,57.261,-141.004,80.380,-433.458,-164.708,-148.553,48.447,35.140
6.889,-45.106,-140.143,-108.789,-68.796,57.261,-141.004,80.342,-433.413,-164.719,-148.540,48.448,35.150
6.899,-45.105,-140.149,-108.802,-68.802,57.261,-141.004,80.217,-433.281,-164.760,-148.502,48.453,35.179
6.909,-45.106,-140.158,-108.817,-68.805,57.259,-141.003,80.063,-433.138,-164.818,-148.463,48.459,35.210
6.918,-45.105,-140.164,-108.826,-68.804,57.257,-141.003,79.990,-433.067,-164.858,-148.445,48.462,35.225
6.929,-45.105,-140.170,-108.843,-68.800,57.251,-141.003,79.845,-432.952,-164.902,-148.416,48.469,35.251
6.939,-45.105,-140.170,-108.851,-68.798,57.248,-141.003,79.783,-432.913,-164.906,-148.408,48.473,35.259
6.949,-45.105,-140.169,-108.850,-68.795,57.246,-141.003,79.799,-432.937,-164.906,-148.415,48.473,35.255
6.958,-45.106,-140.168,-108.842,-68.791,57.248,-141.002,79.869,-433.001,-164.905,-148.435,48.470,35.238
6.968,-45.104,-140.167,-108.837,-68.789,57.249,-141.003,79.926,-433.042,-164.900,-148.446,48.468,35.230
6.978,-45.105,-140.168,-108.835,-68.787,57.249,-141.003,79.945,-433.064,-164.905,-148.452,48.467,35.226
6.989,-45.106,-140.169,-108.828,-68.780,57.247,-141.002,79.991,-433.134,-164.918,-148.471,48.467,35.211
6.998,-45.109,-140.170,-108.820,-68.775,57.246,-141.002,80.036,-433.208,-164.929,-148.489,48.466,35.195
7.008,-45.110,-140.171,-108.815,-68.772,57.245,-141.001,80.059,-433.247,-164.936,-148.499,48.466,35.187
7.018,-45.111,-140.172,-108.806,-68.762,57.240,-141.000,80.142,-433.362,-164.944,-148.531,48.466,35.165
7.028,-45.110,-140.171,-108.790,-68.740,57.232,-140.999,80.308,-433.562,-164.953,-148.590,48.465,35.127
7.038,-45.109,-140.169,-108.779,-68.725,57.228,-140.999,80.436,-433.704,-164.958,-148.633,48.464,35.099
7.048,-45.106,-140.166,-108.749,-68.686,57.223,-140.998,80.769,-434.047,-164.978,-148.740,48.455,35.025
7.059,-45.106,-140.159,-108.711,-68.643,57.220,-140.998,81.178,-434.463,-164.985,-148.872,48.442,34.929
7.068,-45.106,-140.156,-108.687,-68.621,57.219,-140.997,81.424,-434.719,-164.981,-148.948,48.434,34.873
7.078,-45.107,-140.146,-108.626,-68.578,57.212,-140.997,81.985,-435.324,-164.946,-149.116,48.419,34.750
7.088,-45.108,-140.134,-108.560,-68.534,57.202,-140.997,82.587,-435.996,-164.880,-149.299,48.404,34.620
7.098,-45.108,-140.127,-108.527,-68.511,57.195,-140.997,82.900,-436.354,-164.844,-149.395,48.398,34.552
7.109,-45.108,-140.116,-108.458,-68.458,57.180,-140.996,83.546,-437.078,-164.794,-149.594,48.384,34.414
7.118,-45.108,-140.109,-108.387,-68.380,57.171,-140.996,84.268,-437.854,-164.819,-149.827,48.361,34.246
7.129,-45.108,-140.106,-108.352,-68.329,57.169,-140.995,84.662,-438.258,-164.855,-149.961,48.346,34.148
7.138,-45.109,-140.101,-108.285,-68.202,57.169,-140.995,85.477,-439.085,-164.998,-150.253,48.309,33.929
7.149,-45.112,-140.104,-108.213,-68.066,57.168,-140.995,86.308,-439.948,-165.196,-150.557,48.270,33.699
7.158,-45.113,-140.105,-108.178,-67.994,57.168,-140.995,86.737,-440.390,-165.295,-150.714,48.250,33.582
7.169,-45.114,-140.106,-108.103,-67.803,57.168,-140.993,87.752,-441.423,-165.572,-151.105,48.198,33.288
7.179,-45.113,-140.108,-108.040,-67.604,57.167,-140.992,88.721,-442.391,-165.867,-151.489,48.147,33.002
7.188,-45.112,-140.109,-108.000,-67.456,57.168,-140.990,89.401,-443.059,-166.090,-151.764,48.108,32.797
7.198,-45.112,-140.111,-107.934,-67.191,57.167,-140.990,90.564,-444.223,-166.487,-152.246,48.039,32.439
7.208,-45.112,-140.111,-107.863,-66.848,57.167,-140.989,91.969,-445.634,-166.987,-152.849,47.948,31.990
7.218,-45.112,-140.110,-107.827,-66.660,57.167,-140.989,92.722,-446.391,-167.258,-153.175,47.898,31.748
7.229,-45.111,-140.109,-107.753,-66.261,57.168,-140.987,94.318,-447.987,-167.821,-153.865,47.788,31.236
7.238,-45.111,-140.107,-107.681,-65.829,57.168,-140.986,95.991,-449.656,-168.414,-154.596,47.667,30.695
7.248,-45.110,-140.108,-107.647,-65.595,57.168,-140.986,96.866,-450.523,-168.745,-154.981,47.600,30.411
7.259,-45.109,-140.110,-107.581,-65.089,57.169,-140.986,98.688,-452.339,-169.461,-155.796,47.455,29.811
7.269,-45.109,-140.110,-107.527,-64.550,57.169,-140.986,100.525,-454.185,-170.198,-156.641,47.297,29.189
7.279,-45.110,-140.110,-107.503,-64.273,57.168,-140.986,101.432,-455.103,-170.573,-157.067,47.216,28.875
7.289,-45.111,-140.111,-107.466,-63.684,57.168,-140.986,103.280,-456.970,-171.373,-157.951,47.039,28.227
7.298,-45.111,-140.112,-107.433,-63.001,57.168,-140.986,105.359,-459.056,-172.281,-158.951,46.830,27.496
7.308,-45.110,-140.111,-107.426,-62.731,57.168,-140.986,106.147,-459.846,-172.629,-159.336,46.747,27.216
7.319,-45.110,-140.110,-107.424,-62.067,57.168,-140.986,107.974,-461.679,-173.493,-160.260,46.541,26.545
7.328,-45.110,-140.115,-107.429,-61.350,57.168,-140.986,109.884,-463.594,-174.446,-161.232,46.313,25.840
7.338,-45.110,-140.118,-107.430,-60.991,57.168,-140.986,110.850,-464.567,-174.907,-161.718,46.196,25.488
7.348,-45.112,-140.122,-107.427,-60.260,57.168,-140.986,112.848,-466.590,-175.808,-162.707,45.950,24.774
7.359,-45.112,-140.132,-107.428,-59.493,57.168,-140.986,114.920,-468.673,-176.759,-163.724,45.685,24.044
7.368,-45.112,-140.138,-107.430,-59.108,57.168,-140.985,115.949,-469.706,-177.233,-164.228,45.550,23.684
7.378,-45.113,-140.150,-107.434,-58.319,57.168,-140.986,118.051,-471.828,-178.169,-165.250,45.266,22.955
7.388,-45.113,-140.164,-107.437,-57.502,57.169,-140.986,120.261,-474.036,-179.103,-166.299,44.962,22.212
7.398,-45.113,-140.174,-107.438,-57.030,57.170,-140.986,121.535,-475.315,-179.637,-166.898,44.782,21.789
7.409,-45.114,-140.187,-107.442,-56.272,57.170,-140.987,123.572,-477.366,-180.443,-167.853,44.487,21.117
7.418,-45.115,-140.193,-107.452,-55.368,57.171,-140.986,126.011,-479.823,-181.290,-168.986,44.123,20.325
7.429,-45.116,-140.194,-107.454,-55.034,57.170,-140.986,126.923,-480.751,-181.580,-169.404,43.985,20.033
7.439,-45.116,-140.199,-107.454,-54.190,57.171,-140.986,129.282,-483.122,-182.279,-170.456,43.627,19.305
7.449,-45.116,-140.204,-107.450,-53.364,57.170,-140.987,131.633,-485.477,-182.913,-171.477,43.267,18.603
7.459,-45.115,-140.205,-107.450,-52.872,57.170,-140.987,133.032,-486.876,-183.259,-172.080,43.048,18.192
7.468,-45.113,-140.207,-107.451,-52.086,57.170,-140.987,135.267,-489.099,-183.777,-173.031,42.692,17.546
7.479,-45.112,-140.208,-107.451,-51.165,57.171,-140.987,137.897,-491.728,-184.313,-174.137,42.263,16.800
7.488,-45.113,-140.207,-107.450,-50.814,57.171,-140.987,138.897,-492.740,-184.497,-174.553,42.097,16.520
7.499,-45.113,-140.207,-107.449,-49.942,57.171,-140.987,141.407,-495.254,-184.918,-175.584,41.677,15.833
7.509,-45.113,-140.207,-107.449,-49.068,57.170,-140.988,143.899,-497.768,-185.290,-176.600,41.249,15.160
7.519,-45.112,-140.207,-107.450,-48.543,57.170,-140.988,145.407,-499.269,-185.492,-177.203,40.987,14.764
7.529,-45.111,-140.207,-107.449,-47.737,57.171,-140.988,147.736,-501.590,-185.761,-178.120,40.579,14.167
7.539,-45.110,-140.207,-107.451,-46.770,57.171,-140.988,150.513,-504.360,-186.023,-179.205,40.080,13.466
7.548,-45.109,-140.207,-107.449,-46.327,57.172,-140.988,151.798,-505.643,-186.121,-179.698,39.847,13.149
7.558,-45.110,-140.207,-107.450,-45.507,57.172,-140.988,154.146,-508.013,-186.259,179.399,39.412,12.572
7.568,-45.111,-140.207,-107.450,-44.601,57.171,-140.988,156.742,-510.626,-186.366,178.416,38.924,11.951
7.578,-45.111,-140.208,-107.450,-44.154,57.172,-140.988,158.029,-511.923,-186.397,177.935,38.680,11.649
7.589,-45.110,-140.208,-107.453,-43.240,57.171,-140.988,160.643,-514.536,-186.420,176.966,38.177,11.048
7.599,-45.110,-140.209,-107.451,-42.276,57.172,-140.989,163.431,-517.323,-186.379,175.956,37.635,10.429
7.608,-45.109,-140.209,-107.452,-41.824,57.172,-140.989,164.728,-518.620,-186.337,175.488,37.379,10.144
7.619,-45.108,-140.210,-107.452,-40.992,57.172,-140.989,167.130,-521.016,-186.221,174.634,36.902,9.630
7.629,-45.108,-140.210,-107.452,-40.101,57.172,-140.989,169.691,-523.595,-186.033,173.729,36.384,9.089
7.638,-45.108,-140.210,-107.452,-39.572,57.172,-140.989,171.205,-525.113,-185.899,173.200,36.074,8.776
7.648,-45.109,-140.211,-107.451,-38.771,57.172,-140.990,173.508,-527.434,-185.656,172.403,35.599,8.309
7.658,-45.108,-140.210,-107.452,-37.894,57.171,-140.990,176.015,-529.945,-185.337,171.544,35.074,7.814
7.668,-45.108,-140.211,-107.451,-37.473,57.171,-140.990,177.227,-531.159,-185.163,171.134,34.819,7.579
7.678,-45.108,-140.211,-107.451,-36.621,57.172,-140.990,179.672,-533.608,-184.773,170.313,34.299,7.114
7.689,-45.106,-140.211,-107.452,-35.759,57.171,-140.990,182.142,-536.065,-184.332,169.494,33.770,6.657
7.699,-45.107,-140.211,-107.451,-35.269,57.171,-140.990,183.540,-537.475,-184.054,169.032,33.465,6.401
7.708,-45.107,-140.210,-107.453,-34.486,57.171,-140.989,185.756,-539.700,-183.577,168.303,32.976,6.001
7.718,-45.108,-140.211,-107.452,-33.658,57.171,-140.989,188.108,-542.074,-183.023,167.538,32.453,5.586
7.729,-45.107,-140.210,-107.452,-33.163,57.170,-140.989,189.506,-543.477,-182.668,167.086,32.140,5.345
7.738,-45.107,-140.210,-107.452,-32.380,57.170,-140.989,191.727,-545.701,-182.071,166.376,31.639,4.971
7.748,-45.107,-140.209,-107.451,-31.534,57.170,-140.989,194.120,-548.110,-181.370,165.616,31.093,4.575
7.759,-45.107,-140.208,-107.451,-31.035,57.170,-140.989,195.526,-549.519,-180.935,165.173,30.769,4.347
7.768,-45.107,-140.208,-107.450,-30.245,57.170,-140.989,197.751,-551.754,-180.215,164.476,30.253,3.993
7.778,-45.108,-140.208,-107.450,-29.384,57.170,-140.989,200.153,-554.170,-179.383,163.728,29.687,3.619
7.789,-45.107,-140.208,-107.451,-28.858,57.170,-140.989,201.617,-555.633,-178.858,163.275,29.340,3.396
7.799,-45.108,-140.209,-107.451,-28.050,57.170,-140.989,203.858,-557.890,-178.011,162.584,28.803,3.060
7.808,-45.108,-140.209,-107.452,-27.149,57.170,-140.989,206.341,-560.382,-177.013,161.825,28.201,2.698
7.818,-45.108,-140.209,-107.451,-26.707,57.170,-140.989,207.567,-561.618,-176.493,161.453,27.903,2.523
7.829,-45.108,-140.208,-107.450,-25.816,57.170,-140.989,210.028,-564.086,-175.406,160.710,27.300,2.179
7.839,-45.106,-140.208,-107.450,-24.921,57.170,-140.989,212.499,-566.541,-174.271,159.974,26.690,1.846
7.848,-45.106,-140.208,-107.448,-24.470,57.170,-140.989,213.742,-567.780,-173.676,159.606,26.380,1.682
7.859,-45.103,-140.207,-107.449,-23.561,57.170,-140.989,216.237,-570.247,-172.430,158.869,25.756,1.362
7.868,-45.100,-140.207,-107.447,-22.658,57.170,-140.990,218.711,-572.700,-171.136,158.144,25.131,1.053
7.878,-45.100,-140.206,-107.447,-22.206,57.170,-140.990,219.927,-573.918,-170.471,157.785,24.817,0.901
7.888,-45.100,-140.206,-107.447,-21.288,57.169,-140.990,222.381,-576.383,-169.080,157.061,24.178,0.601
7.899,-45.101,-140.206,-107.447,-20.380,57.170,-140.990,224.785,-578.809,-167.652,156.351,23.542,0.313
7.909,-45.101,-140.206,-107.448,-19.910,57.169,-140.989,226.017,-580.047,-166.899,155.988,23.212,0.168
7.919,-45.102,-140.206,-107.448,-18.991,57.169,-140.990,228.427,-582.474,-165.374,155.281,22.564,-0.107
7.929,-45.102,-140.206,-107.450,-18.058,57.169,-140.990,230.839,-584.903,-163.781,154.572,21.905,-0.376
7.939,-45.103,-140.206,-107.450,-17.602,57.169,-140.990,232.024,-586.094,-162.973,154.227,21.580,-0.504
7.949,-45.105,-140.206,-107.450,-16.605,57.170,-140.989,234.572,-588.684,-161.163,153.477,20.868,-0.778
7.958,-45.106,-140.205,-107.449,-15.761,57.169,-140.989,236.731,-590.864,-159.575,152.847,20.262,-1.000
7.969,-45.107,-140.205,-107.448,-15.300,57.169,-140.990,237.899,-592.054,-158.687,152.505,19.930,-1.118
7.979,-45.107,-140.204,-107.449,-14.369,57.168,-140.990,240.247,-594.413,-156.859,151.820,19.260,-1.348
7.989,-45.106,-140.203,-107.446,-13.451,57.168,-140.990,242.571,-596.739,-154.988,151.147,18.593,-1.565
7.998,-45.106,-140.202,-107.446,-12.986,57.168,-140.990,243.741,-597.903,-154.022,150.809,18.254,-1.672
8.009,-45.104,-140.202,-107.445,-12.067,57.169,-140.990,246.033,-600.175,-152.093,150.146,17.585,-1.874
8.018,-45.104,-140.203,-107.447,-11.134,57.169,-140.990,248.304,-602.449,-150.100,149.480,16.906,-2.071
8.029,-45.102,-140.203,-107.448,-10.665,57.169,-140.990,249.446,-603.579,-149.076,149.147,16.564,-2.166
8.039,-45.103,-140.204,-107.447,-9.738,57.168,-140.990,251.675,-605.820,-147.007,148.490,15.884,-2.350
8.049,-45.102,-140.204,-107.448,-8.805,57.168,-140.989,253.902,-608.041,-144.871,147.834,15.198,-2.525
8.059,-45.102,-140.204,-107.448,-8.342,57.169,-140.989,254.994,-609.136,-143.794,147.511,14.857,-2.609
8.069,-45.103,-140.204,-107.447,-7.418,57.169,-140.989,257.146,-611.319,-141.589,146.866,14.174,-2.772
8.078,-45.104,-140.203,-107.446,-6.492,57.169,-140.989,259.292,-613.480,-139.329,146.224,13.487,-2.927
8.089,-45.106,-140.202,-107.446,-6.031,57.169,-140.989,260.330,-614.547,-138.189,145.906,13.145,-3.001
8.099,-45.106,-140.202,-107.447,-5.092,57.169,-140.989,262.455,-616.690,-135.836,145.261,12.447,-3.144
8.109,-45.107,-140.202,-107.446,-4.159,57.170,-140.989,264.543,-618.796,-133.444,144.624,11.752,-3.279
8.119,-45.107,-140.202,-107.446,-3.681,57.170,-140.989,265.602,-619.855,-132.209,144.299,11.396,-3.344
8.128,-45.106,-140.203,-107.446,-2.753,57.170,-140.989,267.644,-621.898,-129.765,143.670,10.703,-3.464
8.138,-45.106,-140.204,-107.447,-1.798,57.170,-140.989,269.704,-623.965,-127.213,143.027,9.990,-3.580
8.149,-45.106,-140.204,-107.447,-1.325,57.170,-140.989,270.721,-624.982,-125.928,142.709,9.636,-3.633
8.159,-45.106,-140.204,-107.446,-0.372,57.171,-140.989,272.745,-627.008,-123.293,142.071,8.920,-3.736
8.168,-45.104,-140.204,-107.447,0.580,57.171,-140.989,274.750,-628.990,-120.617,141.435,8.206,-3.828
8.179,-45.105,-140.204,-107.446,1.051,57.171,-140.989,275.719,-629.968,-119.273,141.121,7.851,-3.873
8.189,-45.103,-140.204,-107.446,2.000,57.172,-140.989,277.671,-631.897,-116.537,140.491,7.136,-3.953
8.199,-45.102,-140.204,-107.446,3.022,57.172,-140.989,279.726,-633.948,-113.539,139.815,6.366,-4.032
8.209,-45.102,-140.204,-107.446,3.425,57.172,-140.989,280.522,-634.743,-112.344,139.549,6.062,-4.060
8.219,-45.102,-140.203,-107.447,4.370,57.172,-140.989,282.362,-636.589,-109.509,138.925,5.349,-4.123
8.229,-45.104,-140.203,-107.446,5.324,57.172,-140.989,284.172,-638.430,-106.600,138.298,4.628,-4.178
8.239,-45.104,-140.203,-107.446,5.793,57.173,-140.989,285.058,-639.319,-105.155,137.990,4.273,-4.202
8.248,-45.107,-140.203,-107.446,6.723,57.173,-140.989,286.758,-641.071,-102.257,137.379,3.570,-4.246
8.259,-45.107,-140.203,-107.447,7.741,57.172,-140.989,288.598,-642.932,-99.050,136.713,2.802,-4.285
8.269,-45.108,-140.203,-107.447,8.125,57.173,-140.990,289.282,-643.626,-97.829,136.462,2.511,-4.296
8.278,-45.108,-140.204,-107.447,9.057,57.172,-140.990,290.927,-645.282,-94.834,135.852,1.806,-4.320
8.289,-45.108,-140.204,-107.446,9.958,57.172,-140.989,292.496,-646.849,-91.901,135.263,1.123,-4.335
8.299,-45.108,-140.204,-107.446,10.412,57.172,-140.990,293.266,-647.626,-90.414,134.967,0.780,-4.339
8.309,-45.106,-140.205,-107.447,11.299,57.172,-140.990,294.764,-649.108,-87.482,134.389,0.109,-4.342
8.319,-45.107,-140.205,-107.446,12.173,57.172,-140.990,296.198,-650.560,-84.548,133.818,-0.554,-4.341
8.329,-45.107,-140.204,-107.446,12.612,57.172,-140.990,296.918,-651.270,-83.061,133.530,-0.887,-4.337
8.339,-45.106,-140.204,-107.445,13.457,57.172,-140.990,298.265,-652.620,-80.176,132.978,-1.528,-4.325
8.349,-45.105,-140.204,-107.445,14.307,57.172,-140.990,299.598,-653.936,-77.258,132.422,-2.171,-4.306
8.359,-45.104,-140.203,-107.446,14.787,57.172,-140.990,300.339,-654.667,-75.592,132.108,-2.535,-4.292
8.368,-45.105,-140.203,-107.445,15.520,57.172,-140.990,301.434,-655.774,-73.036,131.628,-3.090,-4.269
8.378,-45.104,-140.203,-107.446,16.326,57.172,-140.989,302.614,-656.951,-70.216,131.100,-3.699,-4.237
8.388,-45.105,-140.203,-107.446,16.717,57.173,-140.990,303.171,-657.518,-68.833,130.844,-3.994,-4.220
8.399,-45.106,-140.202,-107.444,17.491,57.173,-140.990,304.271,-658.632,-66.060,130.334,-4.581,-4.183
8.408,-45.105,-140.200,-107.444,18.267,57.173,-140.990,305.356,-659.711,-63.259,129.822,-5.170,-4.139
8.418,-45.105,-140.199,-107.443,18.706,57.173,-140.990,305.958,-660.318,-61.654,129.532,-5.503,-4.112
8.429,-45.104,-140.196,-107.440,19.399,57.173,-140.990,306.914,-661.254,-59.099,129.071,-6.030,-4.064
8.438,-45.104,-140.194,-107.439,20.172,57.173,-140.990,307.933,-662.272,-56.249,128.558,-6.616,-4.007
8.449,-45.103,-140.193,-107.437,20.551,57.173,-140.990,308.427,-662.762,-54.843,128.306,-6.903,-3.977
8.458,-45.103,-140.192,-107.435,21.330,57.174,-140.989,309.420,-663.743,-51.952,127.787,-7.492,-3.911
8.469,-45.102,-140.192,-107.434,22.109,57.174,-140.989,310.378,-664.691,-49.053,127.267,-8.080,-3.840
8.478,-45.101,-140.192,-107.433,22.498,57.174,-140.989,310.849,-665.152,-47.600,127.008,-8.373,-3.802
8.488,-45.100,-140.192,-107.432,23.279,57.174,-140.989,311.770,-666.058,-44.675,126.485,-8.961,-3.723
8.499,-45.100,-140.191,-107.430,24.056,57.174,-140.988,312.647,-666.938,-41.740,125.963,-9.545,-3.639
8.509,-45.101,-140.191,-107.429,24.449,57.174,-140.988,313.079,-667.378,-40.245,125.698,-9.841,-3.595
8.519,-45.102,-140.192,-107.426,25.250,57.174,-140.988,313.924,-668.251,-37.200,125.157,-10.441,-3.501
8.528,-45.103,-140.192,-107.420,26.033,57.174,-140.988,314.747,-669.096,-34.182,124.623,-11.031,-3.403
8.539,-45.104,-140.192,-107.415,26.422,57.174,-140.988,315.155,-669.512,-32.664,124.357,-11.324,-3.351
8.549,-45.104,-140.192,-107.403,27.207,57.174,-140.988,315.983,-670.342,-29.568,123.814,-11.919,-3.242
8.559,-45.103,-140.191,-107.387,28.046,57.174,-140.988,316.851,-671.212,-26.213,123.228,-12.556,-3.118
8.569,-45.104,-140.190,-107.380,28.371,57.174,-140.988,317.184,-671.548,-24.897,123.000,-12.803,-3.068
8.578,-45.104,-140.191,-107.356,29.159,57.173,-140.988,317.989,-672.372,-21.687,122.441,-13.405,-2.943
8.589,-45.105,-140.192,-107.326,29.935,57.173,-140.988,318.782,-673.188,-18.466,121.884,-14.002,-2.812
8.599,-45.106,-140.191,-107.312,30.328,57.173,-140.988,319.161,-673.579,-16.841,121.602,-14.302,-2.743
8.609,-45.106,-140.194,-107.276,31.091,57.173,-140.988,319.939,-674.363,-13.631,121.046,-14.890,-2.604
8.618,-45.105,-140.192,-107.245,31.849,57.173,-140.989,320.673,-675.089,-10.411,120.491,-15.473,-2.457
8.629,-45.104,-140.192,-107.225,32.231,57.173,-140.989,321.059,-675.455,-8.776,120.208,-15.768,-2.380
8.639,-45.103,-140.192,-107.189,32.965,57.174,-140.989,321.762,-676.137,-5.635,119.664,-16.332,-2.228
8.649,-45.103,-140.191,-107.158,33.684,57.173,-140.989,322.384,-676.759,-2.558,119.130,-16.881,-2.075
8.659,-45.104,-140.192,-107.136,34.038,57.173,-140.989,322.703,-677.094,-1.019,118.863,-17.155,-1.998
8.668,-45.105,-140.190,-107.105,34.731,57.173,-140.990,323.258,-677.674,1.987,118.341,-17.685,-1.843
8.679,-45.107,-140.192,-107.063,35.410,57.173,-140.990,323.818,-678.273,4.966,117.822,-18.208,-1.685
8.688,-45.108,-140.192,-107.043,35.752,57.172,-140.990,324.082,-678.556,6.466,117.560,-18.469,-1.604
8.699,-45.107,-140.191,-107.000,36.405,57.172,-140.991,324.636,-679.098,9.383,117.053,-18.974,-1.440
8.708,-45.108,-140.190,-106.957,37.032,57.172,-140.991,325.128,-679.611,12.204,116.561,-19.458,-1.279
8.718,-45.107,-140.190,-106.937,37.332,57.172,-140.991,325.377,-679.838,13.556,116.325,-19.689,-1.199
8.728,-45.108,-140.191,-106.889,37.929,57.171,-140.992,325.840,-680.332,16.279,115.849,-20.152,-1.038
8.739,-45.109,-140.189,-106.840,38.482,57.171,-140.993,326.281,-680.788,18.857,115.401,-20.583,-0.883
8.749,-45.110,-140.190,-106.816,38.745,57.170,-140.993,326.478,-681.007,20.080,115.187,-20.788,-0.808
8.758,-45.112,-140.190,-106.770,39.251,57.171,-140.994,326.848,-681.419,22.434,114.773,-21.182,-0.662
8.768,-45.113,-140.190,-106.732,39.713,57.168,-140.994,327.149,-681.755,24.562,114.396,-21.538,-0.528
8.779,-45.115,-140.190,-106.718,39.913,57.169,-140.994,327.264,-681.893,25.467,114.235,-21.690,-0.469
8.788,-45.115,-140.191,-106.701,40.277,57.169,-140.995,327.438,-682.077,27.043,113.947,-21.959,-0.363
8.799,-45.115,-140.192,-106.691,40.602,57.170,-140.995,327.573,-682.212,28.418,113.694,-22.196,-0.267
8.809,-45.116,-140.191,-106.692,40.706,57.170,-140.995,327.590,-682.237,28.847,113.614,-22.270,-0.237
8.818,-45.117,-140.193,-106.696,40.941,57.170,-140.995,327.620,-682.278,29.758,113.439,-22.432,-0.171
8.828,-45.119,-140.194,-106.699,41.112,57.170,-140.995,327.620,-682.316,30.419,113.311,-22.551,-0.124
8.838,-45.120,-140.194,-106.699,41.182,57.170,-140.995,327.622,-682.337,30.702,113.258,-22.600,-0.105
8.849,-45.123,-140.195,-106.698,41.301,57.170,-140.995,327.619,-682.382,31.174,113.167,-22.684,-0.073
8.859,-45.123,-140.196,-106.702,41.354,57.170,-140.996,327.616,-682.378,31.357,113.129,-22.718,-0.058
8.869,-45.122,-140.197,-106.702,41.354,57.171,-140.995,327.616,-682.374,31.346,113.130,-22.718,-0.058
8.879,-45.121,-140.197,-106.700,41.341,57.171,-140.995,327.635,-682.374,31.306,113.139,-22.710,-0.060
8.889,-45.119,-140.197,-106.700,41.329,57.172,-140.995,327.660,-682.358,31.250,113.149,-22.702,-0.061
8.899,-45.119,-140.198,-106.701,41.325,57.172,-140.995,327.664,-682.351,31.225,113.153,-22.698,-0.062
8.909,-45.118,-140.198,-106.700,41.321,57.173,-140.995,327.682,-682.344,31.206,113.156,-22.696,-0.061
8.919,-45.117,-140.198,-106.698,41.320,57.174,-140.995,327.706,-682.346,31.216,113.156,-22.697,-0.059
8.929,-45.116,-140.198,-106.698,41.319,57.174,-140.995,327.715,-682.341,31.213,113.156,-22.696,-0.058
8.938,-45.115,-140.200,-106.701,41.318,57.174,-140.995,327.719,-682.320,31.171,113.160,-22.693,-0.058
8.949,-45.114,-140.202,-106.702,41.316,57.174,-140.995,327.714,-682.310,31.125,113.164,-22.689,-0.060
8.958,-45.114,-140.203,-106.702,41.315,57.175,-140.995,327.712,-682.307,31.105,113.166,-22.687,-0.060
8.969,-45.115,-140.206,-106.704,41.311,57.176,-140.996,327.699,-682.297,31.046,113.173,-22.681,-0.062
8.979,-45.115,-140.207,-106.705,41.305,57.178,-140.995,327.701,-682.286,30.993,113.180,-22.677,-0.063
8.989,-45.115,-140.207,-106.704,41.302,57.179,-140.995,327.706,-682.286,30.985,113.183,-22.675,-0.063
8.999,-45.115,-140.206,-106.704,41.298,57.181,-140.995,327.719,-682.285,30.983,113.185,-22.673,-0.062
9.008,-45.114,-140.206,-106.704,41.297,57.185,-140.995,327.741,-682.276,30.970,113.188,-22.674,-0.058
9.019,-45.114,-140.205,-106.705,41.296,57.187,-140.995,327.750,-682.273,30.969,113.189,-22.675,-0.057
9.029,-45.115,-140.205,-106.704,41.296,57.188,-140.995,327.752,-682.279,30.976,113.188,-22.675,-0.057
9.038,-45.115,-140.205,-106.704,41.296,57.188,-140.995,327.751,-682.278,30.980,113.188,-22.675,-0.057
9.048,-45.114,-140.205,-106.704,41.296,57.188,-140.995,327.755,-682.276,30.980,113.188,-22.675,-0.056
9.058,-45.113,-140.205,-106.704,41.296,57.188,-140.995,327.767,-682.271,30.974,113.189,-22.675,-0.056
9.068,-45.112,-140.206,-106.704,41.295,57.189,-140.995,327.788,-682.260,30.964,113.190,-22.674,-0.054
9.079,-45.111,-140.206,-106.704,41.296,57.189,-140.995,327.798,-682.253,30.959,113.190,-22.674,-0.053
9.089,-45.110,-140.207,-106.705,41.295,57.189,-140.995,327.802,-682.245,30.944,113.191,-22.673,-0.053
9.099,-45.111,-140.207,-106.704,41.294,57.189,-140.995,327.793,-682.251,30.944,113.192,-22.672,-0.054
9.109,-45.111,-140.206,-106.704,41.293,57.189,-140.995,327.792,-682.254,30.943,113.192,-22.672,-0.054
9.118,-45.112,-140.206,-106.704,41.293,57.189,-140.995,327.786,-682.260,30.953,113.191,-22.673,-0.054
9.128,-45.112,-140.206,-106.704,41.293,57.189,-140.995,327.785,-682.261,30.954,113.191,-22.673,-0.054
9.139,-45.112,-140.206,-106.704,41.293,57.189,-140.995,327.784,-682.263,30.956,113.191,-22.674,-0.055
9.149,-45.112,-140.206,-106.704,41.293,57.189,-140.995,327.784,-682.262,30.954,113.191,-22.673,-0.054
9.159,-45.112,-140.206,-106.704,41.293,57.190,-140.995,327.782,-682.261,30.949,113.192,-22.673,-0.054
9.169,-45.112,-140.206,-106.704,41.293,57.189,-140.995,327.779,-682.260,30.945,113.192,-22.672,-0.055
9.179,-45.113,-140.206,-106.705,41.293,57.189,-140.995,327.774,-682.259,30.946,113.192,-22.672,-0.055
9.189,-45.112,-140.206,-106.705,41.293,57.189,-140.995,327.779,-682.256,30.941,113.193,-22.672,-0.055
9.199,-45.112,-140.206,-106.705,41.293,57.189,-140.995,327.784,-682.253,30.943,113.193,-22.672,-0.055
9.209,-45.111,-140.206,-106.704,41.293,57.189,-140.995,327.797,-682.252,30.951,113.192,-22.673,-0.053
9.219,-45.111,-140.205,-106.704,41.293,57.189,-140.995,327.802,-682.251,30.954,113.192,-22.673,-0.053
9.229,-45.110,-140.205,-106.704,41.292,57.189,-140.995,327.807,-682.250,30.955,113.192,-22.673,-0.052
9.238,-45.111,-140.205,-106.704,41.292,57.189,-140.995,327.802,-682.251,30.953,113.192,-22.672,-0.053
9.248,-45.111,-140.206,-106.704,41.292,57.190,-140.995,327.798,-682.252,30.942,113.193,-22.672,-0.053
9.259,-45.111,-140.206,-106.705,41.292,57.190,-140.995,327.794,-682.250,30.935,113.194,-22.671,-0.054
9.268,-45.111,-140.207,-106.705,41.291,57.190,-140.995,327.790,-682.246,30.919,113.195,-22.670,-0.054
9.278,-45.111,-140.208,-106.706,41.289,57.191,-140.995,327.792,-682.241,30.901,113.198,-22.669,-0.054
9.289,-45.111,-140.208,-106.706,41.288,57.193,-140.995,327.796,-682.239,30.893,113.199,-22.668,-0.053
9.299,-45.111,-140.208,-106.707,41.286,57.197,-140.995,327.809,-682.231,30.867,113.203,-22.667,-0.051
9.309,-45.111,-140.209,-106.707,41.285,57.201,-140.995,327.827,-682.224,30.851,113.206,-22.667,-0.048
9.319,-45.111,-140.209,-106.707,41.285,57.202,-140.995,327.836,-682.218,30.845,113.207,-22.667,-0.047
9.329,-45.111,-140.209,-106.707,41.284,57.202,-140.995,327.839,-682.217,30.838,113.208,-22.666,-0.047
9.339,-45.110,-140.209,-106.707,41.284,57.203,-140.995,327.852,-682.210,30.835,113.208,-22.666,-0.046
9.349,-45.109,-140.209,-106.707,41.284,57.203,-140.995,327.860,-682.206,30.835,113.208,-22.666,-0.046
9.358,-45.108,-140.209,-106.707,41.284,57.202,-140.994,327.874,-682.201,30.841,113.208,-22.667,-0.045
9.369,-45.107,-140.209,-106.706,41.284,57.202,-140.995,327.890,-682.199,30.851,113.207,-22.667,-0.043
9.378,-45.107,-140.208,-106.706,41.284,57.202,-140.995,327.889,-682.201,30.857,113.206,-22.668,-0.043
9.388,-45.107,-140.208,-106.706,41.284,57.202,-140.995,327.890,-682.201,30.860,113.206,-22.668,-0.043
9.398,-45.107,-140.208,-106.706,41.284,57.204,-140.995,327.899,-682.201,30.866,113.206,-22.669,-0.042
9.408,-45.106,-140.208,-106.705,41.284,57.204,-140.995,327.903,-682.202,30.868,113.206,-22.669,-0.041
9.419,-45.106,-140.207,-106.704,41.285,57.204,-140.995,327.910,-682.207,30.887,113.204,-22.671,-0.040
9.429,-45.106,-140.206,-106.703,41.287,57.200,-140.995,327.904,-682.218,30.918,113.199,-22.672,-0.041
9.439,-45.108,-140.205,-106.703,41.287,57.200,-140.996,327.884,-682.228,30.930,113.199,-22.672,-0.043
9.449,-45.111,-140.204,-106.703,41.287,57.199,-140.995,327.846,-682.252,30.955,113.196,-22.674,-0.047
9.459,-45.113,-140.203,-106.703,41.289,57.199,-140.995,327.819,-682.262,30.964,113.195,-22.675,-0.048
9.469,-45.113,-140.203,-106.703,41.289,57.199,-140.995,327.823,-682.265,30.972,113.195,-22.676,-0.048
9.479,-45.111,-140.201,-106.702,41.291,57.199,-140.995,327.859,-682.255,31.001,113.192,-22.679,-0.044
9.489,-45.108,-140.199,-106.702,41.292,57.199,-140.995,327.896,-682.241,31.033,113.189,-22.682,-0.040
9.499,-45.107,-140.197,-106.701,41.293,57.199,-140.995,327.917,-682.243,31.070,113.186,-22.685,-0.038
9.509,-45.106,-140.190,-106.696,41.297,57.200,-140.994,327.960,-682.276,31.208,113.174,-22.696,-0.032
9.519,-45.107,-140.181,-106.689,41.299,57.202,-140.994,328.008,-682.323,31.371,113.161,-22.710,-0.026
9.529,-45.106,-140.175,-106.684,41.301,57.203,-140.994,328.055,-682.350,31.492,113.151,-22.720,-0.020
9.539,-45.105,-140.151,-106.674,41.306,57.204,-140.994,328.152,-682.418,31.871,113.122,-22.747,-0.007
9.549,-45.102,-140.111,-106.663,41.311,57.204,-140.994,328.296,-682.511,32.474,113.078,-22.787,0.012
9.558,-45.101,-140.091,-106.654,41.313,57.203,-140.994,328.365,-682.576,32.786,113.055,-22.809,0.021
9.568,-45.102,-140.048,-106.626,41.315,57.203,-140.994,328.549,-682.771,33.529,112.998,-22.860,0.042
9.579,-45.103,-140.001,-106.576,41.318,57.203,-140.993,328.832,-683.069,34.463,112.921,-22.931,0.071
9.589,-45.103,-139.982,-106.552,41.321,57.203,-140.994,328.964,-683.209,34.876,112.886,-22.963,0.085
9.599,-45.103,-139.934,-106.477,41.330,57.203,-140.993,329.386,-683.624,36.026,112.784,-23.057,0.125
9.609,-45.103,-139.890,-106.403,41.339,57.203,-140.993,329.783,-684.027,37.118,112.686,-23.146,0.163
9.619,-45.103,-139.862,-106.361,41.344,57.202,-140.993,330.006,-684.261,37.772,112.628,-23.199,0.185
9.628,-45.103,-139.786,-106.263,41.355,57.202,-140.994,330.555,-684.817,39.446,112.485,-23.328,0.242
9.638,-45.105,-139.704,-106.183,41.367,57.202,-140.993,331.005,-685.302,41.080,112.349,-23.451,0.293
9.649,-45.106,-139.654,-106.138,41.374,57.202,-140.993,331.261,-685.574,42.033,112.272,-23.522,0.324
9.658,-45.107,-139.550,-106.045,41.385,57.202,-140.993,331.800,-686.136,44.033,112.109,-23.668,0.387
9.668,-45.108,-139.436,-105.952,41.392,57.202,-140.994,332.348,-686.703,46.136,111.942,-23.818,0.453
9.679,-45.108,-139.375,-105.904,41.397,57.201,-140.993,332.635,-686.999,47.265,111.853,-23.898,0.489
9.689,-45.108,-139.252,-105.799,41.404,57.201,-140.994,333.255,-687.619,49.579,111.669,-24.062,0.564
9.699,-45.111,-139.127,-105.681,41.409,57.200,-140.994,333.893,-688.305,52.000,111.474,-24.235,0.641
9.709,-45.112,-139.063,-105.620,41.411,57.200,-140.994,334.225,-688.659,53.252,111.373,-24.324,0.681
9.719,-45.112,-138.930,-105.487,41.411,57.200,-140.994,334.960,-689.400,55.865,111.164,-24.509,0.767
9.728,-45.112,-138.797,-105.342,41.411,57.200,-140.994,335.742,-690.185,58.571,110.944,-24.702,0.859
9.738,-45.112,-138.732,-105.262,41.411,57.200,-140.995,336.167,-690.608,59.968,110.829,-24.803,0.907
9.749,-45.111,-138.590,-105.075,41.411,57.199,-140.995,337.133,-691.570,63.095,110.568,-25.029,1.017
9.759,-45.109,-138.471,-104.902,41.411,57.199,-140.995,338.026,-692.439,65.847,110.335,-25.232,1.117
9.768,-45.108,-138.403,-104.804,41.411,57.199,-140.995,338.525,-692.924,67.416,110.203,-25.346,1.175
9.779,-45.108,-138.243,-104.594,41.411,57.199,-140.995,339.589,-693.981,70.965,109.906,-25.601,1.303
